!!!!SEGMENT: pl-wn--mus-iii-153-379_katski-apolinary--hommage-a-varsovie-op-12.krn
!!!cenid: 18xx:3634
!!!COM: Kątski, Apolinary
!!!COM-rismID: pe30020040
!!!CDT: 1825-1879
!!!CNT: Polish
!!!OTL: Hommage à Varsovie op. 12
!!!PDT:
!!!AGN:
!!!SMS-siglum: PL-Wn
!!!SMS-shelfmark: Mus.III.153.379
!!!SMS-shelfwork: W
!!!SMS-variant: Partytura: PL-Wn Mus.III.153.379: karta A2 i B3-B15
!!!SMS-altvar: Violon: PL-Wn Mus.III.153.379: karta B2 i A3-A7
!!!NIFC-rismSourceID:
!!!NIFC-islandoraID:
!!!URL-pdf-islandora:
!!!URL-scan: https://polona.pl/item/hommage-a-varsovie-stephen-batory-poeme-mazur-op-12,MTAwOTE0MjQy/1 @EN{Scan on Polona} @PL{Skany w portalu Polona}
!!!ONB-nifc: UWAGA: wg partytury. Proszę uzupełnić pola @SMS
!!!OMD: Allegro.
!!!AIN: 1 piano 1 violn
!!!key: D
**kern	**kern	**dynam	**kern	**fing	**dynam
*part2	*part2	*part2	*part1	*part1	*part1
*staff3	*staff2	*	*staff1	*	*
*I"PIANO.	*I"PIANO.	*	*I"VIOLON.	*	*
*Ipiano	*Ipiano	*	*Ivioln	*	*
*ICklav	*ICklav	*	*ICstr	*	*
*IGacmp	*IGacmp	*	*IGsolo	*	*
*clefF4	*clefG2	*	*clefG2	*	*
*kcancel	*kcancel	*	*kcancel	*	*
*k[f#c#]	*k[f#c#]	*	*k[f#c#]	*	*
*D:	*D:	*	*D:	*	*
*M3/4	*M3/4	*	*M3/4	*	*
=1	=1	=1	=1	=1	=1
*tremolo	*	*	*	*	*
(16AAA/LL	2.r	p	2.r	.	.
16AA/	.	.	.	.	.
16AAA/	.	.	.	.	.
16AA/	.	.	.	.	.
16AAA/	.	.	.	.	.
16AA/	.	.	.	.	.
16AAA/	.	.	.	.	.
16AA/	.	.	.	.	.
16AAA/	.	.	.	.	.
16AA/	.	.	.	.	.
16AAA/	.	.	.	.	.
16AA/JJ)	.	.	.	.	.
=2	=2	=2	=2	=2	=2
(16AAA/LL	2.r	.	2.r	.	.
16AA/	.	.	.	.	.
16AAA/	.	.	.	.	.
16AA/	.	.	.	.	.
16AAA/	.	.	.	.	.
16AA/	.	.	.	.	.
16AAA/	.	.	.	.	.
16AA/	.	.	.	.	.
16AAA/	.	.	.	.	.
16AA/	.	.	.	.	.
16AAA/	.	.	.	.	.
16AA/JJ)	.	.	.	.	.
=3	=3	=3	=3	=3	=3
(16AAA/LL	2.r	.	2.r	.	.
16AA/	.	.	.	.	.
16AAA/	.	.	.	.	.
16AA/	.	.	.	.	.
16AAA/	.	.	.	.	.
16AA/	.	.	.	.	.
16AAA/	.	.	.	.	.
16AA/	.	.	.	.	.
16AAA/	.	.	.	.	.
16AA/	.	.	.	.	.
16AAA/	.	.	.	.	.
16AA/JJ)	.	.	.	.	.
=4	=4	=4	=4	=4	=4
(16AAA/LL	2.r	.	2.r	.	.
16AA/	.	.	.	.	.
16AAA/	.	.	.	.	.
16AA/	.	.	.	.	.
16AAA/	.	.	.	.	.
16AA/	.	.	.	.	.
16AAA/	.	.	.	.	.
16AA/	.	.	.	.	.
16AAA/	.	.	.	.	.
16AA/	.	.	.	.	.
16AAA/	.	.	.	.	.
16AA/JJ)	.	.	.	.	.
=5	=5	=5	=5	=5	=5
(16AAA/LL	8.aL 8.c# 8.A/	p	2.r	.	.
16AA/	.	.	.	.	.
16AAA/	.	<	.	.	.
16AA/	16aJk 16c# 16A/	.	.	.	.
16AAA/	4a 4c# 4A/	.	.	.	.
16AA/	.	.	.	.	.
16AAA/	.	.	.	.	.
16AA/	.	.	.	.	.
16AAA/	4a 4c# 4A^/	.	.	.	.
16AA/	.	.	.	.	.
16AAA/	.	.	.	.	.
16AA/JJ)	.	.	.	.	.
=6	=6	=6	=6	=6	=6
(16AAA/LL	8.aL 8.d 8.B/	.	2.r	.	.
16AA/	.	.	.	.	.
16AAA/	.	.	.	.	.
16AA/	16aJk 16d 16B/	.	.	.	.
16AAA/	4a 4d 4B/	.	.	.	.
16AA/	.	.	.	.	.
16AAA/	.	.	.	.	.
16AA/	.	.	.	.	.
16AAA/	4a 4d 4B^/	.	.	.	.
16AA/	.	.	.	.	.
16AAA/	.	.	.	.	.
16AA/JJ)	.	.	.	.	.
=7	=7	=7	=7	=7	=7
(16AAA/LL	8.aL 8.d#X 8.cn/	.	2.r	.	.
16AA/	.	.	.	.	.
16AAA/	.	.	.	.	.
16AA/	16aJk 16d# 16c/	.	.	.	.
16AAA/	4a 4d# 4c/	.	.	.	.
16AA/	.	.	.	.	.
16AAA/	.	.	.	.	.
16AA/	.	.	.	.	.
16AAA/	4a 4d# 4c^/	.	.	.	.
16AA/	.	.	.	.	.
16AAA/	.	.	.	.	.
16AA/JJ)	.	[[	.	.	.
=8	=8	=8	=8	=8	=8
(16AAA/LL	8.aL 8.e 8.c#X/	f	2.r	.	.
16AA/	.	.	.	.	.
16AAA/	.	.	.	.	.
16AA/	16aJk 16e 16c#/	.	.	.	.
16AAA/	4a 4e 4c#/	.	.	.	.
16AA/	.	.	.	.	.
16AAA/	.	.	.	.	.
16AA/	.	.	.	.	.
16AAA/	4a 4e 4c#/	.	.	.	.
16AA/	.	.	.	.	.
16AAA/	.	.	.	.	.
16AA/JJ)	.	.	.	.	.
*Xtremolo	*	*	*	*	*
!!LO:LB:g=original
=9	=9	=9	=9	=9	=9
*	*	*	*^	*	*
!	!LO:TX:a:Bi:t=risoluto.	!LO:DY:rj	!	!	!	!LO:DY:rj
4D 4AA 4DD/	4a 4f# 4d 4A/	f	4a 4f#v/	4d\	.	ff
!	!	!	!	!LO:TX:t=P:global:problem=oznaczenie smyczek w dół obrócone	!	!
2D 2AA 2DD/	2a 2f# 2d 2A^/	.	2dd 2f#u/	2d^\	.	.
=10	=10	=10	=10	=10	=10	=10
4D 4AA 4DD/	4a 4f# 4d 4A/	.	4a 4f#v/	4d\	.	.
2D 2AA 2DD/	2a 2f# 2d 2A^/	.	2ff# 2a 2f#u/	2d^\	.	.
=11	=11	=11	=11	=11	=11	=11
!	!	!	!LO:TUP:b	!	!	!
4D 4AA 4DD/	4a 4f# 4d 4A/	.	(12av/L	2d\	.	.
.	.	.	12dd/	.	.	.
.	.	.	12ff#J 12a/	.	.	.
4D 4AA 4DD/	4a 4f# 4d 4A/	.	4ff# 4a/)	.	.	.
4D 4AA 4DD/	4a 4f# 4d 4A/	.	4bb 4au/	4d^\	.	.
=12	=12	=12	=12	=12	=12	=12
4D 4AA 4DD/	4a 4f# 4d 4A/	.	(8.aaL 8.av/	4d\	.	.
.	.	.	16ff#Jk 16a/)	.	.	.
2D 2AA 2DD/	2a 2f# 2d 2A^/	.	2dd 2f#u/	2d^\	.	.
=13	=13	=13	=13	=13	=13	=13
4D 4AA 4DD/	4a 4f# 4d 4A/	.	4a 4f#v/	4d\	.	.
2D 2AA 2DD/	2a 2f# 2d 2A^/	.	2dd 2f#u/	2d^\	.	.
=14	=14	=14	=14	=14	=14	=14
4D 4AA 4DD/	4a 4f# 4d 4A/	.	4a 4f#v/	4d\	.	.
2D 2AA 2DD/	2a 2f# 2d 2A^/	.	2ff# 2a 2f#u/	2f# 2d^\	.	.
=15	=15	=15	=15	=15	=15	=15
!	!	!	!LO:TUP:b	!	!	!
4D 4AA 4DD/	4a 4f# 4d 4A/	.	(12av/L	2d\	.	.
.	.	.	12dd/	.	.	.
.	.	.	12ff#J 12a/	.	.	.
4D 4AA 4DD/	4a 4f# 4d 4A/	.	4ff# 4a/)	.	.	.
4D 4AA 4DD/	4a 4f# 4d 4A/	.	4bb 4au/	4d^\	.	.
=16	=16	=16	=16	=16	=16	=16
4D 4AA 4DD/	4a 4f# 4d 4A/	.	(8.aaL 8.av/	4d\	.	.
.	.	.	16ff#/Jk)	.	.	.
2D 2AA 2DD/	2a 2f# 2d 2A^/	.	2ddd 2au/	2d^\	.	.
*	*	*	*v	*v	*	*
!!LO:LB:g=original
=17	=17	=17	=17	=17	=17
.	.	.	(<16qqccc#/LL	.	p
.	.	.	16qqddd/JJ	.	.
4AA 4AAA`/	4r	p	8ccc#v\L)	.	.
.	.	.	16r	.	.
.	.	.	16ee\Jk	.	.
4r	2a 2g 2c# 2A^/	.	((2bb^<v\	.	.
4r	.	.	.	.	.
=18	=18	=18	=18	=18	=18
4D 4DD`/	4r	.	8aa\L)	.	.
.	.	.	16r	.	.
.	.	.	16ff#`\Jk)	.	.
4r	2a 2f# 2d 2A^/	.	2dd^<u\	.	.
4r	.	.	.	.	.
=19	=19	=19	=19	=19	=19
4AA 4AAA`/	4r	.	8eev\L	.	.
.	.	.	16r	.	.
.	.	.	16b\Jk	.	.
4r	4a 4g 4c# 4A/	.	((2cc#^<v\	.	.
4r	4a 4g 4c# 4A/	.	.	.	.
=20	=20	=20	=20	=20	=20
4D 4DD`/	4r	.	8ddo\L)	.	.
.	.	.	16r	.	.
.	.	.	16ff#`\Jk)	.	.
4r	4a 4f# 4d 4A/	.	2aa^<u\	.	.
4r	4a 4f# 4d 4A/	.	.	.	.
=21	=21	=21	=21	=21	=21
.	.	.	(<16qqccc#/LL	.	.
.	.	.	16qqddd/JJ	.	.
4AA 4AAA`/	4r	.	8ccc#v\L)	.	.
.	.	.	16r	.	.
.	.	.	16ee\Jk	.	.
4r	2a 2g 2c# 2A^/	.	((2bbv^<\	.	.
4r	.	.	.	.	.
=22	=22	=22	=22	=22	=22
4D 4DD`/	4r	.	8aao\L)	.	.
.	.	.	16r	.	.
.	.	.	16ff#`\Jk)	.	.
4r	2a 2f# 2d 2A^/	.	2ddu\	.	.
4r	.	.	.	.	.
=23	=23	=23	=23	=23	=23
4AA 4AAA`/	4r	.	8eev\L	.	.
.	.	.	16r	.	.
.	.	.	16b\Jk	.	.
4r	4a 4g 4c# 4A/	.	(2cc#v\	.	.
4r	4a 4g 4c# 4A/	.	.	.	.
=24	=24	=24	=24	=24	=24
4D 4DD/	4a 4f# 4d 4A/	.	4ddo\)	.	.
!	!	!	!	!	!LO:DY:rj
4D 4DD/	4ddd 4aa 4ff# 4dd\	sf	4ddd 4ff# 4a 4d\	.	sf
4r	4r	.	4r	.	.
!!LO:LB:g=original
=25	=25	=25	=25	=25	=25
4D 4DD/	4a 4f#/	ff	2.r	.	.
2d 2A 2F#\	2dd 2f#^/	.	.	.	.
=26	=26	=26	=26	=26	=26
4D 4DD/	4a 4f#/	.	2.r	.	.
2d 2A 2F#\	2ff# 2f#^/	.	.	.	.
=27	=27	=27	=27	=27	=27
!	!LO:TUP:a	!	!	!	!
4D 4DD/	(12a\L	.	2.r	.	.
.	12dd\	.	.	.	.
.	12ff#\J	.	.	.	.
4d 4A 4F#\	4aa\)	.	.	.	.
4d 4A 4F#\	4bb 4b^<\	.	.	.	.
=28	=28	=28	=28	=28	=28
4D 4DD/	8aaL 8a\	.	2.r	.	.
.	16r	.	.	.	.
.	(16ff#\Jk	.	.	.	.
2d 2A 2F#\	2dd^<\)	.	.	.	.
=29	=29	=29	=29	=29	=29
4D 4DD/	4a 4f#/	.	2.r	.	.
2d 2A 2F#\	2dd 2f#^/	.	.	.	.
=30	=30	=30	=30	=30	=30
4D 4DD/	4a 4f#/	.	2.r	.	.
2d 2A 2F#\	2ff# 2f#^/	.	.	.	.
=31	=31	=31	=31	=31	=31
!	!LO:TUP:a	!	!	!	!
4D 4DD/	(12a\L	.	2.r	.	.
.	12dd\	.	.	.	.
.	12ff#\J	.	.	.	.
4d 4A 4F#\	4aa\)	.	.	.	.
4d 4A 4F#\	4bb 4b^<\	.	.	.	.
=32	=32	=32	=32	=32	=32
4D 4DD/	8aaL 8a\	.	2.r	.	.
.	16r	.	.	.	.
.	(16ff#\Jk	.	.	.	.
2d 2A 2F#\	2ddd 2dd^<\)	.	.	.	.
!!LO:PB:g=original
=33	=33	=33	=33	=33	=33
.	.	.	(<16qqccc#/LL	.	p
.	.	.	16qqddd/JJ	.	.
!	!	!	!LO:TX:b:i:t=con eleganza.	!	!
4AA 4AAA/	4r	p	8ccc#\L)	.	.
.	.	.	16r	.	.
.	.	.	16ee\Jk	.	.
4r	2a 2g 2c# 2A^/	.	((2bb^<\	.	.
4r	.	.	.	.	.
=34	=34	=34	=34	=34	=34
4D 4DD/	4r	.	8aao\L)	.	.
.	.	.	16r	.	.
.	.	.	16ff#`\Jk)	.	.
4r	2a 2f# 2d 2A^/	.	2dd^<\	.	.
4r	.	.	.	.	.
=35	=35	=35	=35	=35	=35
4AA 4AAA/	4r	.	8ee\L	.	.
.	.	.	16r	.	.
.	.	.	16b\Jk	.	.
4r	4a 4g 4c# 4A/	.	((2cc#^<\	.	.
4r	4a 4g 4c# 4A/	.	.	.	.
=36	=36	=36	=36	=36	=36
4D 4DD/	4r	.	8ddo\L)	.	.
.	.	.	16r	.	.
.	.	.	16ff#`\Jk)	.	.
4r	4a 4f# 4d 4A/	.	2aa^<\	.	.
4r	4a 4f# 4d 4A/	.	.	.	.
=37	=37	=37	=37	=37	=37
.	.	.	(<16qqccc#/LL	.	.
.	.	.	16qqddd/JJ	.	.
4AA 4AAA/	4r	.	8ccc#\L)	.	.
.	.	.	16r	.	.
.	.	.	16ee\Jk	.	.
4r	2a 2g 2c# 2A^/	.	((2bb\	.	.
4r	.	.	.	.	.
=38	=38	=38	=38	=38	=38
4D 4DD/	4r	.	8aa\L)	.	.
.	.	.	16r	.	.
.	.	.	16ff#`\Jk)	.	.
4r	2a 2f# 2d 2A^/	.	2dd\	.	.
4r	.	.	.	.	.
=39	=39	=39	=39	=39	=39
4AA 4AAA/	4r	.	8ee\L	.	.
.	.	.	16r	.	.
.	.	.	16b\Jk	.	.
4r	4a 4g 4c# 4A/	.	(2cc#\	.	.
4r	4a 4g 4c# 4A/	.	.	.	.
=40	=40	=40	=40	=40	=40
4D 4DD/	4a 4f# 4d 4A/	.	4ddo\)	.	.
4D 4DD/	4ddd 4aa 4ff# 4dd\	sf	4r	.	.
4r	4r	.	4r	.	.
!!LO:LB:g=original
=41	=41	=41	=41	=41	=41
!	!	!	!LO:TX:b:i:t=con energia.	!	!LO:DY:rj
4E 4EE/	4r	f	4ev/	.	ff
4r	4g#X 4e 4d 4B/	.	4b 4eu/	.	.
4r	4g# 4e 4d 4B^/	.	4dd 4eu/	.	.
=42	=42	=42	=42	=42	=42
.	.	.	(<16qqcc#/LL	.	.
.	.	.	16qqdd/JJ	.	.
4AA 4AAA/	4r	.	8.cc#\L)	.	.
.	.	.	16b\Jk	.	.
4r	4a 4e 4c# 4A/	.	(4a\	.	.
4r	4a 4e 4c# 4A^/	.	4ee\)	.	.
=43	=43	=43	=43	=43	=43
4E 4EE/	4g#X 4e 4d 4B/	.	(<4.e/	.	.
2E 2EE/	2g# 2e 2d 2B^/	.	.	.	.
.	.	.	8g#X\L)	.	.
.	.	.	8b\	.	.
.	.	.	8dd\J	.	.
=44	=44	=44	=44	=44	=44
.	.	.	(<16qqcc#/LL	.	.
.	.	.	16qqdd/JJ	.	.
4AA 4AAA/	4a 4e 4c# 4A/	.	8.cc#\L)	.	.
.	.	.	16b\Jk	.	.
2AA 2AAA/	2a 2e 2c# 2A^/	.	(4a\	.	.
.	.	.	8aa 8a\)	.	sf
.	.	.	8r	.	.
=45	=45	=45	=45	=45	=45
4E 4EE/	4r	.	4eu/	.	.
4r	4g#X 4d 4B/	.	4b 4eu/	.	.
4r	4g# 4d 4B^/	.	4dd 4eu/	.	.
=46	=46	=46	=46	=46	=46
.	.	.	(<16qqcc#/LL	.	.
.	.	.	16qqdd/JJ	.	.
4AA 4AAA/	4r	.	8cc#\L)	.	.
.	.	.	16r	.	.
.	.	.	16b\Jk	.	.
4r	4a 4e 4c# 4A/	.	(4a\	.	.
4r	4a 4e 4c# 4A^/	.	4ee\)	.	.
=47	=47	=47	=47	=47	=47
4E 4EE/	4g#X 4e 4d 4B/	.	(8e\L	.	.
.	.	.	8g#X\)	.	.
2E 2EE/	2g# 2e 2d 2B^/	.	8b\	.	.
.	.	.	8dd\	.	.
.	.	.	8ff#\	.	.
.	.	.	8ee\J	.	.
=48	=48	=48	=48	=48	=48
.	.	.	(<16qqdd/LL	.	.
.	.	.	16qqee/JJ	.	.
4AA 4AAA/	4a 4e 4c# 4A/	.	8dd\L)	.	.
.	.	.	8cc#\	.	.
2AA 2AAA/	2a 2e 2c# 2A/	.	(8b`\	.	.
.	.	.	8a`\	.	.
.	.	.	8g#X`\	.	.
.	.	.	8f#`\J	.	.
!!LO:LB:g=original
=49	=49	=49	=49	=49	=49
!	!	!LO:DY:rj	!	!	!
4E 4BB 4EE/	4e/	ff	4e`/)	.	.
4E 4BB 4EE/	4b 4e/	.	4r	.	.
4E 4BB 4EE/	4dd 4e^/	.	4r	.	.
=50	=50	=50	=50	=50	=50
.	16qqcc#/LL	.	.	.	.
.	16qqdd/JJ	.	.	.	.
4AA 4EE 4AAA/	8.cc#L 8.e/	.	2.r	.	.
.	16b/Jk	.	.	.	.
4AA 4EE 4AAA/	4a/	.	.	.	.
4AA 4EE 4AAA/	4ee 4e^/	.	.	.	.
=51	=51	=51	=51	=51	=51
4E 4BB 4EE/	4.e^/	.	2.r	.	.
2E 2BB 2EE^>/	.	.	.	.	.
.	8g#X\L	.	.	.	.
.	8b\	.	.	.	.
.	8dd\J	.	.	.	.
=52	=52	=52	=52	=52	=52
.	16qqcc#/LL	.	.	.	.
.	16qqdd/JJ	.	.	.	.
4AA 4EE 4AAA/	8.cc#\L	.	2.r	.	.
.	16b\Jk	.	.	.	.
2AA 2EE 2AAA^>/	(4a\	.	.	.	.
.	8aa 8a\)	sf	.	.	.
.	8r	.	.	.	.
=53	=53	=53	=53	=53	=53
!	!	!	!	!	!LO:DY:rj
4E 4EE/	4r	.	4eu/	.	ff
4E 4EE/	4g#X 4e 4d 4B/	.	4b 4eu/	.	.
4E 4EE/	4g# 4e 4d 4B^/	.	4dd 4eu/	.	.
=54	=54	=54	=54	=54	=54
.	.	.	(<16qqcc#/LL	.	.
.	.	.	16qqdd/JJ	.	.
4AA 4AAA/	4r	.	8.cc#\L)	.	.
.	.	.	16b\Jk	.	.
4AA 4AAA/	4a 4e 4c# 4A/	.	(4a\	.	.
4AA 4AAA/	4a 4e 4c# 4A^/	.	4ee^\)	.	.
=55	=55	=55	=55	=55	=55
4E 4EE/	4g#X 4e 4d 4B/	.	(8e\L	.	.
.	.	.	8g#X\)	.	.
2E 2EE/	2g# 2e 2d 2B^/	.	8b\	.	.
.	.	.	8dd\	.	.
.	.	.	8ff#\	.	.
.	.	.	8ee\J	.	.
!!LO:LB:g=original
=56	=56	=56	=56	=56	=56
4AA 4AAA/	4a 4e 4c# 4A/	.	4cc#v\	.	.
8AA#XL 8AAA#X/	8a#XL 8A#X/	.	4aa 4cc# 4e 4A/	.	.
8BB 8BBB/	8b 8B/	.	.	.	.
8Cn 8CCn/	8ccn 8cn/	.	4Au/	.	.
8C#XJ 8CC#X/	8cc#XJ 8c#X/	.	.	.	.
=57	=57	=57	=57	=57	=57
*	*	*	*^	*	*
!	!	!	!	!	!	!LO:DY:rj
4D 4AA 4DD\	4A< 4F#</	ff	4a 4f#v/	4d\	.	ff
2D 2AA 2DD\	2d< 2A< 2F#<^/	.	2dd 2f#u/	2d^\	.	.
=58	=58	=58	=58	=58	=58	=58
4D 4AA 4DD\	4A< 4F#</	.	4a 4f#/	4d\	.	.
2D 2AA 2DD\	2f# 2A< 2F#<^>/	.	2ff# 2a 2f#/	2d^\	.	.
=59	=59	=59	=59	=59	=59	=59
!	!	!	!LO:TUP:b	!	!	!
4D 4AA 4DD/	4A/	<	(12a/L	2d\	.	.
.	.	.	12dd/	.	.	.
.	.	.	12ff#J 12a/	.	.	.
4D 4AA 4DD/	4a 4f# 4d 4A/	.	4aa 4a/)	.	.	.
4D 4AA 4DD/	4b 4f# 4d 4B/	[[	4bb 4a/	4d^\	.	.
=60	=60	=60	=60	=60	=60	=60
4D 4AA 4DD/	4a 4f# 4d 4A/	.	(8.aaL 8.a/	4d\	.	.
.	.	.	16ff#/Jk)	.	.	.
2D 2AA 2DD\	2d 2A< 2F#<^>/	.	2dd 2f#u/	2d\	.	.
=61	=61	=61	=61	=61	=61	=61
4AA 4DD\	4A< 4F#< 4D</	.	4a 4f#v/	4d\	.	.
2D 2AA 2DD\	2d 2A< 2F#<^>/	.	2dd 2f#u/	2d^\	.	.
=62	=62	=62	=62	=62	=62	=62
4D 4AA 4DD\	4A< 4F#</	.	4a 4f#/	4d\	.	.
2D 2AA 2DD\	2f# 2A< 2F#<^>/	.	2ff# 2a 2f#u/	2d^\	.	.
=63	=63	=63	=63	=63	=63	=63
!	!	!	!LO:TUP:b	!	!	!
4D 4AA 4DD/	4A/	.	(12a/L	2d\	.	.
.	.	.	12dd/	.	.	.
.	.	.	12ff#J 12a/	.	.	.
4D 4AA 4DD/	4a 4f# 4d 4A/	.	4aa 4a/)	.	.	.
4D 4AA 4DD/	4b 4f# 4d 4B^/	.	4bb 4a/	4d^\	.	.
=64	=64	=64	=64	=64	=64	=64
4D 4AA 4DD/	4a 4f# 4d 4A/	.	8.aaL 8.a/	4d\	.	.
.	.	.	16ff#/Jk	.	.	.
2D 2AA 2DD/	2a 2f# 2d 2A^/	.	2ddd 2a/	2d^\	.	.
*	*	*	*v	*v	*	*
!!LO:LB:g=original
=65	=65	=65	=65	=65	=65
*	*^	*	*	*	*
.	.	.	.	(<16qqccc#/LL	.	p
.	.	.	.	16qqddd/JJ	.	.
!	!	!	!	!LO:TX:b:i:t=con eleganza.	!	!
4AA 4AAA/	2.a/	4r	p	8ccc#v\L)	.	.
.	.	.	.	16r	.	.
.	.	.	.	16ee\Jk	.	.
4r	.	2g 2c# 2A^>\	.	((2bb\	.	.
4r	.	.	.	.	.	.
=66	=66	=66	=66	=66	=66	=66
4D 4DD/	2.a/	4r	.	8aao\L)	.	.
.	.	.	.	16r	.	.
.	.	.	.	16ff#`\Jk)	.	.
4r	.	2f# 2d 2A^>\	.	2dd\	.	.
4r	.	.	.	.	.	.
=67	=67	=67	=67	=67	=67	=67
4AA 4AAA/	2.a/	4r	.	8ee\L	.	.
.	.	.	.	16r	.	.
.	.	.	.	16b\Jk	.	.
4r	.	4g 4c# 4A\	.	((2cc#\	.	.
4r	.	4g 4c# 4A^>\	.	.	.	.
=68	=68	=68	=68	=68	=68	=68
4D 4DD/	2.a/	4r	.	8ddo\L)	.	.
.	.	.	.	16r	.	.
.	.	.	.	16ff#`\Jk)	.	.
4r	.	4f# 4d 4A\	.	2aa\	.	.
4r	.	4f# 4d 4A^>\	.	.	.	.
=69	=69	=69	=69	=69	=69	=69
.	.	.	.	(<16qqccc#/LL	.	.
.	.	.	.	16qqddd/JJ	.	.
4AA 4AAA/	2.a/	4r	.	8ccc#\L)	.	.
.	.	.	.	16r	.	.
.	.	.	.	16ee\Jk	.	.
4r	.	2g 2c# 2A^>\	.	((2bb\	.	.
4r	.	.	.	.	.	.
=70	=70	=70	=70	=70	=70	=70
4D 4DD/	2.a/	4r	.	8aao\L)	.	.
.	.	.	.	16r	.	.
.	.	.	.	16ff#`\Jk)	.	.
4r	.	2f# 2d 2A^>\	.	2dd\	.	.
4r	.	.	.	.	.	.
=71	=71	=71	=71	=71	=71	=71
4AA 4AAA/	2.a/	4r	.	8ee\L	.	.
.	.	.	.	16r	.	.
.	.	.	.	16b\Jk	.	.
4r	.	4g 4c# 4A\	.	(2cc#\	.	.
4r	.	4g 4c# 4A^>\	.	.	.	.
*	*v	*v	*	*	*	*
=72	=72	=72	=72	=72	=72
4D 4DD/	4a 4f# 4d 4A/	.	4ddo\)	.	.
!	!	!	!	!	!LO:DY:rj
4D 4DD/	4ddd 4aa 4ff# 4dd\	sf	4ddd 4ff# 4a 4d\	.	sf
4r;	4r;	.	4r;	.	.
!!LO:PB:g=original
=73	=73	=73	=73	=73	=73
*	*^	*	*	*	*
!	!	!	!	!LO:TX:a:B:t=Minore.	!	!
2BB/	4r	4ryy	.	(8.ddu\L	.	.
.	.	.	.	16dd\Jk)	.	.
!	!	!LO:TUP:a:problem=klamra łukowa	!	!	!	!
.	2f#^/	12f#\L	.	(4.cc#\	.	.
.	.	12d\	.	.	.	.
.	.	12B\J	.	.	.	.
4r	.	4F#\	.	.	.	.
.	.	.	.	8b\)	.	.
=74	=74	=74	=74	=74	=74	=74
2BB/	4r	4ryy	.	(8b\L	.	.
.	.	.	.	16r	.	.
.	.	.	.	16b\Jk)	.	.
!	!	!LO:TUP:a:problem=klamra łukowa	!	!	!	!
.	2f#^/	12f#\L	.	(4.a/	.	.
.	.	12d\	.	.	.	.
.	.	12B\J	.	.	.	.
4r	.	4F#\	.	.	.	.
.	.	.	.	8g/)	.	.
=75	=75	=75	=75	=75	=75	=75
2BB/	4r	4ryy	.	(8.f#/L	.	.
.	.	.	.	16g/Jk)	.	.
!	!	!LO:TUP:a:problem=klamra łukowa	!	!	!	!
.	2f#^/	12f#\L	.	(4f#/	.	.
.	.	12e\	.	.	.	.
.	.	12A#X\J	.	.	.	.
4r	.	4F#\	.	4cc#\)	.	.
=76	=76	=76	=76	=76	=76	=76
2BB/	4r	4ryy	.	(8f#\L	.	.
.	.	.	.	8cc#\J	.	.
!	!	!LO:TUP:a:problem=klamra łukowa	!	!	!	!
.	2f#^/	12f#\L	.	4.ff#^<\	.	.
.	.	12e\	.	.	.	.
.	.	12A#X\J	.	.	.	.
4r	.	4F#\	.	.	.	.
.	.	.	.	8ee\	.	.
=77	=77	=77	=77	=77	=77	=77
2BB/	4r	4ryy	.	8dd\L)	.	.
.	.	.	.	16r	.	.
.	.	.	.	16dd\Jk	.	.
!	!	!LO:TUP:a:problem=klamra łukowa	!	!	!	!
.	2f#^/	12f#\L	.	(4.cc#\	.	.
.	.	12d\	.	.	.	.
.	.	12B\J	.	.	.	.
4r	.	4F#\	.	.	.	.
.	.	.	.	8b\)	.	.
=78	=78	=78	=78	=78	=78	=78
2BB/	4r	4ryy	.	(8b\L	.	.
.	.	.	.	16r	.	.
.	.	.	.	16b\Jk)	.	.
!	!	!LO:TUP:a:problem=klamra łukowa	!	!	!	!
.	2f#^/	12f#\L	.	(4.a/	.	.
.	.	12d\	.	.	.	.
.	.	12B\J	.	.	.	.
4r	.	4F#\	.	.	.	.
.	.	.	.	8g/)	.	.
!!LO:LB:g=original
=79	=79	=79	=79	=79	=79	=79
2BB/	4r	4ryy	.	(8f#\L	.	.
.	.	.	.	8cc#\J	.	.
!	!	!LO:TUP:a:problem=klamra łukowa	!	!	!	!
.	2f#/	12f#\L	.	4.ff#^<\	.	.
.	.	12e\	.	.	.	.
.	.	12A#X\J	.	.	.	.
4r	.	4F#\	.	.	.	.
.	.	.	.	8a#X\)	.	.
=80	=80	=80	=80	=80	=80	=80
2BB/	4r	4ryy	.	2b\	.	.
!	!	!LO:TUP:a:problem=klamra łukowa	!	!	!	!
.	2f#/	12f#\L	.	.	.	.
.	.	12d\	.	.	.	.
.	.	12B\J	.	.	.	.
4r	.	4F#\	.	((4f#/	.	.
=81	=81	=81	=81	=81	=81	=81
2BB/	4r	4ryy	.	8.dd\L)	.	.
.	.	.	.	16dd\Jk)	.	.
!	!LO:TUP:a:problem=klamra łukowa	!	!	!	!	!
.	12ff#/L	2f#\	.	(4.cc#\	.	.
.	12dd/	.	.	.	.	.
.	12b/J	.	.	.	.	.
4d 4B 4F#\	4f#/	.	.	.	.	.
.	.	.	.	8b\)	.	.
=82	=82	=82	=82	=82	=82	=82
2BB/	4r	4ryy	.	(8b\L	.	.
.	.	.	.	16r	.	.
.	.	.	.	16b\Jk)	.	.
!	!LO:TUP:a:problem=klamra łukowa	!	!	!	!	!
.	12ff#/L	2f#\	.	(4.a/	.	.
.	12dd/	.	.	.	.	.
.	12b/J	.	.	.	.	.
4d 4B 4F#\	4f#/	.	.	.	.	.
.	.	.	.	8g/)	.	.
=83	=83	=83	=83	=83	=83	=83
2BB/	4r	4ryy	.	(8.f#/L	.	.
.	.	.	.	16g/Jk)	.	.
!	!LO:TUP:a:problem=klamra łukowa	!	!	!	!	!
.	12ff#/L	2f#\	.	(4f#/	.	.
.	12ee/	.	.	.	.	.
.	12a#X/J	.	.	.	.	.
4e 4A#X 4F#\	4f#/	.	.	4cc#\)	.	.
=84	=84	=84	=84	=84	=84	=84
2BB/	4r	4ryy	.	(8f#\L	.	.
.	.	.	.	8cc#\J	.	.
!	!LO:TUP:a:problem=klamra łukowa	!	!	!	!	!
.	12ff#/L	2f#\	.	4.ff#^<\	.	.
.	12ee/	.	.	.	.	.
.	12a#X/J	.	.	.	.	.
4e 4A#X 4F#\	4f#/	.	.	.	.	.
.	.	.	.	8ee\)	.	.
!!LO:LB:g=original
=85	=85	=85	=85	=85	=85	=85
2BB/	4r	4ryy	.	(8dd\L	.	.
.	.	.	.	16r	.	.
.	.	.	.	16dd\Jk)	.	.
!	!LO:TUP:a:problem=klamra łukowa	!	!	!	!	!
.	12ff#/L	2f#\	.	(4.cc#\	.	.
.	12dd/	.	.	.	.	.
.	12b/J	.	.	.	.	.
4d 4B 4F#\	4f#/	.	.	.	.	.
.	.	.	.	8b\)	.	.
=86	=86	=86	=86	=86	=86	=86
2BB/	4r	4r	.	(8b\L	.	.
.	.	.	.	16r	.	.
.	.	.	.	16b\Jk)	.	.
!	!LO:TUP:a:problem=klamra łukowa	!	!	!	!	!
.	12ff#/L	2f#\	.	4a#Xv\	.	.
.	12dd/	.	.	.	.	.
.	12b/J	.	.	.	.	.
4d 4B 4F#\	4f#/	.	.	4bb 4bu\	.	.
=87	=87	=87	=87	=87	=87	=87
!	!	!	!	!	!	!LO:DY:rj
2AA 2AAA/	4r	4r	.	8ccc#L 8cc#v\	.	f
.	.	.	<	16r	.	.
.	.	.	.	16ccc#Jk 16cc#\	.	.
*	*Xtuplet	*	*	*	*	*
.	12aa/L	2a\	.	4ccc# 4cc#\	.	<
.	12ee/	.	.	.	.	.
.	12dd/J	.	.	.	.	.
4d 4A 4G 4E\	4a/	.	.	4ddd 4dd^<u\	.	.
=88	=88	=88	=88	=88	=88	=88
2AA 2AAA/	4r	4r	.	8ddd#XL 8dd#X\	.	.
.	.	.	.	16r	.	.
.	.	.	.	16ddd#Jk 16dd#\	.	.
.	12aa/L	2a\	.	4ddd# 4dd#\	.	.
.	12ee/	.	.	.	.	.
.	12cc#/J	.	.	.	.	.
4c# 4A 4G 4E\	4a/	.	[[	4eee 4ee^<\	.	[[
*	*v	*v	*	*	*	*
=89	=89	=89	=89	=89	=89
*	*	*	*^	*	*
!	!	!	!	!	!	!LO:DY:rj
4D 4AA 4DD\	4A< 4F#</	ff	4a 4f#u/	4dn\	.	ff
2D 2AA 2DD\	2d 2A< 2F#</	.	2dd 2f#u/	2d\	.	.
=90	=90	=90	=90	=90	=90	=90
4D 4AA 4DD\	4A< 4F#</	.	4a 4f#v/	4d\	.	.
2D 2AA 2DD\	2f# 2A< 2F#</	.	2ff# 2a 2f#u/	2d\	.	.
=91	=91	=91	=91	=91	=91	=91
!	!	!	!LO:TUP:b	!	!	!
4D 4AA 4DD/	4A/	<	(12a/L	2d\	.	.
.	.	.	12dd/	.	.	.
.	.	.	12ff#J 12a/	.	.	.
4D 4AA 4DD/	4a 4f# 4d 4A/	.	4aa 4a/)	.	.	.
4D 4AA 4DD/	4b 4f# 4d 4B/	[[	4bb 4a/	4d^\	.	.
!!LO:LB:g=original
=92	=92	=92	=92	=92	=92	=92
4D 4AA 4DD\	4a 4f# 4d 4A/	.	(8.aaL 8.a/	4d\	.	.
.	.	.	16ff#/Jk)	.	.	.
2D 2AA 2DD\	2d 2A< 2F#<^>/	.	2dd 2f#u/	2d^\	.	.
=93	=93	=93	=93	=93	=93	=93
4D 4AA 4DD\	4A 4F#/	.	4a 4f#/	4d\	.	.
2D 2AA 2DD\	2d 2A< 2F#<^>/	.	2dd 2f#/	2d\	.	.
=94	=94	=94	=94	=94	=94	=94
4D 4AA 4DD\	4A 4F#/	.	4a 4f#/	4d\	.	.
2D 2AA 2DD\	2f# 2A< 2F#<^>/	.	2ff# 2a 2f#/	2d\	.	.
=95	=95	=95	=95	=95	=95	=95
!	!	!	!LO:TUP:b	!	!	!
4D 4AA 4DD/	4A/	.	(12a/L	2d\	.	.
.	.	.	12dd/	.	.	.
.	.	.	12ff#J 12a/	.	.	.
4D 4AA 4DD/	4a 4f# 4d 4A/	.	4aa 4a/)	.	.	.
4D 4AA 4DD/	4b 4f# 4d 4B^/	.	4bb 4a/	4d^\	.	.
=96	=96	=96	=96	=96	=96	=96
4D 4AA 4DD/	4a 4f# 4d 4A/	.	(8.aaL 8.a/	4d\	.	.
.	.	.	16ff#/Jk)	.	.	.
2D 2AA 2DD/	2a 2f# 2d 2A^/	.	2ddd 2a/	2d^\	.	.
*	*	*	*v	*v	*	*
=97	=97	=97	=97	=97	=97
*	*^	*	*	*	*
.	.	.	.	(<16qqccc#/LL	.	p
.	.	.	.	16qqddd/JJ	.	.
4AA 4AAA/	2.a/	4ryy	p	8ccc#v\L)	.	.
.	.	.	.	16r	.	.
.	.	.	.	16ee\Jk	.	.
4r	.	2g 2c# 2A^>\	.	((2bbv\	.	.
4r	.	.	.	.	.	.
=98	=98	=98	=98	=98	=98	=98
4D 4DD/	2.a/	4r	.	8aao\L)	.	.
.	.	.	.	16r	.	.
.	.	.	.	16ff#`\Jk)	.	.
4r	.	2f# 2d 2A^>\	.	2dd\	.	.
4r	.	.	.	.	.	.
=99	=99	=99	=99	=99	=99	=99
4AA 4AAA/	2.a/	4r	.	8ee\L	.	.
.	.	.	.	16r	.	.
.	.	.	.	16b\Jk	.	.
!	!	!	!	!LO:TX:a:t=P:problem=brak rozpoczęcia łuku	!	!
4r	.	4g 4c# 4A\	.	((2cc#\	.	.
4r	.	4g 4c# 4A^>\	.	.	.	.
!!LO:LB:g=original
=100	=100	=100	=100	=100	=100	=100
4D 4DD/	2.a/	4r	.	8dd\L)	.	.
.	.	.	.	16r	.	.
.	.	.	.	16ff#`\Jk)	.	.
4r	.	4f# 4d 4A\	.	2aa\	.	.
4r	.	4f# 4d 4A^>\	.	.	.	.
=101	=101	=101	=101	=101	=101	=101
.	.	.	.	(<16qqccc#/LL	.	.
.	.	.	.	16qqddd/JJ	.	.
4AA 4AAA/	2.a/	4r	.	8ccc#v\L)	.	.
.	.	.	.	16r	.	.
.	.	.	.	16ee\Jk	.	.
4r	.	2g 2c# 2A^>\	.	((2bbv\	.	.
4r	.	.	.	.	.	.
=102	=102	=102	=102	=102	=102	=102
4D 4DD/	2.a/	4r	.	8aao\L)	.	.
.	.	.	.	16r	.	.
.	.	.	.	16ff#`\Jk)	.	.
4r	.	2f# 2d 2A^>\	.	2dd\	.	.
4r	.	.	.	.	.	.
=103	=103	=103	=103	=103	=103	=103
4AA 4AAA/	2.a/	4r	.	8ee\L	.	.
.	.	.	.	16r	.	.
.	.	.	.	16b\Jk	.	.
4r	.	4g 4c# 4A\	.	(2cc#\	.	.
4r	.	4g 4c# 4A^>\	.	.	.	.
*	*v	*v	*	*	*	*
=104	=104	=104	=104	=104	=104
4D 4DD/	4a 4f# 4d 4A/	.	4ddo\)	.	.
!	!	!	!	!	!LO:DY:rj
4D 4DD/	4ddd 4aa 4ff# 4dd\	sf	4ddd 4ff# 4a 4d\	.	sf
4r	4r	.	4r	.	.
=105	=105	=105	=105	=105	=105
2.r	8.dd\L	ff	2.r	.	.
!	!LO:TX:a:Bi:t=risol.	!	!	!	!
.	16dd\Jk	.	.	.	.
.	4dd\	.	.	.	.
.	4dd\	sf	.	.	.
=106	=106	=106	=106	=106	=106
!	!	!LO:DY:b=2	!	!	!
8.d\L	8.dd\L	ff	2.r	.	.
16d\Jk	16dd\Jk	.	.	.	.
4d\	4dd\	.	.	.	.
4d\	4dd\	sf	.	.	.
!!LO:PB:g=original
=107	=107	=107	=107	=107	=107
!	!	!LO:HP:a	!	!	!
2.r	8.d/L	>	2.r	.	.
.	16d/Jk	.	.	.	.
!	!LO:TX:b:i:t=rall.	!	!	!	!
.	4d/	.	.	.	.
.	4d^/	.	.	.	.
=108	=108	=108	=108	=108	=108
2.r	8.d/L	.	2.r	.	.
.	16d/Jk	.	.	.	.
.	4d/	.	.	.	.
.	4d^/	]	.	.	.
=109||	=109||	=109||	=109||	=109||	=109||
!!!OMD: Andantino.
!!!key: G
*k[f#]	*k[f#]	*	*k[f#]	*	*
*^	*	*	*	*	*
!	!	!	!LO:DY:rj	!	!	!
(4G/	2.D 2.GG\	(>4g 4B/	p	2.r	.	.
!	!	!	!LO:HP:b=2	!	!	!
.	.	.	<	.	.	.
2A/	.	2f# 2c/	[[	.	.	.
=110	=110	=110	=110	=110	=110	=110
*	*	*^	*	*	*	*
!	!	!	!	!LO:HP:b=2	!	!	!
2G/)	2.D 2.GG\	2g/)	2.B\	>	2.r	.	.
4r	.	4r	.	]]	.	.	.
*	*	*v	*v	*	*	*	*
=111	=111	=111	=111	=111	=111	=111
!	!	!	!LO:HP:b=2	!	!	!
(4G/	2.D 2.GG\	(>4g 4B/	<	2.r	.	.
2A/	.	2f# 2c/	[[	.	.	.
=112	=112	=112	=112	=112	=112	=112
*	*	*^	*	*	*	*
!	!	!	!	!LO:HP:b=2	!	!	!
2G/)	2.D 2.GG\	2g/)	2.B\	>	2.r	.	.
4r	.	4r	.	]]	.	.	.
*	*	*v	*v	*	*	*	*
=113	=113	=113	=113	=113	=113	=113
!	!	!	!LO:HP:b=2	!LO:TX:a:i:t=dumanie.	!	!LO:DY:rj
(4G/	2.D 2.GG\	(>4g 4B/	<	8.du/L	.	p
.	.	.	.	(16qqg/LL	.	.
.	.	.	.	16qqa/JJ	.	.
.	.	.	.	(16gv/Jk)	.	.
2A/	.	2f# 2c/	.	8f#/L	.	.
.	.	.	.	8g/	.	.
.	.	.	.	8a/)	.	.
.	.	.	[	8f#u`/J	.	.
=114	=114	=114	=114	=114	=114	=114
!	!	!	!LO:HP:b=2	!	!	!
2G/)	2.D 2.GG\	2g 2B/)	>	8.g/L	.	.
.	.	.	.	16b/Jk	.	.
.	.	.	.	2dd^<\	.	.
4r	.	4r	]	.	.	.
!!LO:LB:g=original
=115	=115	=115	=115	=115	=115	=115
!	!	!	!LO:HP:b=2	!	!	!
(4G/	2.D 2.GG\	(>4g 4B/	<	8.d/L	.	.
.	.	.	.	16qqg/LL	.	.
.	.	.	.	16qqa/JJ	.	.
.	.	.	.	(16g/Jk	.	.
2A/	.	2f# 2c/	.	8f#/L	.	.
.	.	.	.	8g/	.	.
.	.	.	.	8a/)	.	.
.	.	.	[[	8f#`/J	.	.
=116	=116	=116	=116	=116	=116	=116
!	!	!	!LO:HP:b=2	!	!	!
2G/)	2.D 2.GG\	2g 2B/)	>	8.g/L	.	.
.	.	.	.	16b/Jk	.	.
.	.	.	.	(2dd\	.	.
4r	.	4r	]	.	.	.
*v	*v	*	*	*	*	*
=117	=117	=117	=117	=117	=117
(2.G 2.C\	(>2.g 2.e/	<	8.ee\L)	.	.
.	.	.	(16eeo\Jk	.	.
.	.	.	4.gg^<\	.	.
.	.	.	8ff#\)	.	.
=118	=118	=118	=118	=118	=118
2.D 2.GG\	2.g 2.B/	.	8.dd\L	.	.
.	.	.	16b\Jk	.	.
.	.	[[	2g/	.	.
=119	=119	=119	=119	=119	=119
2.F# 2.D\	2.a 2.c/	>	(8du/L	.	.
.	.	.	8e/J	.	.
.	.	.	8f#/L)	.	.
.	.	.	(16qqf#/LL	.	.
.	.	.	16qqg/JJ	.	.
.	.	.	8f#/	.	.
.	.	.	8e/)	.	.
.	.	.	8d`u/J	.	.
=120	=120	=120	=120	=120	=120
*	*	*	*	*below	*
2.Fn 2.GG\)	2.g 2.B/)	]]	8.gv/L	1	.
.	.	.	16au/Jk	.	.
.	.	.	(2b^<v\	.	.
=121	=121	=121	=121	=121	=121
*	*	*	*	*Xbelow	*
(2.E 2.C\	(>2.g 2.c/	<	8ee\L)	2	.
.	.	.	16r	.	.
.	.	.	(16eeo\Jk	.	.
.	.	.	4.gg^<\	.	.
.	.	.	8ff#\)	.	.
!!LO:LB:g=original
=122	=122	=122	=122	=122	=122
2.D 2.GG\	2.g 2.B/	.	8.dd\L	.	.
.	.	.	16b\Jk	.	.
.	.	[[	2g/	.	.
=123	=123	=123	=123	=123	=123
2.F#X 2.D\	2.a 2.c/	>	(8d/L	.	.
.	.	.	8e/J	.	.
.	.	.	8f#/L)	.	.
.	.	.	(16qqf#/LL	.	.
.	.	.	16qqg/JJ	.	.
.	.	.	8f#/	.	.
.	.	.	8e/)	.	.
.	.	.	8d`/J	.	.
=124	=124	=124	=124	=124	=124
2.G 2.GG\)	2g 2B/)	]	8.a/L	.	.
.	.	.	16g/Jk	.	.
.	.	.	4g/	.	.
.	4r	.	4r	.	.
=125	=125	=125	=125	=125	=125
*^	*^	*	*	*	*
!	!	!	!	!LO:HP:b=2	!	!	!
(4G/	2.D 2.GG\	2.r	(>4g 4B\	<	8.d/L	.	.
.	.	.	.	.	(16qqg/LL	.	.
.	.	.	.	.	16qqa/JJ	.	.
.	.	.	.	.	16g/Jk	.	.
2A/	.	.	2f# 2c\	.	8f#/L	.	.
.	.	.	.	.	8g/	.	.
.	.	.	.	.	8a/)	.	.
.	.	.	.	[[	8f#`/J	.	.
=126	=126	=126	=126	=126	=126	=126	=126
!	!	!	!	!LO:HP:b=2	!	!	!
2G/)	2.D 2.GG\	4r	2g 2B\)	>	8.g/L	.	.
.	.	.	.	.	16b/Jk	.	.
.	.	8.r	.	.	2dd^\	.	.
!	!	!LO:TX:a:i:t=eco.	!	!	!	!	!
.	.	(<16bb/	.	.	.	.	.
4r	.	4ddd/)	4r	]	.	.	.
=127	=127	=127	=127	=127	=127	=127	=127
!	!	!	!	!LO:HP:b=2	!	!	!
(4G/	2.D 2.GG\	2.r	(>4g 4B\	<	8.d/L	.	.
.	.	.	.	.	(16qqg/LL	.	.
.	.	.	.	.	16qqa/JJ	.	.
.	.	.	.	.	16g/Jk	.	.
2A/	.	.	2f# 2c\	.	8f#/L	.	.
.	.	.	.	.	8g/	.	.
.	.	.	.	.	8a/)	.	.
.	.	.	.	[[	8f#`/J	.	.
=128	=128	=128	=128	=128	=128	=128	=128
!	!	!	!	!LO:HP:b=2	!	!	!
2G/)	2.D 2.GG\	4r	2g 2B\)	>	8.g/L	.	.
.	.	.	.	.	16b/Jk	.	.
.	.	8.r	.	.	(2dd^\	.	.
!	!	!LO:TX:a:i:t=eco.	!	!	!	!	!
.	.	(<16bb/	.	.	.	.	.
4r	.	4ddd/)	4r	]	.	.	.
*v	*v	*	*	*	*	*	*
!!LO:LB:g=original
=129	=129	=129	=129	=129	=129	=129
(2.G 2.C\	2.r	(>2.g 2.e\	<	8.ee\L)	.	.
.	.	.	.	(16eeo\Jk	.	.
.	.	.	.	4.gg^<\	.	.
.	.	.	.	8ff#\)	.	.
=130	=130	=130	=130	=130	=130	=130
2.D 2.GG\	4r	2.g 2.B\	.	8.dd\L	.	.
.	.	.	.	16b\Jk	.	.
.	8.r	.	.	2g^/	.	.
.	(<16bb/	.	.	.	.	.
.	4gg/)	.	[[	.	.	.
=131	=131	=131	=131	=131	=131	=131
2.F# 2.D\	2.r	2.a 2.c\	>	(8d/L	.	.
.	.	.	.	8e/J	.	.
.	.	.	.	8f#/L)	.	.
.	.	.	.	(16qqf#/LL	.	.
.	.	.	.	16qqg/JJ	.	.
.	.	.	.	8f#/	.	.
.	.	.	.	8e/)	.	.
.	.	.	.	8d`/J	.	.
=132	=132	=132	=132	=132	=132	=132
2.Fn 2.GG\)	4r	2.g 2.B\)	.	8.g/L	.	.
.	.	.	.	16a/Jk	.	.
.	8.r	.	]	(2b^/	.	.
.	(<16aa/	.	.	.	.	.
.	4bb/)	.	.	.	.	.
=133	=133	=133	=133	=133	=133	=133
(2.E 2.C\	2.r	(>2.g 2.c\	<	8ee\L)	.	.
.	.	.	.	16r	.	.
.	.	.	.	(16eeo\Jk	.	.
.	.	.	.	4.gg^<\	.	.
.	.	.	.	8ff#\)	.	.
=134	=134	=134	=134	=134	=134	=134
2.D 2.GG\	4r	2.g 2.B\	.	8.dd\L	.	.
.	.	.	.	16b\Jk	.	.
.	8.r	.	.	2g/	.	.
.	(<16bb/	.	.	.	.	.
.	4gg/)	.	[[	.	.	.
=135	=135	=135	=135	=135	=135	=135
2.A 2.F#\	2.r	2.a 2.c\	>	(8d/L	.	.
.	.	.	.	8e/J	.	.
.	.	.	.	8f#/L)	.	.
.	.	.	.	(16qqf#/LL	.	.
.	.	.	.	16qqg/JJ	.	.
!	!LO:TX:b:i:t=rall.	!	!	!LO:TX:b:i:t=rall.	!	!
.	.	.	.	8f#/	.	.
.	.	.	.	8e/)	.	.
.	.	.	.	8d`/J	.	.
!!LO:LB:g=original
=136	=136	=136	=136	=136	=136	=136
2.G 2.GG\)	4r	2g 2B\)	.	8.a/L	.	.
.	.	.	.	16g/Jk	.	.
.	8.aa/L	.	.	4g^/	.	.
.	16gg/Jk	.	.	.	.	.
.	4gg;/	4r	]]	4r;	.	.
*	*v	*v	*	*	*	*
=137	=137	=137	=137	=137	=137
!	!LO:TX:a:i:t=Animato.	!	!	!	!LO:DY:rj
2.F# 2.FF#\	4r	.	4f#/	.	f
.	(4d 4B/	<	(8b\L	.	.
.	.	.	8dd\	.	.
.	4e 4A#X/)	[[	8cc#X\)	.	.
.	.	.	8a#X\J	.	<
=138	=138	=138	=138	=138	=138
2.F# 2.FF#\	4r	>	8b\L	.	.
.	.	.	16r	.	.
.	.	.	16dd\Jk	.	.
.	2d 2B/	]]	2ff#^\	.	[ f
=139;	=139;	=139	=139;	=139	=139
!	!LO:TX:a:i:t=Piu lento.	!	!	!	!
2.F# 2.FF#\	4r	pp	4f#/	.	pp
.	(4d 4B/	.	(8b\L	.	.
.	.	.	8dd\	.	.
.	4e 4A#X/)	.	8cc#X\)	.	.
.	.	.	8a#X\J	.	.
=140	=140	=140	=140	=140	=140
*	*^	*	*	*	*
!	!	!	!LO:HP:a	!	!	!LO:HP:a
4BB/	2d/	4B\	<	(4b/	.	<
!	!	!LO:TX:a:i:t=rall.	!	!LO:TX:b:i:t=rall.	!	!
2E\	.	4An\	.	4.fn^>/	.	.
.	4G#X^\	4ryy	.	.	.	.
.	.	.	[	8e/)	.	[
*	*v	*v	*	*	*	*
=141	=141	=141	=141	=141	=141
!	!	!	!LO:TX:b:B:t=a Tempo.	!	!
2.AA 2.AAA/	4r	f	4e/	.	f
.	(4cn 4A/	<	(8a\L	.	.
.	.	.	8ccn\	.	.
.	4d 4G#X/)	[[	8b\)	.	.
.	.	.	8g#X\J	.	.
=142	=142	=142	=142	=142	=142
2.AA 2.AAA/	4r	>	8a\L	.	<
.	.	.	16r	.	.
.	.	.	16cc\Jk	.	.
.	2c 2A/	]]	2ee^\	.	[ f
!!LO:PB:g=original
=143;	=143;	=143	=143;	=143	=143
!	!LO:TX:a:i:t=Piu lento.	!	!	!	!
2.AA/	4r	pp	4e/	.	pp
.	(4c 4A/	.	(8a\L	.	.
.	.	.	8cc\	.	.
.	4d 4G#X/)	.	8b\)	.	.
.	.	.	8g#X\J	.	.
=144	=144	=144	=144	=144	=144
*	*^	*	*	*	*
!	!	!	!LO:HP:a	!	!	!LO:HP:a
4AA/	2.c/	(4A\	<	(4a/	.	<
!	!LO:TX:a:i:t=rall.	!	!	!LO:TX:b:i:t=rall.	!	!
2D\	.	4Gn\	.	4.e-X^>/	.	.
.	.	4F#^>\)	.	.	.	.
.	.	.	[[	8d/)	.	[[
=145	=145	=145	=145	=145	=145	=145
*^	*	*	*	*	*	*
!	!	!LO:TX:a:B:t=Andantino calando.	!	!LO:HP:b=2	!	!	!
(4G/	2.D 2.GG\	2.r	(>4g 4B\	<	8.d/L	.	.
.	.	.	.	.	(16qqg/LL	.	.
.	.	.	.	.	16qqa/JJ	.	.
.	.	.	.	.	16g/Jk	.	.
2A/	.	.	2f# 2c\	.	8f#/L	.	.
.	.	.	.	.	8g/	.	.
.	.	.	.	.	8a/)	.	.
.	.	.	.	[[	8f#`/J	.	.
=146	=146	=146	=146	=146	=146	=146	=146
!	!	!	!	!LO:HP:b=2	!	!	!
2G/)	2.D 2.GG\	4r	2g 2B\)	>	8.g/L	.	.
.	.	.	.	.	16b/Jk	.	.
.	.	8.r	.	.	2dd^\	.	.
.	.	(<16bb/	.	] <	.	.	.
4r	.	4ddd/)	4r	[[	.	.	.
=147	=147	=147	=147	=147	=147	=147	=147
!	!	!	!	!LO:HP:b=2	!	!	!
(4G/	2.D 2.GG\	2.r	(>4g 4B\	<	8.d/L	.	.
.	.	.	.	.	(16qqg/LL	.	.
.	.	.	.	.	16qqa/JJ	.	.
.	.	.	.	.	16g/Jk	.	.
2A/	.	.	2f# 2c\	.	8f#/L	.	.
.	.	.	.	.	8g/	.	.
.	.	.	.	.	8a/)	.	.
.	.	.	.	[[	8f#`/J	.	.
=148	=148	=148	=148	=148	=148	=148	=148
!	!	!	!	!LO:HP:b=2	!	!	!
2G/)	2.D 2.GG\	4r	2g 2B\)	>	8.g/L	.	.
.	.	.	.	.	16b/Jk	.	.
.	.	8.r	.	.	(2dd^\	.	.
.	.	(16bb/	.	] <	.	.	.
4r	.	4ddd/)	4r	[[	.	.	.
*v	*v	*	*	*	*	*	*
=149	=149	=149	=149	=149	=149	=149
*	*	*	*^	*	*	*
(2.E 2.GG\	2.r	(>2.g 2.c\	<	.	8.ee\L)	.	.
.	.	.	.	.	(16eeo\Jk	.	.
!	!LO:TX:b:Bi:t=poco_a_poco_rall._:dur=21q:ext=ud:problem=text with extention lines	!	!	!	!LO:TX:b:Bi:t=poco_a_poco_rall._:dur=20q:ext=ud:problem=text with extention lines	!	!
.	.	.	.	.	4.gg^\	.	.
.	.	.	.	.	8ff#\)	.	.
!!LO:LB:g=original
=150	=150	=150	=150	=150	=150	=150	=150
2.D 2.GG\	4r	2.g 2.B\	.	.	8.dd\L	.	.
.	.	.	.	.	16b\Jk	.	.
.	8.r	.	.	.	2g^>/	.	.
!	!	!	!	!LO:HP:a	!	!	!
.	(<16bb/	.	.	>	.	.	.
.	4gg/)	.	[[	]]	.	.	.
*	*	*	*v	*v	*	*	*
=151	=151	=151	=151	=151	=151	=151
2.F# 2.GG\	2.r	2.a 2.c\	>	(8d/L	.	.
.	.	.	.	8e/J	.	.
.	.	.	.	8f#/L)	.	.
.	.	.	.	(16qqf#/LL	.	.
.	.	.	.	16qqg/JJ	.	.
.	.	.	.	8f#/	.	.
.	.	.	.	8e/)	.	.
.	.	.	.	8d`/J	.	.
=152	=152	=152	=152	=152	=152	=152
2.Fn 2.GG\)	4r	2.g 2.B\)	.	8.g/L	.	.
.	.	.	.	16a/Jk	.	.
.	8.r	.	.	(2b^\	.	.
.	(16aa/	.	] <	.	.	.
.	4bb/)	.	[[	.	.	.
=153	=153	=153	=153	=153	=153	=153
*	*	*	*^	*	*	*
(2.E 2.GG\	2.r	(>2.g 2.c\	<	.	8ee\L)	.	.
.	.	.	.	.	16r	.	.
.	.	.	.	.	(16eeo\Jk	.	.
.	.	.	.	.	4.gg^\	.	.
.	.	.	.	.	8ff#\)	.	.
=154	=154	=154	=154	=154	=154	=154	=154
2.D 2.GG\	4r	2.g 2.B\	.	.	8.dd\L	.	.
.	.	.	.	.	16b\Jk	.	.
.	8.r	.	.	.	2g/	.	.
!	!	!	!	!LO:HP:a	!	!	!
.	(<16bb/	.	.	>	.	.	.
.	4gg/)	.	[[	]]	.	.	.
*	*	*	*v	*v	*	*	*
=155	=155	=155	=155	=155	=155	=155
2.F#X 2.GG\	2.r	2.a 2.c\	>	(8d/L	.	.
.	.	.	.	8e/J	.	.
.	.	.	.	8f#/L)	.	.
.	.	.	.	(16qqf#/LL	.	.
.	.	.	.	16qqg/JJ	.	.
.	.	.	.	8f#/	.	.
.	.	.	.	8e/)	.	.
.	.	.	.	8d`/J	.	.
=156	=156	=156	=156	=156	=156	=156
2.G 2.GG\)	4r	2.g 2.B\)	.	8.a/L	.	.
.	.	.	.	16g/Jk	.	.
.	8.aa/L	.	]	4g/	.	.
.	16gg/Jk	.	.	.	.	.
!	!	!	!	!LO:TX:b:i:t=lunga pausa	!	!
.	4gg;/	.	.	4r;	.	.
*	*v	*v	*	*	*	*
!!LO:LB:g=original
=157||;	=157||	=157||	=157||	=157||	=157||
!!!OMD: All°. risoluto e piu vivo.
!!!key: C
*k[]	*k[]	*	*k[]	*	*
!	!	!LO:DY:rj	!LO:TUP:b	!	!LO:DY:rj
4C 4GG 4CC/	4g 4e 4c 4G/	ff	12gL 12c/	.	ff
.	.	.	12a/	.	.
.	.	.	12b/J	.	.
4C 4GG 4CC/	4g 4e 4c 4G/	.	4cc\	.	.
4C 4GG 4CC/	4g 4f 4B 4G/	.	4dd 4f 4G^/	.	.
=158	=158	=158	=158	=158	=158
4C 4GG 4CC/	4g 4e 4c 4G/	.	8.ee\L	.	.
.	.	.	16ff\Jk	.	.
4C 4GG 4CC/	4g 4e 4c 4G/	.	4ff#X\	.	.
4C 4GG 4CC/	4g 4e 4c 4G/	.	4gg 4cc 4e 4G^/	.	.
=159	=159	=159	=159	=159	=159
!	!	!	!LO:TUP:b	!	!
4C 4GG 4CC/	4g 4e 4c 4G/	.	12gL 12c/	.	.
.	.	.	12a/	.	.
.	.	.	12b/J	.	.
4C 4GG 4CC/	4g 4e 4c 4G/	.	4cc\	.	.
4C 4GG 4CC/	4g 4f 4B 4G/	.	4dd 4f 4G^/	.	.
=160	=160	=160	=160	=160	=160
4C 4GG 4CC/	4g 4e 4c 4G/	.	8.ee\L	.	.
.	.	.	16ff\Jk	.	.
4C 4GG 4CC/	4g 4e 4c 4G/	.	4ff#X\	.	.
4C 4GG 4CC/	4g 4e 4c 4G/	.	4gg 4cc 4e 4G^/	.	.
=161	=161	=161	=161	=161	=161
*	*^	*	*	*	*
2GG 2GGG/	2.g/	4ryy	p	(>8ggL 8b 8d 8Gv/	.	.
.	.	.	.	16r	.	.
.	.	.	.	16gg#X/Jk)	.	.
.	.	2f 2B 2G^>\	.	(4.aau\	.	>
4r	.	.	.	.	.	.
.	.	.	.	8b\)	.	]
=162	=162	=162	=162	=162	=162	=162
2C 2CC/	2.g/	4r	.	(>8ddL 8e 8G/	.	.
.	.	.	.	16r	.	.
.	.	.	.	16cc/Jk)	.	.
.	.	2e 2c 2G^>\	.	(4.b/	.	>
4r	.	.	.	.	.	.
.	.	.	.	8a/)	.	]
=163	=163	=163	=163	=163	=163	=163
2GG 2GGG/	2.g/	4r	.	8.f#XL 8.G/	.	.
.	.	.	.	16g/Jk	.	.
.	.	4f 4B 4G\	.	4av/	.	.
4r	.	4f 4B 4G\	.	4bu/	.	.
=164	=164	=164	=164	=164	=164	=164
.	.	.	.	16qqcc/LL	.	.
.	.	.	.	16qqdd/JJ	.	.
2C 2CC/	2.g/	4r	.	8cc^\L	.	.
.	.	.	.	8b^\	.	.
.	.	4e 4c 4G\	.	8cc^\	.	.
.	.	.	.	8dd^\	.	.
4r	.	4e 4c 4G\	.	8ee^\	.	.
.	.	.	.	8ff^\J	.	.
!!LO:LB:g=original
=165	=165	=165	=165	=165	=165	=165
2GG 2GGG/	2.g/	4r	.	(>8ggL 8b 8d 8Gv/	.	.
.	.	.	.	16r	.	.
.	.	.	.	16gg#X/Jk)	.	.
.	.	2f 2B 2G^>\	.	(4.aau^<\	.	.
4r	.	.	.	.	.	.
.	.	.	.	8b\)	.	.
=166	=166	=166	=166	=166	=166	=166
2C 2CC/	2.g/	4r	.	(>8ddL 8e 8G/	.	.
.	.	.	.	16r	.	.
.	.	.	.	16cc/Jk)	.	.
.	.	2e 2c 2G^>\	.	(4.b^/	.	.
4r	.	.	.	.	.	.
.	.	.	.	8a/)	.	.
=167	=167	=167	=167	=167	=167	=167
2GG 2GGG/	2.g/	4r	.	8.f#X/L	.	.
.	.	.	.	16g/Jk	.	.
.	.	4f 4B 4G\	.	(4.ee\	.	>
4r	.	4f 4B 4G\	.	.	.	.
.	.	.	.	8dd\)	.	]
=168	=168	=168	=168	=168	=168	=168
.	.	.	.	(<16qqcc/LL	.	.
.	.	.	.	16qqdd/JJ	.	.
2C 2CC/	2.g/	4r	.	8.ccu\L)	.	.
.	.	.	.	16bv\Jk	.	.
.	.	2e 2c 2G^>\	.	4ccu\	.	.
4r	.	.	.	4r	.	.
*	*v	*v	*	*	*	*
=169	=169	=169	=169	=169	=169
!	!LO:TUP:b	!	!	!	!
4C 4GG 4CC/	(12gL 12e/	ff	2.r	.	.
.	12a/	.	.	.	.
.	12b/J	.	.	.	.
4C 4GG 4CC/	4cc\)	.	.	.	.
4BB 4GG 4CC/	4dd 4g 4f/	sf	.	.	.
=170	=170	=170	=170	=170	=170
4C 4GG 4CC/	8.eeL 8.g 8.e\	.	2.r	.	.
.	16ffJk 16f\	.	.	.	.
4C 4GG 4CC/	4ff#X 4f#X\	.	.	.	.
4C 4GG 4CC/	4gg 4g\	sf	.	.	.
=171	=171	=171	=171	=171	=171
!	!LO:TUP:b	!	!	!	!
4C 4GG 4CC/	(12gL 12e/	.	2.r	.	.
.	12a/	.	.	.	.
.	12b/J	.	.	.	.
4C 4GG 4CC/	4cc\)	.	.	.	.
4BB 4GG 4CC/	4dd 4g 4fn/	sf	.	.	.
=172	=172	=172	=172	=172	=172
4C 4GG 4CC/	8.eeL 8.g 8.e\	.	2.r	.	.
.	16ffJk 16f\	.	.	.	.
4C 4GG 4CC/	4ff#X 4f#X\	.	.	.	.
4C 4GG 4CC/	4gg 4g\	sf	.	.	.
!!LO:LB:g=original
=173	=173	=173	=173	=173	=173
4GG 4GGG/	8.ggL 8.g\	.	2.r	.	.
.	16gg#XJk 16g#X\	.	.	.	.
2d 2B 2G 2F^<\	(4.aa 4.a\	>	.	.	.
.	8b\)	]	.	.	.
=174	=174	=174	=174	=174	=174
4C 4CC/	8.dd\L	.	2.r	.	.
.	16cc\Jk	.	.	.	.
2c 2G 2E^<\	(4.b/	>	.	.	.
.	8a/)	]]	.	.	.
=175	=175	=175	=175	=175	=175
4GG 4GGG/	8.f#X/L	.	2.r	.	.
.	16g/Jk	.	.	.	.
4d 4B 4G 4F\	(4a/	.	.	.	.
4d 4B 4G 4F\	4b/)	.	.	.	.
=176	=176	=176	=176	=176	=176
.	(<16qqcc/LL	.	.	.	.
.	16qqdd/JJ	.	.	.	.
4C 4CC/	8cc'\L)	.	2.r	.	.
.	8b'\	.	.	.	.
4c 4G 4E\	8cc'\	.	.	.	.
.	8dd'\	.	.	.	.
4c 4G 4E\	8ee'\	.	.	.	.
.	8ff'\J	.	.	.	.
=177	=177	=177	=177	=177	=177
4GG 4GGG/	8.ggL 8.g\	.	2.r	.	.
.	16gg#XJk 16g#X\	.	.	.	.
2d 2B 2G 2F\	(4.aa 4.a\	>	.	.	.
.	8b\)	]	.	.	.
=178	=178	=178	=178	=178	=178
4C 4CC/	8.dd\L	.	2.r	.	.
.	16cc\Jk	.	.	.	.
2c 2G 2E\	(4.b/	>	.	.	.
.	8a/)	]	.	.	.
=179	=179	=179	=179	=179	=179
4GG 4GGG/	8.f#X/L	.	2.r	.	.
.	16g/Jk	.	.	.	.
4d 4B 4G 4F\	(4.ee\	>	.	.	.
4d 4B 4G 4F\	.	.	.	.	.
.	8dd\)	]	.	.	.
=180	=180	=180	=180	=180	=180
.	16qqcc/LL	.	.	.	.
.	16qqdd/JJ	.	.	.	.
4C 4CC/	8.cc\L	.	2.r;	.	.
.	16b\Jk	.	.	.	.
4c 4G 4E\	4cc^<\	.	.	.	.
4r;	4r;	.	.	.	.
!!LO:PB:g=original
=181	=181	=181	=181	=181	=181
.	.	.	(<16qqcc/LL	.	p
.	.	.	16qqdd/JJ	.	.
!	!	!LO:DY:rj	!	!	!
!LO:TX:a:i:t=rall.	!	!LO:HP:b=2	!LO:TX:b:i:t=rall.	!	!
(2.f 2.d\	2.r	pp <	8.ccv\L)	.	.
.	.	.	16b\Jk	.	.
.	.	.	(2cc\	.	.
=182	=182	=182	=182	=182	=182
.	.	.	16qqcc/LL	.	.
.	.	.	16qqdd/JJ	.	.
2.f#X 2.d#X\	2.r	.	8.cc\L	.	.
.	.	.	16b\Jk)	.	.
.	.	.	(2ccu\	.	.
=183	=183	=183	=183	=183	=183
.	.	.	16qqcc/LL	.	.
.	.	.	16qqdd/JJ	.	.
2.g 2.e\)	2.r	[[	8.cc\L	.	.
.	.	.	16b\Jk)	.	.
.	.	.	(4.ccv\	.	.
.	.	.	8b-X\)	.	.
=184||	=184||	=184||	=184||	=184||	=184||
!!!key: F
*k[b-]	*k[b-]	*	*k[b-]	*	*
*^	*^	*	*	*	*
!	!	!	!LO:TX:a:i:t=Piu lento.	!	!LO:TX:a:i:t=con melancolia.	!	!LO:DY:rj
(4Fn/	2.FFn\	(4fn/	(4A\	.	4.au\	.	p
2C^/)	.	2c/)	2c\)	.	.	.	.
.	.	.	.	.	(8a\L	.	.
.	.	.	.	.	8cc\	.	.
.	.	.	.	.	8ff\J)	.	.
=185	=185	=185	=185	=185	=185	=185	=185
.	.	.	.	.	16qqff/LL	.	.
.	.	.	.	.	16qqgg/JJ	.	.
(4G/	2.FF\	(4e/	(4B-\	.	(8ff\L	.	.
.	.	.	.	.	16rdd	.	.
.	.	.	.	.	16ee\Jk)	.	.
2C^/)	.	2c/)	2c\)	.	2gg^\	.	.
=186	=186	=186	=186	=186	=186	=186	=186
.	.	.	.	.	16qqdd/LL	.	.
.	.	.	.	.	16qqee/JJ	.	.
(4G/	2.FF\	(4e/	(4B-\	.	(8dd\L	.	.
.	.	.	.	.	16rdd	.	.
.	.	.	.	.	16cc\Jk)	.	.
2C^/)	.	2c/)	2c\)	.	2ee^\	.	.
*	*	*v	*v	*	*	*	*
=187	=187	=187	=187	=187	=187	=187
.	.	.	.	16qqb-/LL	.	.
.	.	.	.	16qqcc/JJ	.	.
(4F/	4FF\	4f 4A/	.	(8b-\L	.	.
.	.	.	.	16r	.	.
.	.	.	.	16a\Jk)	.	.
2C/)	2C^\	(4g#X 4Bn/	>	(4dd^\	.	.
.	.	4a 4c/)	]	4cc\)	.	.
=188	=188	=188	=188	=188	=188	=188
*	*	*^	*	*	*	*
(4F/	2.FF\	4f/	(4A\	.	4.a\	.	<
2C^/)	.	2c/	2c\)	.	.	.	.
.	.	.	.	.	(8a^\L	.	.
.	.	.	.	.	8cc^\	.	.
.	.	.	.	.	8ff^\J)	.	[
*v	*v	*	*	*	*	*	*
!!LO:LB:g=original
=189	=189	=189	=189	=189	=189	=189
.	.	.	.	16qqff/LL	.	f
!	!	!	!	!LO:TX:b:i:t=Animato.	!	!
.	.	.	.	16qqgg/JJ	.	.
!	!	!	!LO:DY:rj	!	!	!
(4EE/	(4a/	(4c#X\	f	(8ff\L	.	.
.	.	.	.	16rdd	.	.
.	.	.	<	16ee\Jk)	.	<
2E^<\)	2e^/)	2e\)	.	2aa^\	.	.
=190	=190	=190	=190	=190	=190	=190
.	.	.	.	16qqcc#X/LL	.	.
.	.	.	.	16qqdd/JJ	.	.
(4EE/	(4g#X/	(4d\	.	(8cc#y\L	.	.
.	.	.	.	16r	.	.
.	.	.	.	16bn\Jk)	.	.
2E^<\)	2e/)	2e\)	[[	2ee^\	.	[
=191	=191	=191	=191	=191	=191	=191
.	.	.	.	16qqa/LL	.	.
.	.	.	.	16qqbn/JJ	.	.
(4AA/	(4a/	(4c#X\	.	(8a/L	.	.
.	.	.	.	16r	.	.
.	.	.	f	16g#X/Jk)	.	.
*	*	*	*	*	*below	*
2A^<\)	2e/)	2e^\)	.	[2a^>/	4	f
=192	=192	=192	=192	=192	=192	=192
*^	*	*	*	*	*	*
!	!	!LO:TX:a:B:t=Tempo I°.	!	!LO:DY:rj	!	!	!
(4F/	2.FF\	(4f/	(4A\	pp	4.a/]	2	pp
2Cn^/)	.	2ccn/)	2cn\)	.	.	.	.
.	.	.	.	.	(8a\L	.	.
.	.	.	.	.	8cc\	.	.
.	.	.	.	.	8ff\J)	.	.
=193	=193	=193	=193	=193	=193	=193	=193
.	.	.	.	.	16qqff/LL	.	.
.	.	.	.	.	16qqgg/JJ	.	.
(4G/	2.FF\	(4e/	(4B-\	.	8ffv\L	.	.
.	.	.	.	.	16r	.	.
.	.	.	.	.	16eeu\Jk	.	.
2C^/)	.	2cc/)	2c\)	.	2ggv^<\	.	.
=194	=194	=194	=194	=194	=194	=194	=194
.	.	.	.	.	16qqdd/LL	.	.
.	.	.	.	.	16qqee/JJ	.	.
(4G/	2.FF\	(4e/	(4B-\	.	(8dd\L	.	.
.	.	.	.	.	16r	.	.
.	.	.	.	.	16cc\Jk)	.	.
2C^/)	.	2cc/)	2c\)	.	2ee^\	.	.
*	*	*v	*v	*	*	*	*
=195	=195	=195	=195	=195	=195	=195
.	.	.	.	16qqb-/LL	.	.
.	.	.	.	16qqcc/JJ	.	.
(4F/	2.FF\	4f 4A/	.	(8b-\L	.	.
.	.	.	.	16r	.	.
.	.	.	.	16a\Jk)	.	.
2C^/)	.	(4g#X 4Bn/	.	(4dd^\	.	.
.	.	4a 4c/)	.	4cc\)	.	.
=196	=196	=196	=196	=196	=196	=196
*	*	*^	*	*	*	*
(4F/	2.FF\	(4f/	(4A\	.	4.a\	.	.
2C/)	.	2cc/)	2c\)	<	.	.	<
.	.	.	.	.	(8a^\L	.	.
.	.	.	.	.	8cc^\	.	.
.	.	.	.	[[	8ff^\J)	.	[[
!!LO:LB:g=original
=197	=197	=197	=197	=197	=197	=197	=197
.	.	.	.	.	16qqff/LL	.	ff
.	.	.	.	.	16qqgg/JJ	.	.
!	!	!	!	!LO:DY:rj	!	!	!
4G/	2.GG\	(4e/	(4c\	ff	(8ff\L	.	.
.	.	.	.	.	16rdd	.	.
.	.	.	.	.	16ee\Jk)	.	.
2G^/	.	2gg/)	2g\)	.	2ccc^\	.	.
=198	=198	=198	=198	=198	=198	=198	=198
.	.	.	.	.	16qqee/LL	.	.
.	.	.	.	.	16qqff/JJ	.	.
4G/	2.GG\	(4f/	(4Bn\	.	(8ee\L	.	.
.	.	.	.	.	16r	.	.
.	.	.	.	.	16dd\Jk)	.	.
2G^/	.	2gg/)	2g\)	.	2gg^\	.	.
*v	*v	*	*	*	*	*	*
*	*v	*v	*	*	*	*
=199	=199	=199	=199	=199	=199
4C/	4e 4c/	.	4.cc\	.	.
4C 4GG 4CC/	4ccc 4gg 4ee 4cc\	sf	.	.	.
!	!	!	!LO:TX:a:i:t=piu mosso	!	!
.	.	.	8cc^\L	.	.
4r	4r	.	8dd-X^\	.	.
.	.	.	8ddn^\J	.	.
=200||	=200||	=200||	=200||	=200||	=200||
!!!key: A-
*k[b-e-a-d-]	*k[b-e-a-d-]	*	*k[b-e-a-d-]	*	*
!	!	!LO:DY:rj	!LO:TX:b:B:t=Animat.	!	!
4E- 4EE-/	8e-/L	mf	(4.ee-^\	.	f
.	16r	.	.	.	.
.	16e-/Jk	.	.	.	.
4d- 4G\	4e-/	.	.	.	.
.	.	.	8dd-\L)	.	.
4r	[4e-/	>	8b-\	.	.
.	.	.	8g\J	.	.
=201	=201	=201	=201	=201	=201
4E- 4EE-/	8e-/L]	]	8e-/L	.	.
.	16r	.	16r	.	.
.	16e-/Jk	.	16a-/Jk	.	.
4c 4A-\	4e-/	.	(4cc\	.	.
4c 4A-\	[4e-/	>	4ff^\)	.	.
=202	=202	=202	=202	=202	=202
4E- 4EE-/	8e-/L]	]	(4.ee-^\	.	.
.	16r	.	.	.	.
.	16e-/Jk	.	.	.	.
4d- 4G\	4e-/	.	.	.	.
.	.	.	8dd-\L)	.	.
4r	[4e-/	>	8b-\	.	.
.	.	.	8g\J	.	.
=203	=203	=203	=203	=203	=203
4E- 4EE-/	8e-/L]	]	(8e-^\L	.	.
.	16r	.	8cc^\	.	.
.	16e-/Jk	.	.	.	.
4c 4A-\	4e-/	.	8ee-^\	.	.
.	.	.	16ccc^\Jk)	.	sf
.	.	.	16r	.	.
4c 4A-\	(4e-/	>]	8aa-^\L	.	.
.	.	.	8ff^\J	.	.
!!LO:LB:g=original
=204	=204	=204	=204	=204	=204
4E- 4EE-/	8e-/L)	.	([4ee-^\	.	.
.	16r	.	.	.	.
.	16e-/Jk	.	.	.	.
4d- 4G\	4e-/	.	8ee-\L]	.	.
.	.	.	16r	.	.
.	.	.	16dd-\K)	.	.
4r	[4e-/	>	8b-\	.	.
.	.	.	16r	.	.
.	.	.	16g\Jk	.	.
=205	=205	=205	=205	=205	=205
4AA- 4AAA-/	8e-/L]	]	8.e-/L	.	.
.	16r	.	.	.	.
.	16e-/Jk	.	16a-/Jk	.	.
4c 4A- 4E-\	4e-/	.	(4cc\	.	.
4c 4A- 4E-\	4e-/	.	4ee-^\)	.	.
=206	=206	=206	=206	=206	=206
*	*	*	*^	*	*
!	!	!LO:DY:rj	!	!	!	!LO:DY:rj
2GG#X 2GGG#X/	8.eenL 8.ddn 8.bn 8.en\	ff	8.een/L	8.een\L	.	ff
.	16eeJk 16dd 16b 16e\	.	16ee/Jk	16ee\Jk	.	.
.	.	.	(>16qqee/LL	.	.	.
.	.	.	16qqgg#X/JJ	.	.	.
.	4ee 4dd 4b 4e\	.	4ff#X/	2ee^\	.	.
4FF##X 4FFF##X/	4ee 4cc#X 4a#X 4e\	.	4ee/)	.	.	.
=207	=207	=207	=207	=207	=207	=207
2GG#X 2GGG#X/	8.eenL 8.ddn 8.bn 8.en\	.	8.een/L	8.een\L	.	.
.	16eeJk 16dd 16b 16e\	.	16ee/Jk	16ee\Jk	.	.
.	.	.	(>16qqee/LL	.	.	.
.	.	.	16qqgg#X/JJ	.	.	.
.	4ee 4dd 4b 4e\	.	4ff#X/	2ee^\	.	.
4AA#X 4AAA#X/	4ee 4cc#X 4f##X 4e\	.	4ee/)	.	.	.
*	*	*	*v	*v	*	*
=208||	=208||	=208||	=208||	=208||	=208||
!!!key: A
*k[f#c#g#]	*k[f#c#g#]	*	*k[f#c#g#]	*	*
*	*	*	*^	*	*
4BB 4BBB/	8.eeL 8.dd 8.g# 8.e/	sf	(4.ee/	4.ee^\	.	.
.	16e/Jk	p	.	.	.	.
4d 4G# 4E\	4e/	.	.	.	.	.
.	.	.	4.ryy	8dd\L)	.	.
4r	[4e/	>]	.	8b\	.	.
.	.	.	.	8g#\J	.	.
*	*	*	*v	*v	*	*
=209	=209	=209	=209	=209	=209
4C# 4CC#/	8.e/L]	.	8e/L	.	.
.	.	.	16r	.	.
.	16e/Jk	.	16a/Jk	.	.
4c# 4A 4E\	4e/	.	(4cc#\	.	.
4c# 4A 4E\	[4e/	>	4ff#^<\)	.	.
=210	=210	=210	=210	=210	=210
4GG# 4GGG#/	8.e/L]	]	(4.ee^<\	.	.
.	16e/Jk	.	.	.	.
4d 4B 4E\	4e/	.	.	.	.
.	.	.	8dd\L)	.	.
4r	(4e/	>]	8b\	.	.
.	.	.	8g#\J	.	.
!!LO:LB:g=original
=211	=211	=211	=211	=211	=211
4AA 4AAA/	8.e/L)	.	(8e^\L	.	.
.	.	.	8cc#^\	.	.
.	16e/Jk	.	.	.	.
4c# 4A 4E\	4e/	.	8ee^\	.	.
.	.	.	16ccc#\Jk)	.	sf
.	.	.	16r	.	.
4c# 4A 4E\	[4e/	>]	8aa^\L	.	.
.	.	.	8ff#^\J	.	.
=212	=212	=212	=212	=212	=212
4BB 4BBB/	8.e/L]	.	[4ee^\	.	.
.	16e/Jk	.	.	.	.
4d 4G# 4E\	4e/	.	8ee\L]	.	.
.	.	.	16r	.	.
.	.	.	16dd\K	.	.
4r	[4e/	>]	8b\	.	.
.	.	.	16r	.	.
.	.	.	16g#\Jk	.	.
=213	=213	=213	=213	=213	=213
4C# 4CC#/	8.e/L]	.	8.e/L	.	.
.	16e/Jk	.	16a/Jk	.	.
4c# 4A 4E\	4e/	.	(4cc#\	.	.
4c# 4A 4E\	4e^/	.	4eeo^<\)	.	.
=214	=214	=214	=214	=214	=214
*	*	*	*^	*	*
2C# 2CC#/	8.aaL 8.ggn 8.ee 8.a\	.	8.aa/L	8.a\L	.	.
.	16aaJk 16gg 16ee 16a\	.	16aa/Jk	16a\Jk	.	.
.	.	.	(>16qqaa/LL	.	.	.
.	.	.	16qqccc#/JJ	.	.	.
.	4aa 4gg 4ee 4a\	.	4bb/	2a\	.	.
4BB#X 4BBB#X/	4aa 4ff# 4dd#X 4a\	sf	4aa/)	.	.	sf
=215	=215	=215	=215	=215	=215	=215
2C# 2CC#/	8.aaL 8.ggn 8.ee 8.a\	.	8.aa/L	8.a\L	.	.
.	16aaJk 16gg 16ee 16a\	.	16aa/Jk	16a\Jk	.	.
.	.	.	(>16qqaa/LL	.	.	.
.	.	.	16qqccc#/JJ	.	.	.
.	4aa 4gg 4ee 4a\	.	4bb/	2a\	.	.
4BB#X 4BBB#X/	4aa 4ff# 4dd#X 4a\	sf	4aa/)	.	.	sf
*	*	*	*v	*v	*	*
=216	=216	=216	=216	=216	=216
8.C#L 8.CC#/	8.aaL 8.ggn 8.ee 8.a\	.	8.aaL 8.a\	.	.
16AAJk 16AAA/	16aaJk 16a\	.	16aaJk 16a\	.	.
!	!LO:TX:b:Bi:t=riten&colon; e pesante.	!	!	!	!
4AA 4AAA^^</	4aa 4a^^\	.	4aa 4au\	.	.
4AA 4AAA^^</	4aa 4a^^\	.	4aa 4au\	.	.
=217	=217	=217	=217	=217	=217
4AA 4AAA^^</	4aa 4a^^\	.	4aa 4au\	.	.
4AA 4AAA^^</	4aa 4a^^\	.	4aa 4au\	.	.
4AA 4AAA^^</	4aa 4a^^\	.	4aa 4au\	.	.
!!LO:PB:g=original
=218||	=218||	=218||	=218||	=218||	=218||
!!!OMD: All°. vivace.
!!!key: D
*k[f#c#]	*k[f#c#]	*	*k[f#c#]	*	*
!	!	!	!LO:TX:a:t=OBERTAS.	!	!
8qGG#X/	8qgg#X/	.	.	.	.
!	!	!	!	!	!LO:DY:rj
2AA 2DD/	2aa 2a\	ff	(2a 2d/	.	ff
.	8qgg#/	.	.	.	.
4AA 4DD/	4aa 4a^<\	.	4a 4d^>/)	.	.
=219	=219	=219	=219	=219	=219
8qGG#X/	8qgg#X/	.	.	.	.
2AA 2DD/	2aa 2a\	.	(2a 2d/	.	.
.	8qgg#/	.	.	.	.
4AA 4DD/	4aa 4a^<\	.	4a 4d^>/)	.	.
=220	=220	=220	=220	=220	=220
8qGG#X/	8qgg#X/	.	.	.	.
2AA 2DD/	2aa 2a\	.	(2a 2d/	.	.
.	8qgg#/	.	.	.	.
4AA 4DD/	4aa 4a^<\	.	4a 4d^>/)	.	.
=221	=221	=221	=221	=221	=221
8qGG#X/	8qgg#X/	.	.	.	.
2AA 2DD/	2aa 2a\	.	(2a 2d/	.	.
.	8qgg#/	.	.	.	.
4AA 4DD/	4aa 4a^<\	.	4a 4d^>/)	.	.
=222	=222	=222	=222	=222	=222
*^	*	*	*^	*	*
8qGG#X/	.	.	.	.	8qd/	.	.
2AA/	2.DD\	2a 2f# 2d 2A/	.	(8ff#u/L	4a\	.	.
.	.	.	.	8gg#X/J)	.	.	.
.	.	.	.	8qbb/	.	.	.
.	.	.	.	(8aav/L	4.a\	.	.
.	.	.	.	8gg#/	.	.	.
4AA/	.	4a 4f# 4d 4A^/	.	8aa/)	.	.	.
.	.	.	.	8ff#u/J	8a\	.	.
=223	=223	=223	=223	=223	=223	=223	=223
8qGG#X/	.	.	.	.	.	.	.
2AA/	2.DD\	2a 2e 2c# 2A/	.	4eeov/	4ao\	.	sf
.	.	.	.	4eeou/	4ao\	.	sf
4AA/	.	4a 4e 4c# 4A^/	.	(4eeou/	4ao\	.	sf
=224	=224	=224	=224	=224	=224	=224	=224
8qGG#X/	.	.	.	.	.	.	.
2AA/	2.DD\	2a 2f# 2d 2A/	.	8dd/L	8d\L	.	.
.	.	.	.	8ff#/J)	8a\J	.	.
.	.	.	.	8qbb/	.	.	.
.	.	.	.	(8aa/L	4.a\	.	.
.	.	.	.	8gg#X/	.	.	.
4AA/	.	4a 4f# 4d 4A^/	.	8aa/)	.	.	.
.	.	.	.	8ff#`/J	8a\	.	.
=225	=225	=225	=225	=225	=225	=225	=225
8qGG#X/	.	.	.	.	.	.	.
2AA/	2.DD\	2a 2e 2c# 2A/	.	4eve/	4a\	.	sf
.	.	.	.	4eeu/	4a\	.	sf
4AA/	.	4a 4e 4c# 4A^/	.	(4eeu/	4a\	.	sf
!!LO:LB:g=original
=226	=226	=226	=226	=226	=226	=226	=226
8qGG#X/	.	.	.	.	8qd/	.	.
2AA/	2.DD\	2a 2f# 2d 2A/	.	8ff#/L	4a\	.	.
.	.	.	.	8gg#X/J)	.	.	.
.	.	.	.	8qbb/	.	.	.
.	.	.	.	(8aa/L	4.a\	.	.
.	.	.	.	8gg#/	.	.	.
4AA/	.	4a 4f# 4d 4A^/	.	8aa/)	.	.	.
.	.	.	.	8ff#`/J	8a\	.	.
=227	=227	=227	=227	=227	=227	=227	=227
8qGG#X/	.	.	.	.	.	.	.
2AA/	2.DD\	2a 2e 2c# 2A/	.	4eev/	4a\	.	f
.	.	.	.	4eeu/	4a\	.	f
4AA/	.	4a 4e 4c# 4A/	.	(4eeu/	4a\	.	f
=228	=228	=228	=228	=228	=228	=228	=228
8qGG#X/	.	.	.	.	.	.	.
2AA/	2.DD\	2a 2f# 2d 2A/	.	8dd/L	8d\L	.	.
.	.	.	.	8ff#/J)	8a\J	.	.
.	.	.	.	8qbb/	.	.	.
.	.	.	.	(8aa/L	4.a\	.	.
.	.	.	.	8gg#X/	.	.	.
4AA/	.	4a 4f# 4d 4A/	.	8aa/)	.	.	.
.	.	.	.	8ff#v/J	8a\	.	.
=229	=229	=229	=229	=229	=229	=229	=229
8qDD#X/	.	.	.	.	.	.	.
!	!	!	!	!	!	!	!LO:DY:rj
2EE/	2.AAA\	2a 2e 2c# 2A/	.	4ee 4av/	4e 4A\	.	f
.	.	.	.	4eeu/	4a\	.	f
4EE/	.	4a 4e 4c# 4A/	.	4eeu/	(4a\	.	f
=230	=230	=230	=230	=230	=230	=230	=230
8qDD#X/	.	.	.	.	.	.	.
2EE/	2.AAA\	2g#X 2e 2d 2B/	.	4ee/	8b\L	.	.
.	.	.	.	.	8cc#\J)	.	.
.	.	.	.	4.ee/	(8dd\L	.	.
.	.	.	.	.	8cc#\	.	.
4EE/	.	4g# 4e 4d 4B/	.	.	8dd\)	.	.
.	.	.	.	8ee/	8b`\J	.	.
=231	=231	=231	=231	=231	=231	=231	=231
8qDD#X/	.	.	.	.	.	.	.
2EE/	2.AAA\	2a 2e 2c# 2A/	.	4eev/	4cc#\	.	.
.	.	.	.	4eeu/	4ee\	.	.
4EE/	.	4a 4e 4c# 4A/	.	4eeu/	(4ee\	.	.
=232	=232	=232	=232	=232	=232	=232	=232
8qDD#X/	.	.	.	.	.	.	.
2EE/	2.AAA\	2g#X 2e 2d 2B/	.	4ee/	8b\L	.	.
.	.	.	.	.	8cc#\J)	.	.
.	.	.	.	4.ee/	(8dd\L	.	.
.	.	.	.	.	8cc#\	.	.
4EE/	.	4g# 4e 4d 4B/	.	.	8dd\)	.	.
.	.	.	.	8ee/	8b^\J	.	.
=233	=233	=233	=233	=233	=233	=233	=233
8qDD#X/	.	.	.	.	.	.	.
2EE/	2.AAA\	2a 2e 2c# 2A/	.	4eev/	4cc#\	.	.
.	.	.	.	4eeu/	4a\	.	.
4EE/	.	4a 4e 4c# 4A/	.	4eeu/	(4a^\	.	.
!!LO:LB:g=original
=234	=234	=234	=234	=234	=234	=234	=234
8qDD#X/	.	.	.	.	.	.	.
2EE/	2.AAA\	2g#X 2e 2d 2B/	.	4ee/	8b\L	.	.
.	.	.	.	.	8cc#\J)	.	.
.	.	.	.	4.ee/	(8dd\L	.	.
.	.	.	.	.	8cc#\	.	.
4EE/	.	4g# 4e 4d 4B/	.	.	8dd\)	.	.
.	.	.	.	8ee/	8b^\J	.	.
=235	=235	=235	=235	=235	=235	=235	=235
8qDD#X/	.	.	.	.	.	.	.
2EE/	2.AAA\	2a 2e 2c# 2A/	.	4eev/	4cc#\	.	.
.	.	.	.	4eeu/	4ee\	.	.
4EE/	.	4a 4e 4c# 4A/	.	4eeu/	(4ee\	.	.
=236	=236	=236	=236	=236	=236	=236	=236
8qDD#X/	.	.	.	.	.	.	.
2EE/	2.AAA\	2g#X 2e 2d 2B/	.	4ee/	8b\L	.	.
.	.	.	.	.	8cc#\J)	.	.
.	.	.	.	4.ee/	(8dd\L	.	.
.	.	.	.	.	8cc#\	.	.
4EE/	.	4g# 4e 4d 4B/	.	.	8dd\)	.	.
.	.	.	.	8ee/	8b^\J	.	.
=237	=237	=237	=237	=237	=237	=237	=237
.	8qDD#X/	.	.	.	.	.	.
2AA/	2.EE 2.AAA\	2a 2e 2c# 2A/	.	4eev/	4cc#\	.	.
.	.	.	.	4eeu/	4a\	.	.
4AA/	.	4a 4e 4c# 4A^/	.	(4eeu/	4a^\	.	.
=238	=238	=238	=238	=238	=238	=238	=238
8qGG#X/	.	.	.	.	8qd/	.	.
2AA/	2.DD\	2a 2f# 2d 2A/	.	8ff#/L	4a\	.	.
.	.	.	.	8gg#X/J)	.	.	.
.	.	.	.	8qbb/	.	.	.
.	.	.	.	(8aa/L	4.a\	.	.
.	.	.	.	8gg#/	.	.	.
4AA/	.	4a 4f# 4d 4A^/	.	8aa/)	.	.	.
.	.	.	.	8ff#/J	8a^\	.	.
=239	=239	=239	=239	=239	=239	=239	=239
8qGG#X/	.	.	.	.	.	.	.
2AA/	2.DD\	2a 2e 2c# 2A/	.	4eev/	4a\	.	f
.	.	.	.	4eeu/	4a\	.	f
4AA/	.	4a 4e 4c# 4A/	.	(4eeu/	4a\	.	f
=240	=240	=240	=240	=240	=240	=240	=240
8qGG#X/	.	.	.	.	.	.	.
2AA/	2.DD\	2a 2f# 2d 2A/	.	8dd/L	8d\L	.	.
.	.	.	.	8ff#/J)	8a\J	.	.
.	.	.	.	8qbb/	.	.	.
.	.	.	.	(8aa/L	4.a\	.	.
.	.	.	.	8gg#X/	.	.	.
4AA/	.	4a 4f# 4d 4A/	.	8aa/)	.	.	.
.	.	.	.	8ff#/J	8a^\	.	.
=241	=241	=241	=241	=241	=241	=241	=241
8qGG#X/	.	.	.	.	.	.	.
2AA/	2.DD\	2a 2e 2c# 2A/	.	4eev/	4a\	.	f
.	.	.	.	4eeu/	4a\	.	f
4AA/	.	4a 4e 4c# 4A/	.	(4eeu/	4a\	.	f
!!LO:LB:g=original
=242	=242	=242	=242	=242	=242	=242	=242
8qGG#X/	.	.	.	.	8qd/	.	.
2AA/	2.DD\	2a 2f# 2d 2A/	.	8ff#/L	4a\	.	.
.	.	.	.	8gg#X/J)	.	.	.
.	.	.	.	8qbb/	.	.	.
.	.	.	.	(8aa/L	4.a\	.	.
.	.	.	.	8gg#/	.	.	.
4AA/	.	4a 4f# 4d 4A^/	.	8aa/)	.	.	.
.	.	.	.	8ff#/J	8a^\	.	.
=243	=243	=243	=243	=243	=243	=243	=243
8qGG#X/	.	.	.	.	.	.	.
2AA/	2.DD\	2a 2e 2c# 2A/	.	4eev/	4a\	.	f
.	.	.	.	4eeu/	4a\	.	f
4AA/	.	4a 4e 4c# 4A/	.	(4eeu/	4a\	.	f
=244	=244	=244	=244	=244	=244	=244	=244
8qGG#X/	.	.	.	.	.	.	.
2AA/	2.DD\	2a 2f# 2d 2A/	.	8dd/L	8d\L	.	.
.	.	.	.	8ff#/J)	8a\J	.	.
.	.	.	.	8qbb/	.	.	.
.	.	.	.	(8aa/L	4.a\	.	.
.	.	.	.	8gg#X/	.	.	.
4AA/	.	4a 4f# 4d 4A/	.	8aa/)	.	.	.
.	.	.	.	8ff#/J	8a^\	.	.
=245	=245	=245	=245	=245	=245	=245	=245
8qDD#X/	.	.	.	.	.	.	.
2EE/	2.AAA\	2a 2e 2c# 2A/	.	4ee 4av/	4e 4A\	.	.
.	.	.	.	4eeu/	4a\	.	.
4EE/	.	4a 4e 4c# 4A/	.	4eeu/	(4a\	.	.
=246	=246	=246	=246	=246	=246	=246	=246
8qDD#X/	.	.	.	.	.	.	.
2EE/	2.AAA\	2g#X 2e 2d 2B/	.	4ee/	8b\L	.	.
.	.	.	.	.	8cc#\J)	.	.
.	.	.	.	4.ee/	(8dd\L	.	.
.	.	.	.	.	8cc#\	.	.
4EE/	.	4g# 4e 4d 4B/	.	.	8dd\)	.	.
.	.	.	.	8ee/	8b^\J	.	.
=247	=247	=247	=247	=247	=247	=247	=247
8qDD#X/	.	.	.	.	.	.	.
2EE/	2.AAA\	2a 2e 2c# 2A/	.	4eev/	4cc#\	.	.
.	.	.	.	4eeu/	4ee\	.	.
4EE/	.	4a 4e 4c# 4A/	.	4eeu/	(4ee\	.	.
=248	=248	=248	=248	=248	=248	=248	=248
8qDD#X/	.	.	.	.	.	.	.
2EE/	2.AAA\	2g#X 2e 2d 2B/	.	4ee/	8b\L	.	.
.	.	.	.	.	8cc#\J)	.	.
.	.	.	.	4.ee/	(8dd\L	.	.
.	.	.	.	.	8cc#\	.	.
4EE/	.	4g# 4e 4d 4B/	.	.	8dd\)	.	.
.	.	.	.	8ee/	8b^\J	.	.
=249	=249	=249	=249	=249	=249	=249	=249
8qDD#X/	.	.	.	.	.	.	.
2EE/	2.AAA\	2a 2e 2c# 2A/	.	4eev/	4cc#\	.	.
.	.	.	.	4eeu/	4a\	.	.
4EE/	.	4a 4e 4c# 4A/	.	4eeu/	(4a\	.	.
!!LO:LB:g=original
=250	=250	=250	=250	=250	=250	=250	=250
8qDD#X/	.	.	.	.	.	.	.
2EE/	2.AAA\	2g#X 2e 2d 2B/	.	4ee/	8b\L	.	.
.	.	.	.	.	8cc#\J)	.	.
.	.	.	.	4.ee/	8dd\L	.	.
.	.	.	.	.	8cc#\	.	.
4EE/	.	4g# 4e 4d 4B/	.	.	8dd\	.	.
.	.	.	.	8ee/	8b^\J	.	.
=251	=251	=251	=251	=251	=251	=251	=251
8qDD#X/	.	.	.	.	.	.	.
2EE/	2.AAA\	2a 2e 2c# 2A/	.	4eev/	4cc#\	.	.
.	.	.	.	4eeu/	4ee\	.	.
4EE/	.	4a 4e 4c# 4A/	.	4eeu/	(4ee\	.	.
=252	=252	=252	=252	=252	=252	=252	=252
8qDD#X/	.	.	.	.	.	.	.
2EE/	2.AAA\	2g#X 2e 2d 2B/	.	4ee/	8b\L	.	.
.	.	.	.	.	8cc#\J)	.	.
.	.	.	.	4.ee/	(8dd\L	.	.
.	.	.	.	.	8cc#\	.	.
4EE/	.	4g# 4e 4d 4B/	.	.	8dd\)	.	.
.	.	.	.	8ee/	8b^\J	.	.
*v	*v	*	*	*	*	*	*
=253	=253	=253	=253	=253	=253	=253
2AA 2EE 2AAA/	2a 2e 2c# 2A/	.	(4eev/	4cc#\	.	.
.	.	.	4eeo/	4ao^\	.	.
4E 4AA^\	4r	.	4eeo/)	4ao^\	.	.
=254	=254	=254	=254	=254	=254	=254
8qD#X/	8qd#X/	.	.	.	.	.
2E 2AA\	2.e 2.A/	.	(4eeuo/	4ao^\	.	.
!	!LO:TX:b:Bi:t=rall. e poco poco dim.:problem=dynamics with extention lines	!LO:HP:t=rall. e poco poco dim.	!LO:TX:b:Bi:t=rall. e poco poco dim.:problem=dynamics with extention lines	!	!	!LO:HP:t=rall. e poco poco dim.
.	.	>	4eeo/	4ao^\	.	>
4E 4AA^\	.	.	4eeo/)	4ao^\	.	.
=255	=255	=255	=255	=255	=255	=255
8qD#X/	8qd#X/	.	.	.	.	.
2E 2AA\	2.e 2.A/	.	(4eevo/	4ao^\	.	.
.	.	.	4eeo/	4ao^\	.	.
4E 4AA^\	.	.	4eeo/)	4ao^\	.	.
=256	=256	=256	=256	=256	=256	=256
8qD#X/	8qd#X/	.	.	.	.	.
2E 2AA\	2.e 2.A/	.	(4eeuo/	4ao^\	.	.
.	.	.	4eeo/	4ao^\	.	.
4E 4AA^\	.	.	4eeo/)	4ao^\	.	.
=257	=257	=257	=257	=257	=257	=257
*	*	*	*	*	*^	*
8qD#X/	8qd#X/	.	.	.	.	.	.
2E 2AA\	2.e 2.A/	.	(4eev/	4a^\	2	2	.
.	.	.	4ee/	4a^\	2	2	.
4E 4AA^\	.	]]	4ee/)	4a^\	2	2	]]
*	*	*	*	*	*v	*v	*
!!LO:PB:g=original
=258	=258	=258	=258	=258	=258	=258
8qD#X/	8qd#X/	.	.	.	.	.
2E 2AA\	2.e 2.A/	.	(4eeu/	4a^\	.	.
.	.	.	4ee/	4a^\	.	.
4E 4AA^\	.	.	4ee/)	4a^\	.	.
=259	=259	=259	=259	=259	=259	=259
8qD#X/	8qd#X/	.	.	.	.	.
2E 2AA\	2.e 2.A/	.	(4ee/	4a^\	.	.
.	.	.	4ee/	4a^\	.	.
4E 4AA^\	.	.	4ee/)	4a^\	.	.
=260	=260	=260	=260	=260	=260	=260
2E 2AA\	2e 2A/	.	(4ee/	4a^\	.	.
.	.	.	4ee/	4a^\	.	.
4E 4AA\	4e 4A/	.	4ee/)	4a^\	.	.
*	*	*	*v	*v	*	*
=261||	=261||	=261||	=261||	=261||	=261||
!!!key: F
*k[b-]	*k[b-]	*	*k[b-]	*	*
*	*	*	*^	*	*
!	!	!	!LO:TX:b:B:t=Piu lento.	!	!	!
8qGG#X/	.	.	.	.	.	.
!	!	!LO:DY:rj	!	!	!	!LO:DY:rj
(2AA 2DD/	2.a 2.g 2.c#X 2.A/	pp	(8eev/L	2.d\	.	p
.	.	.	8ff/J	.	.	.
.	.	.	8gg/L	.	.	.
.	.	.	16aa/L	.	.	.
.	.	.	16gg/JJ	.	.	.
4AA 4DD^>/)	.	.	8ff/L	.	.	.
.	.	.	8ee/J)	.	.	.
=262	=262	=262	=262	=262	=262	=262
8qGG#X/	.	.	.	.	.	.
(2AA 2DD/	2.a 2.f 2.d 2.A/	.	(8ff/L	2.d\	.	.
.	.	.	16qqee/LL	.	.	.
.	.	.	16qqff/JJ	.	.	.
.	.	.	8ee/J	.	.	.
.	.	.	4.dd^/	.	.	.
4AA 4DD^>/)	.	.	.	.	.	.
.	.	.	8a/)	.	.	.
=263	=263	=263	=263	=263	=263	=263
8qGG#X/	.	.	.	.	.	.
(2AA 2DD/	2.a 2.g 2.c#X 2.A/	.	(8ee/L	2.d\	.	.
.	.	.	8ff/J	.	.	.
.	.	.	8gg/L	.	.	.
.	.	.	16aa/L	.	.	.
.	.	.	16gg/JJ	.	.	.
4AA 4DD^>/)	.	.	8ff/L	.	.	.
.	.	.	8ee/J)	.	.	.
=264	=264	=264	=264	=264	=264	=264
8qGG#X/	.	.	.	.	.	.
(2AA 2DD/	2a 2f 2d 2A/	.	(8dd/L	2.d\	.	.
.	.	.	8ff/J	.	.	.
.	.	.	4aa^/	.	.	.
4AA 4DD^>/)	4a 4f 4d 4A/	.	4aa^/)	.	.	.
!!LO:LB:g=original
=265	=265	=265	=265	=265	=265	=265
*	*^	*	*	*	*	*
8qGG#X/	.	.	.	8qbb-/	.	.	.
!	!	!	!LO:DY:rj	!	!	!	!
(2AA 2DD/	(8ee/L	2.a\	p	(2.aa/	[2.d\	.	.
.	8ff/J	.	.	.	.	.	.
.	8gg/L	.	.	.	.	.	.
.	16aa/L	.	.	.	.	.	.
.	16gg/JJ	.	.	.	.	.	.
4AA 4DD^>/)	8ff/L	.	.	.	.	.	.
.	8ee/J)	.	.	.	.	.	.
=266	=266	=266	=266	=266	=266	=266	=266
8qGG#X/	.	.	.	8qbb-/)	.	.	.
(2AA 2DD/	(8ff/L	2.a\	.	2.aa/	2.d\]	.	.
.	16qqee/LL	.	.	.	.	.	.
.	16qqff/JJ	.	.	.	.	.	.
.	8ee/J	.	.	.	.	.	.
.	4.dd^/	.	.	.	.	.	.
4AA 4DD^>/)	.	.	.	.	.	.	.
.	8a/)	.	.	.	.	.	.
=267	=267	=267	=267	=267	=267	=267	=267
8qGG#X/	.	.	.	8qbb-/	.	.	.
(2AA 2DD/	(8ee/L	2.a\	.	(2.aa/	[2.d\	.	.
.	8ff/J	.	.	.	.	.	.
.	8gg/L	.	.	.	.	.	.
.	16aa/L	.	.	.	.	.	.
.	16gg/JJ	.	.	.	.	.	.
4AA 4DD^>/)	8ff/L	.	.	.	.	.	.
.	8ee/J)	.	.	.	.	.	.
=268	=268	=268	=268	=268	=268	=268	=268
8qGG#X/	.	.	.	8qbb-/)	.	.	.
(2AA 2DD/	(8dd/L	2.a\	.	2.aa/	2.d\]	.	.
.	8ff/J	.	.	.	.	.	.
.	4aa/	.	.	.	.	.	.
4AA 4DD^>/)	4aa^/)	.	.	.	.	.	.
*	*v	*v	*	*	*	*	*
=269	=269	=269	=269	=269	=269	=269
!	!	!LO:DY:rj	!	!	!	!
(2BB- 2DD/	2.g#X 2.d/	mf > ]]	(4.dddv^</	2.d\	.	>
.	.	.	8bb-/L	.	.	.
4BB- 4DD^>/)	.	.	8aa/	.	.	.
.	.	.	8gg#X/J)	.	.	]
=270	=270	=270	=270	=270	=270	=270
(2AA 2DD/	2.a 2.d/	p	(8aau/L	2.d\	.	.
.	.	.	16qqff/LL	.	.	.
.	.	.	16qqggn/JJ	.	.	.
.	.	.	8ff/J	.	.	.
.	.	.	4ee/	.	.	.
4AA 4DD^>/)	.	.	4dd^/)	.	.	.
=271	=271	=271	=271	=271	=271	=271
(2BB- 2DD/	2.g#X 2.d/	.	(4.ddd^</	2.d\	.	>
.	.	.	8bb-/L	.	.	.
4BB- 4DD/)	.	.	8aa/	.	.	.
.	.	.	8gg#X/J)	.	.	]
!!LO:LB:g=original
=272	=272	=272	=272	=272	=272	=272
8qGG#X/	.	.	.	.	.	.
(2AA 2DD/	2.a 2.d/	.	(8aa/L	2.d\	.	.
.	.	.	8gg#X/J	.	.	.
.	.	.	4.ggn^/	.	.	.
4AA 4DD/)	.	.	.	.	.	.
.	.	.	8ff/)	.	.	.
=273	=273	=273	=273	=273	=273	=273
8qGG#X/	.	.	.	.	.	.
!	!	!	!	!	!	!LO:DY:rj
(2AA 2DD/	2.a 2.g 2.c#X 2.A/	.	(8ee/L	2.d\	.	pp
.	.	.	8ff/J	.	.	.
.	.	.	8gg/L	.	.	.
.	.	.	16aa/L	.	.	.
.	.	.	16gg/JJ	.	.	.
4AA 4DD^>/)	.	.	8ff/L	.	.	.
.	.	.	8ee/J)	.	.	.
=274	=274	=274	=274	=274	=274	=274
8qGG#X/	.	.	.	.	.	.
(2AA 2DD/	2.a 2.f 2.d 2.A/	.	(8ff/L	2.d\	.	.
.	.	.	16qqee/LL	.	.	.
.	.	.	16qqff/JJ	.	.	.
.	.	.	8ee/J	.	.	.
.	.	.	4.dd^/	.	.	.
4AA 4DD^>/)	.	.	.	.	.	.
.	.	.	8a/)	.	.	.
=275	=275	=275	=275	=275	=275	=275
8qGG#X/	.	.	.	.	.	.
(2AA 2DD/	2.a 2.g 2.c#X 2.A/	.	(8ee/L	2.d\	.	.
.	.	.	8ff/J	.	.	.
.	.	.	8gg/L	.	.	.
.	.	.	16aa/L	.	.	.
.	.	.	16gg/JJ	.	.	.
4AA 4DD^>/)	.	.	8ff/L	.	.	.
.	.	.	8ee/J)	.	.	.
=276	=276	=276	=276	=276	=276	=276
8qGG#X/	.	.	.	.	.	.
(2AA 2DD/	2a 2f 2d 2A/	.	(8dd/L	2.d\	.	.
.	.	.	8ff/J	.	.	.
.	.	.	4aa/	.	.	.
4AA 4DD^>/)	4a 4f 4d 4A/	.	4aa^/)	.	.	.
=277	=277	=277	=277	=277	=277	=277
*	*^	*	*	*	*	*
8qGG#X/	.	.	.	8qbb-/	.	.	.
(2AA 2DD/	(8ee/L	2.a\	.	(2.aav/	[2.d\	.	.
.	8ff/J	.	.	.	.	.	.
.	8gg/L	.	.	.	.	.	.
.	16aa/L	.	.	.	.	.	.
.	16gg/JJ	.	.	.	.	.	.
4AA 4DD^>/)	8ff/L	.	.	.	.	.	.
.	8ee/J)	.	.	.	.	.	.
=278	=278	=278	=278	=278	=278	=278	=278
8qGG#X/	.	.	.	8qbb-/)	.	.	.
(2AA 2DD/	(8ff/L	2.a\	.	2.aa/	2.d\]	.	.
.	16qqee/LL	.	.	.	.	.	.
.	16qqff/JJ	.	.	.	.	.	.
.	8ee/J	.	.	.	.	.	.
.	4.dd/	.	.	.	.	.	.
4AA 4DD^>/)	.	.	.	.	.	.	.
.	8a/)	.	.	.	.	.	.
!!LO:LB:g=original
=279	=279	=279	=279	=279	=279	=279	=279
8qGG#X/	.	.	.	8qbb-/	.	.	.
(2AA 2DD/	(8ee/L	2.a\	.	(2.aau/	[2.d\	.	.
.	8ff/J	.	.	.	.	.	.
.	8gg/L	.	.	.	.	.	.
.	16aa/L	.	.	.	.	.	.
.	16gg/JJ	.	.	.	.	.	.
4AA 4DD^>/)	8ff/L	.	.	.	.	.	.
.	8ee/J)	.	.	.	.	.	.
=280	=280	=280	=280	=280	=280	=280	=280
8qGG#X/	.	.	.	8qbb-/)	.	.	.
(2AA 2DD/	(8dd/L	2.a\	.	2.aa/	2.d\]	.	.
.	8ff/J	.	.	.	.	.	.
.	4aa/	.	.	.	.	.	.
4AA 4DD^>/)	4aa^/)	.	.	.	.	.	.
*	*v	*v	*	*	*	*	*
=281	=281	=281	=281	=281	=281	=281
(2BB- 2DD/	2.g#X 2.d/	mf > ]]	(4.ddd^</	2.d\	.	>
.	.	.	8bb-/L	.	.	.
4BB- 4DD^>/)	.	.	8aa/	.	.	.
.	.	.	8gg#X/J)	.	.	]
=282	=282	=282	=282	=282	=282	=282
(2AA 2DD/	2.a 2.d/	p	(8aa/L	2.d\	.	.
.	.	.	16qqff/LL	.	.	.
.	.	.	16qqggn/JJ	.	.	.
.	.	.	8ff/J	.	.	.
.	.	.	4ee/	.	.	.
4AA 4DD^>/)	.	.	4dd^/)	.	.	.
=283	=283	=283	=283	=283	=283	=283
(2BB- 2DD/	2.g#X 2.d/	.	(4.ddd^</	2.d\	.	>
.	.	.	8bb-/L	.	.	.
4BB- 4DD^>/)	.	.	8aa/	.	.	.
.	.	.	8gg#X/J)	.	.	]
=284	=284	=284	=284	=284	=284	=284
*^	*	*	*	*	*	*
.	.	8qg#X/	.	.	.	.	.
(2AA/	2DD\	2.a 2.d/	.	(4.aa/	2.d\	.	.
!	!	!LO:TX:b:Bi:t=poco a poco mo-ren-do:dur=26qe:ext=cd:problem=text with extention lines	!	!LO:TX:b:Bi:t=poco a poco mo-ren-do:dur=26qe:ext=cd:problem=text with extention lines	!	!	!
.	.	.	.	8bb-/L	.	.	.
4BB-^/)	4DD\	.	.	8gg#X/	.	.	.
.	.	.	.	8bb-/J)	.	.	.
=285	=285	=285	=285	=285	=285	=285	=285
.	.	8qg#X/	.	.	.	.	.
(2AA/	2DD\	2.a 2.d/	.	(4.aa/	2.d\	.	.
.	.	.	.	8bb-/L	.	.	.
4BB-^/)	4DD\	.	.	8gg#X/	.	.	.
.	.	.	.	8bb-/J)	.	.	.
=286	=286	=286	=286	=286	=286	=286	=286
.	.	8qg#X/	.	.	.	.	.
(2AA/	2DD\	2.a 2.d/	.	(8aav/L	2.d\	.	.
.	.	.	.	8bb-/J	.	.	.
.	.	.	.	8gg#X/L	.	.	.
.	.	.	.	8aa/J	.	.	.
4BB-^/)	4DD\	.	.	8ggn/L	.	.	.
.	.	.	.	8aa-X/J	.	.	.
!!LO:LB:g=original
=287	=287	=287	=287	=287	=287	=287	=287
.	.	8qg#X/	.	.	.	.	.
(2AA/	2DD\	2.a 2.d/	.	8ff#X/L	2.d\	.	.
.	.	.	.	8gg/J	.	.	.
.	.	.	.	8ffn/L	.	.	.
.	.	.	.	8gg-X/J	.	.	.
4BB-^/)	4DD\	.	.	8ee/L	.	.	.
.	.	.	.	8ff/J)	.	.	.
=288	=288	=288	=288	=288	=288	=288	=288
.	.	.	.	(<16qqee/LL	.	.	.
.	.	8qg#X/	.	16qqee-X/JJ	.	.	.
(2AA/	2DD\	2.a 2.d/	.	(2.dd/)	[2.d\	.	.
4BB-^/)	4DD\	.	.	.	.	.	.
=289	=289	=289	=289	=289	=289	=289	=289
!	!	!	!	!LO:S:s=1:note:problem=note-level slur	!	!	!
.	.	.	.	(<16qqeen/LL	.	.	.
.	.	8qg#X/	.	16qqee-X/JJ	.	.	.
!	!	!	!	!LO:S:s=1:note:problem=note-level slur	!	!	!
(2AA/	2DD\	2.a 2.d/	.	2.dd^</))	2.d\]	.	.
4BB-^/)	4DD\	.	.	.	.	.	.
=290	=290	=290	=290	=290	=290	=290	=290
.	.	.	.	&(>(16qqeen/LL	.	.	.
.	.	8qg#X/	.	16qqee-X/JJ	.	.	.
!	!	!	!	!LO:S:s=1:note:problem=note-level slur	!	!	!
(2AA/	2DD\	2.a 2.d/	.	2.dd^</)	[2.d\	.	.
4BB-^/)	4DD\	.	.	.	.	.	.
=291	=291	=291	=291	=291	=291	=291	=291
!	!	!	!	!LO:S:s=1:note:problem=note-level slur	!	!	!
.	.	.	.	(<16qqeen/LL	.	.	.
.	.	8qg#X/	.	16qqee-X/JJ	.	.	.
!	!	!	!	!LO:S:s=1:note:problem=note-level slur	!	!	!
(2AA/	2DD\	2.a 2.d/	.	2.dd^</)&)	2.d\]	.	.
4BB-^/)	4DD\	.	.	.	.	.	.
*v	*v	*	*	*	*	*	*
=292	=292	=292	=292	=292	=292	=292
.	.	.	(16qqeen/LL	.	.	.
.	8qg#X/	.	16qqee-X/JJ	.	.	.
(2AA 2DD/	[2.a [2.d/	.	[2.dd/)	[2.d\	.	.
4AA 4DD/)	.	.	.	.	.	.
=293	=293	=293	=293	=293	=293	=293
(2AA 2DD/	2a] 2d/]	.	2dd/]	2.d\_	.	.
4AA 4DD^>/)	4r	.	4r	.	.	.
=294	=294	=294	=294	=294	=294	=294
!	!LO:TX:b:i:t=lunga pausa	!	!	!	!	!
(2AA 2DD/	2.r;	.	4r	2d\]	.	.
.	.	.	4r	.	.	.
8AA 8DD/)	.	.	4rcc;	4re;	.	.
8r;	.	.	.	.	.	.
*	*	*	*v	*v	*	*
!!LO:PB:g=original
=295	=295	=295	=295	=295	=295
!	!	!LO:DY:rj	!	!	!
4D 4DD/	4dd 4a 4f#X 4d^<\	ff	2.r	.	.
8C#XL 8CC#X/	8dd#XL 8d#X\	.	.	.	.
8Cn 8CCn/	8ee 8e\	.	.	.	.
8BB- 8BBB-/	8ffn 8fn\	.	.	.	.
8AAJ 8AAA/	8ff#XJ 8f#X\	.	.	.	.
=296||	=296||	=296||	=296||	=296||	=296||
!!!key: G
*k[f#]	*k[f#]	*	*k[f#]	*	*
*	*	*	*^	*	*
!	!LO:TX:a:i:t=Con fuoco.	!	!	!	!	!LO:DY:rj
4GG 4GGG/	4gg 4dd 4b 4g\	ff	4ggv/	4b 4d 4G\	.	ff
4BB 4BBB/	4g 4d 4B 4G/	.	4ggu/	4b 4d 4G\	.	.
4GG 4GGG/	4g 4d 4B 4G/	.	4ggu/	4b 4d 4G\	.	.
=297	=297	=297	=297	=297	=297	=297
.	.	.	.	8qd/	.	.
4D 4DD/	4f# 4d 4A/	.	8.aa/L	8.dd\L	.	.
.	.	.	16bb/Jk	16dd\Jk	.	.
2DD 2DDD/	2f# 2d 2A/	.	(4ccc/	2dd\	.	.
.	.	.	16qqddd/LL	.	.	.
.	.	.	16qqccc/JJ	.	.	.
.	.	.	8bb/L	.	.	.
.	.	.	8aa/J)	.	.	.
=298	=298	=298	=298	=298	=298	=298
4GG 4GGG/	4r	.	8.bb/L	8.ddL 8.d 8.G\	.	.
.	.	.	16ddd/Jk	16dd\Jk	.	.
.	.	.	.	8qd/	.	.
2G 2D\	2g 2d 2B/	.	(4bb/	4dd\	.	.
.	.	.	16qqccc/LL	.	.	.
.	.	.	16qqbb/JJ	.	.	.
.	.	.	8aa/L	4b\	.	.
.	.	.	8gg/J)	.	.	.
=299	=299	=299	=299	=299	=299	=299
.	.	.	.	8qd/	.	.
4D 4DD/	4r	.	(8ff#/L	2a\	.	.
.	.	.	16gg/L	.	.	.
.	.	.	16ff#/JJ	.	.	.
4F# 4D\	4a 4d 4c 4A/	.	4ee/)	.	.	.
4F# 4D\	4a 4d 4c 4A/	.	4ddu/	4a\	.	.
=300	=300	=300	=300	=300	=300	=300
4GG 4GGG/	4g 4d 4B 4G/	.	4ggv/	4b 4d 4G\	.	.
4BB 4BBB/	4g 4d 4B 4G/	.	4ggu/	4b 4d 4G\	.	.
4GG 4GGG/	4g 4d 4B 4G/	.	4ggu/	4b 4d 4G\	.	.
=301	=301	=301	=301	=301	=301	=301
.	.	.	.	8qd/	.	.
4D 4DD/	4f# 4d 4A/	.	8.aa/L	8.dd\L	.	.
.	.	.	16bb/Jk	16dd\Jk	.	.
2DD 2DDD/	2f# 2d 2A/	.	(4ccc/	2dd\	.	.
.	.	.	16qqddd/LL	.	.	.
.	.	.	16qqccc/JJ	.	.	.
.	.	.	8bb/L	.	.	.
.	.	.	8aa/J)	.	.	.
!!LO:LB:g=original
=302	=302	=302	=302	=302	=302	=302
4GG 4GGG/	4g 4d 4B/	.	8.bb/L	8.ddL 8.d 8.G\	.	.
.	.	.	16ddd/Jk	16dd\Jk	.	.
.	.	.	.	8qd/	.	.
4D 4DD/	2f# 2d 2A/	.	(4ccc/	4dd\	.	.
.	.	.	16qqddd/LL	.	.	.
.	.	.	16qqccc/JJ)	.	.	.
4DD 4DDD/	.	.	8eev/L	4a\	.	.
.	.	.	8ff#u/J	.	.	.
=303	=303	=303	=303	=303	=303	=303
4GG 4GGG/	4g 4d 4B/	.	(8.aav/L	8.bL 8.d 8.G\	.	.
.	.	.	16gg/Jk)	16b\Jk	.	.
8DL 8DD/	8dddL 8dd\	ff	4ggu/	4b\	.	.
8C 8CC/	8ccc 8cc\	.	.	.	.	.
8BB 8BBB/	8bb 8b\	.	4r	4ryy	.	.
8AAJ 8AAA/	8aaJ 8a\	.	.	.	.	.
=304	=304	=304	=304	=304	=304	=304
4GG 4GGG/	4gg 4dd 4b 4g\	.	4ggv/	4b 4d 4G\	.	.
4BB 4BBB/	4g 4d 4B 4G/	.	4ggu/	4b 4d 4G\	.	.
4GG 4GGG/	4g 4d 4B 4G/	.	4ggu/	4b 4d 4G\	.	.
=305	=305	=305	=305	=305	=305	=305
.	.	.	.	8qd/	.	.
4D 4DD/	4f# 4d 4A/	.	8.aa/L	8.dd\L	.	.
.	.	.	16bb/Jk	16dd\Jk	.	.
2DD 2DDD/	2f# 2d 2A^/	.	(4ccc/	2dd\	.	.
.	.	.	16qqddd/LL	.	.	.
.	.	.	16qqccc/JJ	.	.	.
.	.	.	8bb/L	.	.	.
.	.	.	8aa/J)	.	.	.
=306	=306	=306	=306	=306	=306	=306
4GG 4GGG/	4r	.	8.bb/L	8.ddL 8.d 8.G\	.	.
.	.	.	16ddd/Jk	16dd\Jk	.	.
.	.	.	.	8qd/	.	.
2G 2D\	2g 2d 2B^/	.	(4bb/	4dd\	.	.
.	.	.	16qqccc/LL	.	.	.
.	.	.	16qqbb/JJ	.	.	.
.	.	.	8aa/L	4b\	.	.
.	.	.	8gg/J)	.	.	.
=307	=307	=307	=307	=307	=307	=307
.	.	.	.	8qd/	.	.
4D 4DD/	4r	.	(8ff#/L	2a\	.	.
.	.	.	16gg/L	.	.	.
.	.	.	16ff#/JJ	.	.	.
4F# 4D\	4a 4d 4c 4A/	.	4ee/)	.	.	.
4F# 4D\	4a 4d 4c 4A/	.	4ddu/	4a\	.	.
=308	=308	=308	=308	=308	=308	=308
4GG 4GGG/	4g 4d 4B 4G/	.	4ggv/	4b 4d 4G\	.	.
4BB 4BBB/	4g 4d 4B 4G/	.	4ggu/	4b 4d 4G\	.	.
4GG 4GGG/	4g 4d 4B 4G/	.	4ggu/	4b 4d 4G\	.	.
!!LO:LB:g=original
=309	=309	=309	=309	=309	=309	=309
.	.	.	.	8qd/	.	.
4D 4DD/	4f# 4d 4A/	.	8.aa/L	8.dd\L	.	.
.	.	.	16bb/Jk	16dd\Jk	.	.
2DD 2DDD/	2f# 2d 2A^/	.	(4ccc/	2dd\	.	.
.	.	.	16qqddd/LL	.	.	.
.	.	.	16qqccc/JJ	.	.	.
.	.	.	8bb/L	.	.	.
.	.	.	8aa/J)	.	.	.
=310	=310	=310	=310	=310	=310	=310
4GG 4GGG/	4g 4d 4B/	.	8.bb/L	4dd 4d 4G\	.	.
.	.	.	16ddd/Jk	.	.	.
4A 4AA\	2g 2c#X^/	.	(4ccc#X/	4ee 4a\	.	.
.	.	.	16qqddd/LL	.	.	.
.	.	.	16qqccc#/JJ	.	.	.
4AA 4AAA/	.	.	8bb/L)	4r	.	.
.	.	.	8aa/J	.	.	.
=311	=311	=311	=311	=311	=311	=311
!	!	!LO:DY:rj	!	!	!	!
4D 4DD/	8.f#L 8.d 8.A/	sf	4ddd/	4ff# 4a 4d\	.	.
.	16d/Jk	p	.	.	.	.
4r	4d/	.	4r	4ryy	.	.
4r	4d^/	.	4r	4ryy	.	.
*	*	*	*v	*v	*	*
=312	=312	=312	=312	=312	=312
2.r	8.d/L	.	2.r	.	.
.	16d/Jk	.	.	.	.
.	4d/	.	.	.	.
.	4d^/	.	.	.	.
=313	=313	=313	=313	=313	=313
!	!	!LO:HP:b=2	!	!	!
!	!	!LO:DY:b=2	!	!	!
(2.c#X\	8.d/L	sf >	2.r	.	.
.	16d/Jk	.	.	.	.
.	4d/	.	.	.	.
!	!LO:TX:a:i:t=un poco rall.	!	!	!	!
.	4d^/	.	.	.	.
=314	=314	=314	=314	=314	=314
2.cn\)	8.d/L	]	2.r	.	.
.	16d/Jk	.	.	.	.
.	4d/	.	.	.	.
.	4d^/	.	.	.	.
=315	=315	=315	=315	=315	=315
*^	*	*	*	*	*
!	!	!LO:TX:a:B:t=a Tempo.	!LO:DY:rj	!	!	!
4B 4D'/	2.GG\	8.d/L	pp	2.r	.	.
.	.	16d/Jk	.	.	.	.
4B 4D'/	.	4d/	.	.	.	.
4r	.	4d^>/	.	.	.	.
=316	=316	=316	=316	=316	=316	=316
4B 4D'/	2.GG\	8.d/L	.	2.r	.	.
.	.	16d/Jk	.	.	.	.
4B 4D'/	.	4d/	.	.	.	.
4r	.	4d^>/	.	.	.	.
!!LO:LB:g=original
=317	=317	=317	=317	=317	=317	=317
!	!	!	!	!LO:TX:b:i:t=con molto espress.	!	!LO:DY:rj
4B 4D'/	2.BB\	8.d/L	.	8ddv\L	.	p
.	.	.	.	16r	.	.
.	.	16d/Jk	.	(16dd\Jk	.	.
4B 4D'/	.	4d/	.	4.bb^<\	.	.
4r	.	4d^>/	.	.	.	.
.	.	.	.	8aa\)	.	.
=318	=318	=318	=318	=318	=318	=318
4B 4D/	2.BB\	8.d/L	.	8gg\L	.	.
.	.	.	.	16r	.	.
.	.	16d/Jk	.	16b\Jk	.	.
4B 4D/	.	4d/	.	(4.ee^<\	.	.
4r	.	4d^>/	.	.	.	.
.	.	.	.	8dd\)	.	.
=319	=319	=319	=319	=319	=319	=319
*	*	*^	*	*	*	*
4A 4D/	2.BB\	8.d/L	4c\	.	8cc\L	.	.
.	.	.	.	.	16r	.	.
.	.	16d/Jk	.	.	16f#\Jk	.	.
4A 4D/	.	4d/	4c\	.	(4.b^<\	.	.
4r	.	4d^/	4r	.	.	.	.
.	.	.	.	.	8a\)	.	.
=320	=320	=320	=320	=320	=320	=320	=320
.	.	.	.	.	16qqg/LL	.	.
.	.	.	.	.	16qqa/JJ	.	.
4G 4D/	2.BB\	8.d/L	4B\	.	8gv/L	.	.
.	.	.	.	.	8f#u/J	.	.
.	.	16d/Jk	.	.	.	.	.
4G 4D/	.	4d/	4B\	.	(8g`v/L	.	.
.	.	.	.	.	8a`/	.	.
4r	.	4d^/	4r	.	8b`/	.	.
.	.	.	.	.	8cc`/J	.	.
*	*	*v	*v	*	*	*	*
=321	=321	=321	=321	=321	=321	=321
4B 4D'/	2.BB\	8.d/L	.	8dd`\L)	.	.
.	.	.	.	16r	.	.
.	.	16d/Jk	.	(16ddu\Jk	.	.
4B 4D'/	.	4d/	.	4.bb^<\	.	.
4r	.	4d^>/	.	.	.	.
.	.	.	.	8aa\)	.	.
=322	=322	=322	=322	=322	=322	=322
4B 4D'/	2.BB\	8.d/L	.	8gg\L	.	.
.	.	.	.	16r	.	.
.	.	16d/Jk	.	16b\Jk	.	.
4B 4D'/	.	4d/	.	(4.ee^<\	.	.
4r	.	4d^>/	.	.	.	.
.	.	.	.	8dd\)	.	.
*v	*v	*	*	*	*	*
=323	=323	=323	=323	=323	=323
8.EL 8.AA\	8.gL 8.c#X 8.A/	ff	(8.cc#X\L	.	f
16EJk 16AA\	16gJk 16c# 16A/	.	16ee\Jk)	.	.
4E 4AA\	4g 4c# 4A/	.	4bb\	.	.
4E 4AA\	4g 4c# 4A^/	.	4aa^<\	.	.
=324	=324	=324	=324	=324	=324
8.AAL 8.DD/	8.f#L 8.cn 8.A/	.	8.ff#\L	.	.
16AAJk 16DD/	16f#Jk 16c 16A/	.	16aa\Jk	.	.
4AA 4DD/	4f# 4c 4A/	.	4eee\	.	.
8AA 8DD/	8f# 8c 8A^/	sf	8ddd^<\	.	sf
8r	8r	.	8r	.	.
!!LO:LB:g=original
=325	=325	=325	=325	=325	=325
2.r	8.d/L	p	2.r	.	.
.	16d/Jk	.	.	.	.
.	4d/	.	.	.	.
.	4d^/	.	.	.	.
=326	=326	=326	=326	=326	=326
2.r	8.d/L	.	2.r	.	.
.	16d/Jk	.	.	.	.
.	4d/	.	.	.	.
.	4d^/	.	.	.	.
=327	=327	=327	=327	=327	=327
2.r	8.d/L	.	2.r	.	.
.	16d/Jk	.	.	.	.
.	4d/	.	.	.	.
.	4d^/	.	.	.	.
=328	=328	=328	=328	=328	=328
2.r	8.d/L	.	2.r	.	.
.	16d/Jk	.	.	.	.
.	4d/	.	.	.	.
.	4d^/	.	.	.	.
=329	=329	=329	=329	=329	=329
*^	*	*	*	*	*
!	!	!	!	!	!	!LO:DY:rj
4B 4D'/	2.GG\	8.d/L	.	8ddv\L	.	p
.	.	.	.	16r	.	.
.	.	16d/Jk	.	(16ddu\Jk	.	.
4B 4D'/	.	4d/	.	4.bb\	.	.
4r	.	4d^>/	.	.	.	.
.	.	.	.	8aa\)	.	.
=330	=330	=330	=330	=330	=330	=330
4B 4D/	2.GG\	8.d/L	.	8gg\L	.	.
.	.	.	.	16r	.	.
.	.	16d/Jk	.	16b\Jk	.	.
4B 4D/	.	4d/	.	(4.ee\	.	.
4r	.	4d^>/	.	.	.	.
.	.	.	.	8dd\)	.	.
=331	=331	=331	=331	=331	=331	=331
*	*	*^	*	*	*	*
4A 4D/	2.GG\	8.d/L	4c\	.	8cc\L	.	.
.	.	.	.	.	16r	.	.
.	.	16d/Jk	.	.	16f#\Jk	.	.
4A 4D/	.	4d/	4c\	.	(4.b\	.	.
4r	.	4d^>/	4ryy	.	.	.	.
.	.	.	.	.	8a\)	.	.
=332	=332	=332	=332	=332	=332	=332	=332
.	.	.	.	.	16qqg/LL	.	.
.	.	.	.	.	16qqa/JJ	.	.
4G 4D/	2.GG\	8.d/L	4B\	.	8gv/L	.	.
.	.	.	.	.	8f#u/J	.	.
.	.	16d/Jk	.	.	.	.	.
4G 4D/	.	4d/	4B\	.	(>8gv`/L	.	.
.	.	.	.	.	8a`/	.	.
4r	.	4d^>/	4ryy	.	8b`/	.	.
.	.	.	.	.	8cc`/J)	.	.
*	*	*v	*v	*	*	*	*
!!LO:PB:g=original
=333	=333	=333	=333	=333	=333	=333
4B 4D/	2.GG\	8.d/L	.	8dd\L	.	.
.	.	.	.	16r	.	.
.	.	16d/Jk	.	(16dd\Jk	.	.
4B 4D/	.	4d/	.	4.bb\	.	.
4r	.	4d^>/	.	.	.	.
.	.	.	.	8aa\)	.	.
=334	=334	=334	=334	=334	=334	=334
4B 4D/	2.GG\	8.d/L	.	8gg\L	.	.
.	.	.	.	16r	.	.
.	.	16d/Jk	.	16b\Jk	.	.
4B 4D/	.	4d/	.	(4.ee\	.	.
4r	.	4d^>/	.	.	.	.
.	.	.	.	8dd\)	.	.
*v	*v	*	*	*	*	*
=335	=335	=335	=335	=335	=335
!	!	!LO:DY:rj	!	!	!LO:DY:rj
8.EL 8.AA\	8.gL 8.c#X 8.A/	ff	(8.cc#X\L	.	f
16EJk 16AA\	16gJk 16c# 16A/	.	16ee\Jk)	.	.
4E 4AA\	4g 4c# 4A/	.	4bb\	.	.
4E 4AA\	4g 4c# 4A^/	.	4aa^<\	.	.
=336	=336	=336	=336	=336	=336
8.AAL 8.DD/	8.f#L 8.cn 8.A/	.	8.ff#\L	.	.
16AAJk 16DD/	16f#Jk 16c 16A/	.	16aa\Jk	.	.
4AA 4DD/	4f# 4c 4A/	.	4eee\	.	.
4AA 4DD/	4f# 4c 4A^/	.	4ddd^<\	.	.
=337	=337	=337	=337	=337	=337
*	*	*	*^	*	*
!	!	!LO:DY:rj	!	!	!	!
4GG 4GGG/	4g 4d 4B 4G/	ff	4gg/	4b 4d 4G\	.	.
4BB 4BBB/	4g 4d 4B 4G/	.	4gg/	4b 4d 4G\	.	.
4GG 4GGG/	4g 4d 4B 4G/	.	4gg/	4b 4d 4G\	.	.
=338	=338	=338	=338	=338	=338	=338
.	.	.	.	8qd/	.	.
4D 4DD/	4f# 4d 4A/	.	8.aa/L	8.dd\L	.	.
.	.	.	16bb/Jk	16dd\Jk	.	.
2DD 2DDD^/	2f# 2d 2A^/	.	(4ccc/	2dd\	.	.
.	.	.	16qqddd/LL	.	.	.
.	.	.	16qqccc/JJ	.	.	.
.	.	.	8bb/L	.	.	.
.	.	.	8aa/J)	.	.	.
=339	=339	=339	=339	=339	=339	=339
4GG 4GGG/	4r	.	8.bb/L	8.ddL 8.d 8.G\	.	.
.	.	.	16ddd/Jk	16dd\Jk	.	.
2G 2D^\	2g 2d 2B^/	.	(4bb/	4dd\	.	.
.	.	.	16qqccc/LL	.	.	.
.	.	.	16qqbb/JJ	.	.	.
.	.	.	8aa/L	4b\	.	.
.	.	.	8gg/J)	.	.	.
=340	=340	=340	=340	=340	=340	=340
.	.	.	.	8qd/	.	.
4D 4DD/	4r	.	(8ff#/L	2a\	.	.
.	.	.	16gg/L	.	.	.
.	.	.	16ff#/JJ	.	.	.
4F# 4D\	4a 4d 4c 4A/	.	4ee/)	.	.	.
4F# 4D\	4a 4d 4c 4A/	.	4ddu/	4a\	.	.
!!LO:LB:g=original
=341	=341	=341	=341	=341	=341	=341
4GG 4GGG/	4g 4d 4B 4G/	.	4ggv/	4b 4d 4G\	.	.
4BB 4BBB/	4g 4d 4B 4G/	.	4ggu/	4b 4d 4G\	.	.
4GG 4GGG/	4g 4d 4B 4G/	.	4ggu/	4b 4d 4G\	.	.
=342	=342	=342	=342	=342	=342	=342
.	.	.	.	8qd/	.	.
4D 4DD/	4f# 4d 4A/	.	8.aa/L	8.dd\L	.	.
.	.	.	16bb/Jk	16dd\Jk	.	.
2DD 2DDD^>/	2f# 2d 2A/	.	(4ccc/	2dd\	.	.
.	.	.	16qqddd/LL	.	.	.
.	.	.	16qqccc/JJ	.	.	.
.	.	.	8bb/L	.	.	.
.	.	.	8aa/J)	.	.	.
=343	=343	=343	=343	=343	=343	=343
4GG 4GGG/	4g 4d 4B/	.	8.bb/L	8.ddL 8.d 8.G\	.	.
.	.	.	16ddd/Jk	16dd\Jk	.	.
.	.	.	.	8qd/	.	.
4D 4DD/	2f# 2d 2A^/	.	(4ccc/	4dd\	.	.
.	.	.	16qqddd/LL	.	.	.
.	.	.	16qqccc/JJ)	.	.	.
4DD 4DDD/	.	.	8eev/L	4a\	.	.
.	.	.	8ff#u/J	.	.	.
=344	=344	=344	=344	=344	=344	=344
4GG 4GGG/	4g 4d 4B/	.	(8.aaL 8.b 8.d 8.Gv/	2.r	.	.
.	.	.	16gg/Jk)	.	.	.
8DL 8DD/	8dddL 8dd\	f	4gg^</	.	.	.
8C 8CC/	8ccc 8cc\	.	.	.	.	.
8BB 8BBB/	8bb 8b\	.	4r	.	.	.
8AAJ 8AAA/	8aaJ 8a\	.	.	.	.	.
=345	=345	=345	=345	=345	=345	=345
!	!	!	!	!	!	!LO:DY:rj
4GG 4GGG/	4gg 4dd 4b 4g\	ff	4gg/	4b 4d 4G\	.	ff
4BB 4BBB/	4g 4d 4B 4G/	.	4gg/	4b 4d 4G\	.	.
4GG 4GGG/	4g 4d 4B 4G/	.	4gg/	4b 4d 4G\	.	.
=346	=346	=346	=346	=346	=346	=346
.	.	.	.	8qd/	.	.
4D 4DD/	4f# 4d 4A/	.	8.aa/L	8.dd\L	.	.
.	.	.	16bb/Jk	16dd\Jk	.	.
2DD 2DDD^>/	2f# 2d 2A/	.	(4ccc/	2dd\	.	.
.	.	.	16qqddd/LL	.	.	.
.	.	.	16qqccc/JJ	.	.	.
.	.	.	8bb/L	.	.	.
.	.	.	8aa/J)	.	.	.
=347	=347	=347	=347	=347	=347	=347
4GG 4GGG/	4r	.	8.bb/L	8.ddL 8.d 8.G\	.	.
.	.	.	16ddd/Jk	16dd\Jk	.	.
2G 2D^\	2g 2d 2B/	.	(4bb/	4dd\	.	.
.	.	.	16qqccc/LL	.	.	.
.	.	.	16qqbb/JJ	.	.	.
.	.	.	8aa/L	4b\	.	.
.	.	.	8gg/J)	.	.	.
!!LO:LB:g=original
=348	=348	=348	=348	=348	=348	=348
.	.	.	.	8qd/	.	.
4D 4DD/	4r	.	(8ff#/L	2a\	.	.
.	.	.	16gg/L	.	.	.
.	.	.	16ff#/JJ	.	.	.
4F# 4D\	4a 4d 4c 4A/	.	4ee/)	.	.	.
4F# 4D\	4a 4d 4c 4A^/	.	4ddu/	4a\	.	.
=349	=349	=349	=349	=349	=349	=349
4GG 4GGG/	4g 4d 4B 4G/	.	4ggv/	4b 4d 4G\	.	.
4BB 4BBB/	4g 4d 4B 4G/	.	4ggu/	4b 4d 4G\	.	.
4GG 4GGG/	4g 4d 4B 4G/	.	4ggu/	4b 4d 4G\	.	.
=350	=350	=350	=350	=350	=350	=350
.	.	.	.	8qqd/	.	.
4D 4DD/	4f# 4d 4A/	.	8.aa/L	8.dd\L	.	.
.	.	.	16bb/Jk	16dd\Jk	.	.
2DD 2DDD^>/	2f# 2d 2A/	.	(4ccc/	2dd\	.	.
.	.	.	16qqddd/LL	.	.	.
.	.	.	16qqccc/JJ	.	.	.
.	.	.	8bb/L	.	.	.
.	.	.	8aa/J)	.	.	.
=351	=351	=351	=351	=351	=351	=351
4GG 4GGG/	4g 4d 4B/	.	8.bb/L	8.ddL 8.d 8.G\	.	.
.	.	.	16ddd/Jk	16dd\Jk	.	.
.	.	.	.	8qd/	.	.
4D 4DD/	2f# 2d 2A^/	.	(4ccc/	4dd\	.	.
.	.	.	16qqddd/LL	.	.	.
.	.	.	16qqccc/JJ)	.	.	.
4DD 4DDD/	.	.	8ee/L	4a\	.	.
.	.	.	8ff#/J	.	.	.
=352	=352	=352	=352	=352	=352	=352
4G 4GG\	4g 4d 4B/	.	8.aa/L	2.r;	.	.
.	.	.	16gg/Jk	.	.	.
4GG 4GGG/	4gg 4dd 4b 4g\	sf	4gg^</	.	.	.
4r;	4r;	.	4r;	.	.	.
*	*	*	*v	*v	*	*
=353||	=353||	=353||	=353||	=353||	=353||
!!!key: C
*k[]	*k[]	*	*k[]	*	*
*	*^	*	*	*	*
!	!	!LO:TX:a:B:t=Meno.	!LO:DY:rj	!	!	!
2.C 2.CC/	8.g/L	2.e 2.c 2.G\	p	8ggL 8eev\	.	.
.	.	.	.	16r	.	.
.	16gJk 16G/	.	.	(16ggJk 16eev\	.	.
.	.	.	.	16qqaaLL 16qqff/	.	.
.	.	.	.	16qqggJJ 16qqee/	.	.
.	2g 2G^/	.	.	4ff 4dd\)	.	.
.	.	.	.	4ee 4ccu^<\	.	.
=354	=354	=354	=354	=354	=354	=354
2.GG 2.GGG/	8.g/L	2.f 2.B 2.G\	.	8ddL 8f 8Gv\	.	.
.	.	.	.	16r	.	.
.	16gJk 16G/	.	.	(>16ddJk 16fv\	.	.
.	.	.	.	16qqeeLL 16qqf/	.	.
.	.	.	.	16qqddJJ 16qqf/	.	.
.	2g 2G^/	.	.	4b 4f/)	.	.
.	.	.	.	4g^/	.	.
!!LO:LB:g=original
=355	=355	=355	=355	=355	=355	=355
4CC'/	8.g/L	2.e 2.c 2.G\	.	8gL 8ev\	.	.
.	.	.	.	16r	.	.
.	16gJk 16G/	.	.	16bu\Jk	.	.
4EE'/	2g 2G^/	.	.	8cc\L	.	.
.	.	.	.	16r	.	.
.	.	.	.	16ee\Jk	.	.
4CC'/	.	.	.	8aa\L	.	.
.	.	.	.	16r	.	.
.	.	.	.	16ccc\Jk	.	.
=356	=356	=356	=356	=356	=356	=356
4GG'/	8.g/L	2.f 2.B 2.G\	.	(8eeeL (8ff^<\	.	.
.	.	.	.	8ddd\J)	.	.
.	16gJk 16G/	.	.	.	.	.
2GGG^>/	2g 2G^/	.	.	(8cccL 8dd^<\	.	.
.	.	.	.	8bb\J)	.	.
.	.	.	.	(8aaL 8b^<\	.	.
.	.	.	.	8gg\J))	.	.
=357	=357	=357	=357	=357	=357	=357
2.C 2.CC/	8.g/L	2.e 2.c 2.G\	.	8.ggL 8.ee\	.	.
.	16gJk 16G/	.	.	(16ggJk 16ee\	.	.
.	.	.	.	16qqaaLL 16qqff/	.	.
.	.	.	.	16qqggJJ 16qqee/	.	.
.	2g 2G^/	.	.	4ff 4dd\)	.	.
.	.	.	.	4ee 4cc^<\	.	.
=358	=358	=358	=358	=358	=358	=358
2.GG 2.GGG/	8.g/L	2.f 2.B 2.G\	.	8ddL 8f\	.	.
.	.	.	.	16r	.	.
.	16gJk 16G/	.	.	(16ddJk 16f\	.	.
.	.	.	.	16qqeeLL 16qqf/	.	.
.	.	.	.	16qqddJJ 16qqf/	.	.
.	2g 2G^/	.	.	4b 4f/)	.	.
.	.	.	.	4g^/	.	.
*	*v	*v	*	*	*	*
=359	=359	=359	=359	=359	=359
!	!	!LO:DY:rj	!	!	!
4GG 4GGG^>/	4g 4f 4B 4G/	f	4aa 4b 4d 4G\	.	.
8GG#XL 8GGG#X/	8g#XL 8G#X/	<	2gg 2b 2d 2G^\	.	.
8AA 8AAA/	8a 8A/	.	.	.	.
8AA#X 8AAA#X/	8a#X 8A#X/	.	.	.	.
8BBJ 8BBB/	8bJ 8B/	.	.	.	.
=360	=360	=360	=360	=360	=360
4C 4CC/	4cc 4c/	[	4cc 4c/	.	.
4C 4CC/	4ccc 4gg 4ee 4cc\	sff	4ccc 4ee 4g 4c\	.	sff
4r	4r	.	4r	.	.
=361	=361	=361	=361	=361	=361
*	*^	*	*	*	*
2.C 2.CC/	8.g/L	2.e 2.c 2.G\	p	8ggL 8eev\	.	p
.	.	.	.	16r	.	.
.	16gJk 16G/	.	.	(16ggJk 16eev\	.	.
.	.	.	.	16qqaaLL 16qqff/	.	.
.	.	.	.	16qqggJJ 16qqee/	.	.
.	2g 2G^/	.	.	4ff 4dd\)	.	.
.	.	.	.	4ee 4ccu^<\	.	.
!!LO:LB:g=original
=362	=362	=362	=362	=362	=362	=362
2.GG 2.GGG/	8.g/L	2.f 2.B 2.G\	.	8ddL 8f 8Gv\	.	.
.	.	.	.	16r	.	.
.	16gJk 16G/	.	.	(16ddJk 16fv\	.	.
.	.	.	.	16qqeeLL 16qqf/	.	.
.	.	.	.	16qqddJJ 16qqf/	.	.
.	2g 2G^/	.	.	4b 4f/)	.	.
.	.	.	.	4g^/	.	.
=363	=363	=363	=363	=363	=363	=363
4CC'/	8.g/L	2.e 2.c 2.G\	.	8.gL 8.e/	.	.
.	16gJk 16G/	.	.	16b/Jk	.	.
4EE'/	2g 2G^/	.	.	8.cc\L	.	.
.	.	.	.	16ee\Jk	.	.
4CC'/	.	.	.	8.gg\L	.	.
.	.	.	.	16ccc\Jk	.	.
=364	=364	=364	=364	=364	=364	=364
4GG'/	8.g/L	2.f 2.B 2.G\	.	(8eeeL (8ffv^<\	.	.
.	.	.	.	16ddd\Jk)	.	.
.	16gJk 16G/	.	.	16r	.	.
2GGG^/	2g 2G^/	.	.	(8cccL 8dd^<\	.	.
.	.	.	.	16bb\Jk)	.	.
.	.	.	.	16r	.	.
.	.	.	.	(8aaL 8dd^<\	.	.
.	.	.	.	16gg\Jk))	.	.
.	.	.	.	16r	.	.
=365	=365	=365	=365	=365	=365	=365
2.C 2.CC/	8.g/L	2.e 2.c 2.G\	.	8ggL 8eev\	.	.
.	.	.	.	16r	.	.
.	16gJk 16G/	.	.	(16ggJk 16eev\	.	.
.	.	.	.	16qqaaLL 16qqff/	.	.
.	.	.	.	16qqggJJ 16qqee/	.	.
.	2g 2G^/	.	.	4ff 4dd\)	.	.
.	.	.	.	4ee 4cc^<\	.	.
=366	=366	=366	=366	=366	=366	=366
2.GG 2.GGG/	8.g/L	2.f 2.B 2.G\	.	8ddL 8fv\	.	.
.	.	.	.	16r	.	.
.	16gJk 16G/	.	.	(16ddJk 16f\	.	.
.	.	.	.	16qqeeLL 16qqf/	.	.
.	.	.	.	16qqddJJ 16qqf/	.	.
.	2g 2G^/	.	.	4b 4f/)	.	.
.	.	.	.	4g^/	.	.
*	*v	*v	*	*	*	*
=367	=367	=367	=367	=367	=367
!	!	!LO:DY:rj	!	!	!
4GG 4GGG^>/	4g 4f 4d 4B/	f	4aa 4b 4d 4G\	.	.
8GG#XL 8GGG#X/	8g#XL 8G#X/	.	2gg 2b 2d 2G^\	.	.
8AA 8AAA/	8a 8A/	.	.	.	.
8AA#X 8AAA#X/	8a#X 8A#X/	.	.	.	.
8BBJ 8BBB/	8bJ 8B/	.	.	.	.
=368	=368	=368	=368	=368	=368
4C 4CC/	4cc 4c/	.	4cc 4c/	.	.
4C 4CC/	4ccc 4gg 4ee 4cc\	sff	4ccc 4ee 4g 4c\	.	f
4r	4r	.	4r	.	.
!!LO:PB:g=original
=369||	=369||	=369||	=369||	=369||	=369||
!!!key: G
*k[f#]	*k[f#]	*	*k[f#]	*	*
*	*	*	*^	*	*
!	!	!	!LO:TX:b:i:t=Con fuoco.	!	!	!LO:DY:rj
4GG 4GGG/	4gg 4dd 4b 4g\	ff	4ggv/	4b 4d 4G\	.	ff
4BB 4BBB/	4g 4d 4B 4G/	.	4ggu/	4b 4d 4G\	.	.
4GG 4GGG/	4g 4d 4B 4G/	.	4ggu/	4b 4d 4G\	.	.
=370	=370	=370	=370	=370	=370	=370
.	.	.	.	8qd/	.	.
4D 4DD/	4f# 4d 4A/	.	8.aa/L	8.dd\L	.	.
.	.	.	16bb/Jk	16dd\Jk	.	.
2DD 2DDD^>/	2f# 2d 2A/	.	(4ccc/	2dd\	.	.
.	.	.	16qqddd/LL	.	.	.
.	.	.	16qqccc/JJ	.	.	.
.	.	.	8bb/L	.	.	.
.	.	.	8aa/J)	.	.	.
=371	=371	=371	=371	=371	=371	=371
4GG 4GGG/	4r	.	8.bb/L	8.ddL 8.d 8.G\	.	.
.	.	.	16ddd/Jk	16dd\Jk	.	.
2G 2D^\	2g 2d 2B/	.	(4bb/	4dd\	.	.
.	.	.	16qqccc/LL	.	.	.
.	.	.	16qqbb/JJ	.	.	.
.	.	.	8aa/L	4b\	.	.
.	.	.	8gg/J)	.	.	.
=372	=372	=372	=372	=372	=372	=372
.	.	.	.	8qd/	.	.
4D 4DD/	4r	.	(8ff#/L	2a\	.	.
.	.	.	16gg/L	.	.	.
.	.	.	16ff#/JJ	.	.	.
4F# 4D\	4a 4d 4c 4A/	.	4ee/)	.	.	.
4F# 4D\	4a 4d 4c 4A^/	.	4ddu/	4a\	.	.
=373	=373	=373	=373	=373	=373	=373
4GG 4GGG/	4g 4d 4B 4G/	.	4ggv/	4b 4d 4G\	.	.
4BB 4BBB/	4g 4d 4B 4G/	.	4ggu/	4b 4d 4G\	.	.
4GG 4GGG/	4g 4d 4B 4G/	.	4ggu/	4b 4d 4G\	.	.
=374	=374	=374	=374	=374	=374	=374
.	.	.	.	8qd/	.	.
4D 4DD/	4f# 4d 4A/	.	8.aa/L	8.dd\L	.	.
.	.	.	16bb/Jk	16dd\Jk	.	.
2DD 2DDD^>/	2f# 2d 2A/	.	(4ccc/	2dd\	.	.
.	.	.	16qqddd/LL	.	.	.
.	.	.	16qqccc/JJ	.	.	.
.	.	.	8bb/L	.	.	.
.	.	.	8aa/J)	.	.	.
=375	=375	=375	=375	=375	=375	=375
4GG 4GGG/	4g 4d 4B/	.	8.bb/L	8.ddL 8.d 8.G\	.	.
.	.	.	16ddd/Jk	16dd\Jk	.	.
.	.	.	.	8qd/	.	.
4D 4DD/	2f# 2d 2A^/	.	(4ccc/	4dd\	.	.
.	.	.	16qqddd/LL	.	.	.
.	.	.	16qqccc/JJ)	.	.	.
4DD 4DDD/	.	.	8eev/L	4a\	.	.
.	.	.	8ff#u/J	.	.	.
!!LO:LB:g=original
=376	=376	=376	=376	=376	=376	=376
4GG 4GGG/	4g 4d 4B/	.	(8.aav/L	8.bL 8.d 8.G\	.	.
.	.	.	16gg/Jk)	16b\Jk	.	.
8DL 8DD/	8dddL 8dd\	ff	4ggu/	4b\	.	.
8C 8CC/	8ccc 8cc\	.	.	.	.	.
8BB 8BBB/	8bb 8b\	.	4r	4ryy	.	.
8AAJ 8AAA/	8aaJ 8a\	.	.	.	.	.
=377	=377	=377	=377	=377	=377	=377
4GG 4GGG/	4gg 4dd 4b 4g\	.	4ggv/	4b 4d 4G\	.	.
4BB 4BBB/	4g 4d 4B 4G/	.	4ggu/	4b 4d 4G\	.	.
4GG 4GGG/	4g 4d 4B 4G/	.	4ggu/	4b 4d 4G\	.	.
=378	=378	=378	=378	=378	=378	=378
.	.	.	.	8qd/	.	.
4D 4DD/	4f# 4d 4A/	.	8.aa/L	8.dd\L	.	.
.	.	.	16bb/Jk	16dd\Jk	.	.
2DD 2DDD/	2f# 2d 2A/	.	(4ccc/	2dd\	.	.
.	.	.	16qqddd/LL	.	.	.
.	.	.	16qqccc/JJ	.	.	.
.	.	.	8bb/L	.	.	.
.	.	.	8aa/J)	.	.	.
=379	=379	=379	=379	=379	=379	=379
4GG 4GGG/	4r	.	8.bb/L	8.ddL 8.d 8.G\	.	.
.	.	.	16ddd/Jk	16dd\Jk	.	.
2G 2D\	2g 2d 2B/	.	(4bb/	4dd\	.	.
.	.	.	16qqccc/LL	.	.	.
.	.	.	16qqbb/JJ	.	.	.
.	.	.	8aa/L	4b\	.	.
.	.	.	8gg/J)	.	.	.
=380	=380	=380	=380	=380	=380	=380
.	.	.	.	8qd/	.	.
4D 4DD/	4r	.	(8ff#/L	2a\	.	.
.	.	.	16gg/L	.	.	.
.	.	.	16ff#/JJ	.	.	.
4F# 4D\	4a 4d 4c 4A/	.	4ee/)	.	.	.
4F# 4D\	4a 4d 4c 4A/	.	4ddu/	4a\	.	.
=381	=381	=381	=381	=381	=381	=381
4GG 4GGG/	4g 4d 4B 4G/	.	4ggv/	4b 4d 4G\	.	.
4BB 4BBB/	4g 4d 4B 4G/	.	4ggu/	4b 4d 4G\	.	.
4GG 4GGG/	4g 4d 4B 4G/	.	4ggu/	4b 4d 4G\	.	.
=382	=382	=382	=382	=382	=382	=382
.	.	.	.	8qd/	.	.
4D 4DD/	4f# 4d 4A/	.	8.aa/L	8.dd\L	.	.
.	.	.	16bb/Jk	16dd\Jk	.	.
2DD 2DDD/	2f# 2d 2A/	.	(4ccc/	2dd\	.	.
.	.	.	16qqddd/LL	.	.	.
.	.	.	16qqccc/JJ	.	.	.
.	.	.	8bb/L	.	.	.
.	.	.	8aa/J)	.	.	.
!!LO:LB:g=original
=383	=383	=383	=383	=383	=383	=383
4GG 4GGG/	4g 4d 4B/	.	8.bb/L	4dd 4d 4G\	.	.
.	.	.	16ddd/Jk	.	.	.
4A 4AA\	2g 2c#X/	.	(4ccc#X/	4ee 4a\	.	.
.	.	.	16qqddd/LL	.	.	.
.	.	.	16qqccc#/JJ)	.	.	.
4AA 4AAA/	.	.	8bb/L	4r	.	.
.	.	.	8aa/J	.	.	.
=384	=384	=384	=384	=384	=384	=384
4D 4DD/	8.f#L 8.d 8.A/	sf	4ddd/	4ff# 4a 4d\	.	.
.	16d/Jk	p	.	.	.	.
4r	4d/	.	4r	4ryy	.	.
4r	4d^/	.	4r	4ryy	.	.
*	*	*	*v	*v	*	*
=385	=385	=385	=385	=385	=385
2.r	8.d/L	.	2.r	.	.
.	16d/Jk	.	.	.	.
.	4d/	.	.	.	.
.	4d^/	.	.	.	.
=386	=386	=386	=386	=386	=386
!	!	!LO:HP:b=2	!	!	!
!	!LO:TX:a:i:t=un poco rall.	!LO:DY:b=2	!	!	!
(2.c#X\	8.d/L	sf >	2.r	.	.
.	16d/Jk	.	.	.	.
.	4d/	.	.	.	.
.	4d^/	.	.	.	.
=387	=387	=387	=387	=387	=387
2.cn\)	8.d/L	]	2.r;	.	.
.	16d/Jk	.	.	.	.
.	4d/	.	.	.	.
.	4d^;/	.	.	.	.
=388	=388	=388	=388	=388	=388
*^	*	*	*	*	*
!	!	!LO:TX:a:B:t=a Tempo.	!	!	!	!
4B 4D'/	2.GG\	8.d/L	p	2.r	.	.
.	.	16d/Jk	.	.	.	.
4B 4D'/	.	4d/	.	.	.	.
4r	.	4d^/	.	.	.	.
=389	=389	=389	=389	=389	=389	=389
4B 4D'/	2.GG\	8.d/L	.	2.r	.	.
.	.	16d/Jk	.	.	.	.
4B 4D'/	.	4d/	.	.	.	.
4r	.	4d^/	.	.	.	.
!!LO:LB:g=original
=390	=390	=390	=390	=390	=390	=390
!	!	!	!	!LO:TX:b:i:t=con molto espress.	!	!LO:DY:rj
4B 4D/	2.GG\	8.d/L	.	8dd\L	.	p
.	.	.	.	16r	.	.
.	.	16d/Jk	.	(16dd\Jk	.	.
4B 4D/	.	4d/	.	4.bb\	.	.
4r	.	4d^/	.	.	.	.
.	.	.	.	8aa\)	.	.
=391	=391	=391	=391	=391	=391	=391
4B 4D/	2.GG\	8.d/L	.	8gg\L	.	.
.	.	.	.	16r	.	.
.	.	16d/Jk	.	16b\Jk	.	.
4B 4D/	.	4d/	.	(4.ee\	.	.
4r	.	4d^/	.	.	.	.
.	.	.	.	8dd\)	.	.
=392	=392	=392	=392	=392	=392	=392
*	*	*^	*	*	*	*
4B 4D/	2.GG\	8.d/L	4c\	.	8cc\L	.	.
.	.	.	.	.	16r	.	.
.	.	16d/Jk	.	.	16f#\Jk	.	.
4B 4D/	.	4d/	4c\	.	(4.b\	.	.
4r	.	4d^/	4r	.	.	.	.
.	.	.	.	.	8a\)	.	.
=393	=393	=393	=393	=393	=393	=393	=393
.	.	.	.	.	16qqg/LL	.	.
.	.	.	.	.	16qqa/JJ	.	.
4G 4D/	2.GG\	8.d/L	4B\	.	8g/L	.	.
.	.	.	.	.	8f#/J	.	.
.	.	16d/Jk	.	.	.	.	.
4G 4D/	.	4d/	4B\	.	(8g`/L	.	.
.	.	.	.	.	8a`/	.	.
4r	.	4d^/	4r	.	8b`/	.	.
.	.	.	.	.	8cc`/J)	.	.
*	*	*v	*v	*	*	*	*
=394	=394	=394	=394	=394	=394	=394
4B 4D/	2.GG\	8.d/L	.	8dd\L	.	.
.	.	.	.	16r	.	.
.	.	16d/Jk	.	(16dd\Jk	.	.
4B 4D/	.	4d/	.	4.bb\	.	.
4r	.	4d^>/	.	.	.	.
.	.	.	.	8aa\)	.	.
=395	=395	=395	=395	=395	=395	=395
4B 4D/	2.GG\	8.d/L	.	8gg\L	.	.
.	.	.	.	16r	.	.
.	.	16d/Jk	.	16b\Jk	.	.
4B 4D/	.	4d/	.	(4.ee\	.	.
4r	.	4d^>/	.	.	.	.
.	.	.	.	8dd\)	.	.
*v	*v	*	*	*	*	*
=396	=396	=396	=396	=396	=396
8.EL 8.AA\	8.gL 8.c#X 8.A/	ff	8.cc#X\L	.	ff
16EJk 16AA\	16gJk 16c# 16A/	.	16ee\Jk	.	.
4E 4AA\	4g 4c# 4A/	.	4bb\	.	.
4E 4AA\	4g 4c# 4A^/	.	4aa^<\	.	.
!!LO:LB:g=original
=397	=397	=397	=397	=397	=397
8.AAL 8.DD/	8.f#L 8.d 8.A/	.	8.ff#\L	.	.
16AAJk 16DD/	16f#Jk 16d 16A/	.	16aa\Jk	.	.
4AA 4DD/	4f# 4d 4A/	.	4eee\	.	.
4AA 4DD/	4f# 4d 4A^/	.	4ddd^<\	.	.
=398	=398	=398	=398	=398	=398
2.r	8.d/L	p >	2.r	.	.
.	16d/Jk	.	.	.	.
.	4d/	.	.	.	.
.	4d^/	.	.	.	.
=399	=399	=399	=399	=399	=399
2.r	8.d/L	.	2.r	.	.
.	16d/Jk	.	.	.	.
.	4d/	.	.	.	.
.	4d^/	]	.	.	.
=400||	=400||	=400||	=400||	=400||	=400||
!!!key: B-
*k[b-e-]	*k[b-e-]	*	*k[b-e-]	*	*
*^	*	*	*	*	*
4B- 4F'/	2.BB-\	8.d/L	.	8ffv\L	.	.
.	.	.	.	16r	.	.
.	.	16d/Jk	.	(16ff\Jk	.	.
4B- 4F'/	.	4d/	.	4.ddd\	.	.
4r	.	4d^>/	.	.	.	.
.	.	.	.	8ccc\)	.	.
=401	=401	=401	=401	=401	=401	=401
4B- 4F'/	2.BB-\	8.d/L	.	8bb-\L	.	.
.	.	.	.	16r	.	.
.	.	16d/Jk	.	16dd\Jk	.	.
4B- 4F'/	.	4d/	.	(4.gg\	.	.
4r	.	4d^>/	.	.	.	.
.	.	.	.	8ff\)	.	.
=402	=402	=402	=402	=402	=402	=402
*	*	*^	*	*	*	*
4c 4F/	2.BB-\	8.f/L	4e-\	.	8ee-\L	.	.
.	.	.	.	.	16r	.	.
.	.	16f/Jk	.	.	16a\Jk	.	.
4c 4F/	.	4f/	4e-\	.	(4.dd\	.	.
4r	.	4f^/	4r	.	.	.	.
.	.	.	.	.	8cc\)	.	.
=403	=403	=403	=403	=403	=403	=403	=403
.	.	.	.	.	16qqb-/LL	.	.
.	.	.	.	.	16qqcc/JJ	.	.
4B- 4F/	2.BB-\	8.f/L	4d\	.	8b-\L	.	.
.	.	.	.	.	8a\J	.	.
.	.	16f/Jk	.	.	.	.	.
4B- 4F/	.	4f/	4d\	.	(8b-'v\L	.	.
.	.	.	.	.	8cc'\	.	.
4r	.	4f^/	4r	.	8dd'\	.	.
.	.	.	.	.	8ee-'\J	.	.
*	*	*v	*v	*	*	*	*
!!LO:PB:g=original
=404	=404	=404	=404	=404	=404	=404
4d 4F/	2.BB-\	8.f/L	.	8ff\L)	.	.
.	.	.	.	16r	.	.
.	.	16f/Jk	.	(16ff\Jk	.	.
4d 4F/	.	4f/	.	4.ddd^<\	.	.
4r	.	4f^>/	.	.	.	.
.	.	.	.	8ff\)	.	.
*v	*v	*	*	*	*	*
=405	=405	=405	=405	=405	=405
4B- 4BB-\	8.ddL 8.f#X 8.d/	.	8.ff#X\L	.	.
!	!	!LO:HP:t=cres.	!	!	!LO:HP:t=cres.
.	16ddJk 16f# 16d/	<	(16ff#\Jk	.	<
*tremolo	*	*	*	*	*
16BBB-/LL	4dd 4f# 4d/	.	4.ddd^<\	.	.
16BB-/	.	.	.	.	.
16BBB-/	.	.	.	.	.
16BB-/	.	.	.	.	.
16BBB-/	4dd 4f# 4d^/	.	.	.	.
16BB-/	.	.	.	.	.
16BBB-/	.	.	8ff#\)	.	.
16BB-/JJ	.	.	.	.	.
*Xtremolo	*	*	*	*	*
=406	=406	=406	=406	=406	=406
4B- 4BB-\	8.ddL 8.g 8.d/	.	8.gg\L	.	.
.	16ddJk 16g 16d/	.	(16gg\Jk	.	.
*tremolo	*	*	*	*	*
16BBB-/LL	4dd 4g 4d/	.	4.ddd^<\	.	.
16BB-/	.	.	.	.	.
16BBB-/	.	.	.	.	.
16BB-/	.	.	.	.	.
16BBB-/	4dd 4g 4d^/	.	.	.	.
16BB-/	.	.	.	.	.
16BBB-/	.	.	8gg\)	.	.
16BB-/JJ	.	.	.	.	.
*Xtremolo	*	*	*	*	*
=407	=407	=407	=407	=407	=407
4B- 4BB-\	8.ddL 8.g#X 8.d/	.	8.gg#X\L	.	.
.	16ddJk 16g# 16d/	.	(16gg#\Jk	.	.
*tremolo	*	*	*	*	*
16BBB-/LL	4dd 4g# 4d/	.	4.ddd^<\	.	.
16BB-/	.	.	.	.	.
16BBB-/	.	.	.	.	.
16BB-/	.	.	.	.	.
16BBB-/	4dd 4g# 4d^/	.	.	.	.
16BB-/	.	.	.	.	.
16BBB-/	.	.	8gg#\)	.	.
16BB-/JJ	.	.	.	.	.
*Xtremolo	*	*	*	*	*
=408||	=408||	=408||	=408||	=408||	=408||
!!!OMD: Animato.
!!!key: D
*k[f#c#]	*k[f#c#]	*	*k[f#c#]	*	*
!	!	!LO:DY:rj	!	!	!
4AA 4AAA/	8.aaL 8.a\	ff	4aa\	.	f
.	16aaJk 16a\	.	.	.	.
2d 2A 2F#\	4.fff# 4.ff#^<\	.	4r	.	.
.	.	.	4r	.	.
.	8eee 8ee\	.	.	.	.
=409	=409	=409	=409	=409	=409
4AA 4AAA/	8.dddL 8.dd\	.	2.r	.	.
.	16ff#Jk 16f#\	.	.	.	.
2d 2A 2F#\	4.bb 4.b^<\	.	.	.	.
.	8aa 8a\	.	.	.	.
!!LO:LB:g=original
=410	=410	=410	=410	=410	=410
4AA 4AAA/	8.ggL 8.g\	.	2.r	.	.
.	(16cc#\Jk	.	.	.	.
4c# 4A 4G\	4.ff#^<\	.	.	.	.
4c# 4A 4G\	.	.	.	.	.
.	8ee\)	.	.	.	.
=411	=411	=411	=411	=411	=411
.	16qqdd/LL	.	.	.	.
.	16qqee/JJ	.	.	.	.
4AA 4AAA/	8dd\L	.	2.r	.	.
.	8cc#`\	.	.	.	.
4d 4A 4F#\	8dd`\	.	.	.	.
.	8ee`\	.	.	.	.
4d 4A 4F#\	8ff#`\	.	.	.	.
.	8gg`\J	.	.	.	.
=412	=412	=412	=412	=412	=412
4AA 4AAA/	8.aa`\L	.	2.r	.	.
.	16aaJk 16a\	.	.	.	.
2d 2A 2F#\	4.fff# 4.ff#^<\	.	.	.	.
.	8eee 8ee\	.	.	.	.
=413	=413	=413	=413	=413	=413
4AA 4AAA/	8.dddL 8.dd\	.	2.r	.	.
.	16ff#Jk 16f#\	.	.	.	.
2d 2A 2F#\	4.bb 4.b^<\	.	.	.	.
.	8aa 8a\	.	.	.	.
=414	=414	=414	=414	=414	=414
4AA 4AAA/	8.gg#XL 8.g#X\	.	2.r	.	.
.	16bbJk 16b\	.	.	.	.
4d 4G#X 4E\	4fff# 4ff#\	.	.	.	.
4d 4G# 4E\	4eee 4ee\	.	.	.	.
=415	=415	=415	=415	=415	=415
4AA 4AAA/	8.ccc#L 8.cc#\	.	2.r	.	.
.	16eeeJk 16ee\	.	.	.	.
8c#L 8Gn 8E^\	4bbb 4bb\	.	.	.	.
8BB 8BBB\	.	.	.	.	.
8Cn 8CCn\	4aaa 4aa\	.	.	.	.
8C#XJ 8CC#X\	.	.	.	.	.
=416	=416	=416	=416	=416	=416
!	!LO:TX:a:B:t=Piu presto.	!	!	!	!
4D 4DD/	4a 4f#/	ff	2.r	.	.
2d 2A 2F#\	2dd 2f#^/	.	.	.	.
!!LO:LB:g=original
=417	=417	=417	=417	=417	=417
4D 4DD/	4a 4f#/	.	2.r	.	.
2d 2A 2F#\	2ff# 2f#^/	.	.	.	.
=418	=418	=418	=418	=418	=418
!	!LO:TUP:a	!	!	!	!
4D 4DD/	(12a\L	.	2.r	.	.
.	12dd\	.	.	.	.
.	12ff#\J	.	.	.	.
4d 4A 4F#\	4aa\)	.	.	.	.
4d 4A 4F#\	4bb 4b^<\	.	.	.	.
=419	=419	=419	=419	=419	=419
4D 4DD/	8aaL 8a\	.	2.r	.	.
.	16r	.	.	.	.
.	(16ff#\Jk	.	.	.	.
2d 2A 2F#\	2dd^<\)	.	.	.	.
=420	=420	=420	=420	=420	=420
4D 4DD/	4a 4f#/	.	2.r	.	.
2d 2A 2F#\	2dd 2f#^/	.	.	.	.
=421	=421	=421	=421	=421	=421
4D 4DD/	4a 4f#/	.	2.r	.	.
2d 2A 2F#\	2ff# 2f#^/	.	.	.	.
=422	=422	=422	=422	=422	=422
!	!LO:TUP:a	!	!	!	!
4D 4DD/	(12a\L	.	2.r	.	.
.	12dd\	.	.	.	.
.	12ff#\J	.	.	.	.
4d 4A 4F#\	4aa\)	.	.	.	.
4d 4A 4F#\	4bb 4b^<\	.	.	.	.
=423	=423	=423	=423	=423	=423
4D 4DD/	8aaL 8a\	.	4r	.	.
.	16r	.	.	.	.
.	(16ff#\Jk	.	.	.	.
2d 2A 2F#\	2ddd 2dd^<\)	.	4r	.	.
.	.	.	(4ddd^<\	.	.
!!LO:LB:g=original
=424	=424	=424	=424	=424	=424
.	.	.	16qqccc#/LL	.	p
.	.	.	16qqddd/JJ	.	.
!	!	!	!LO:TX:b:i:t=con eleganza.	!	!
4AA 4AAA/	4r	p	8ccc#v\L)	.	.
.	.	.	16r	.	.
.	.	.	16ee\Jk	.	.
4r	2a 2g 2c# 2A/	.	((2bb\	.	.
4r	.	.	.	.	.
=425	=425	=425	=425	=425	=425
4D 4DD/	4r	.	8aao\L)	.	.
.	.	.	16r	.	.
.	.	.	16ff#\Jk)	.	.
4r	2a 2f# 2d 2A/	.	2dd^<\	.	.
4r	.	.	.	.	.
=426	=426	=426	=426	=426	=426
4AA 4AAA/	4r	.	8ee\L	.	.
.	.	.	16r	.	.
.	.	.	16b\Jk	.	.
4r	4a 4g 4c# 4A/	.	((2cc#^<\	.	.
4r	4a 4g 4c# 4A/	.	.	.	.
=427	=427	=427	=427	=427	=427
4D 4DD/	4r	.	8dd\L)	.	.
.	.	.	16r	.	.
.	.	.	16ff#`\Jk)	.	.
4r	4a 4f# 4d 4A/	.	2aa^<\	.	.
4r	4a 4f# 4d 4A/	.	.	.	.
=428	=428	=428	=428	=428	=428
.	.	.	16qqccc#/LL	.	.
.	.	.	16qqddd/JJ	.	.
4AA 4AAA/	4r	.	8ccc#\L	.	.
.	.	.	16r	.	.
.	.	.	16ee\Jk	.	.
4r	2a 2g 2c# 2A/	.	((2bb^<\	.	.
4r	.	.	.	.	.
=429	=429	=429	=429	=429	=429
4D 4DD/	4r	.	8aa\L)	.	.
.	.	.	16r	.	.
.	.	.	16ff#\Jk)	.	.
4r	2a 2f# 2d 2A/	.	2dd^<\	.	.
4r	.	.	.	.	.
=430	=430	=430	=430	=430	=430
4AA 4AAA/	4r	.	8ee\L	.	.
.	.	.	16r	.	.
.	.	.	16b\Jk	.	.
4r	4a 4g 4c# 4A/	.	(2cc#^<\	.	.
4r	4a 4g 4c# 4A/	.	.	.	.
!!LO:LB:g=original
=431	=431	=431	=431	=431	=431
4D 4DD/	4a 4f# 4d 4A/	.	4ddo\)	.	.
4D 4DD/	4ddd 4aa 4ff# 4dd\	sf	4r	.	.
4r	4r	.	4r	.	.
=432	=432	=432	=432	=432	=432
!	!	!	!LO:TX:a:i:t=con energia.	!	!
4E 4EE/	4r	.	4e^/	.	ff
4r	4g#X 4e 4d 4B/	.	4b 4e^/	.	.
4r	4g# 4e 4d 4B^/	.	4dd 4e^/	.	.
=433	=433	=433	=433	=433	=433
.	.	.	16qqcc#/LL	.	.
.	.	.	16qqdd/JJ	.	.
4AA 4AAA/	4r	.	8.cc#\L	.	.
.	.	.	16b\Jk	.	.
4r	4a 4e 4c# 4A/	.	(4a\	.	.
4r	4a 4e 4c# 4A^/	.	4ee\)	.	.
=434	=434	=434	=434	=434	=434
4E 4EE/	4g#X 4e 4d 4B/	.	(<4.e/	.	.
2E 2EE/	2g# 2e 2d 2B^/	.	.	.	.
.	.	.	8g#X\L)	.	.
.	.	.	8b\	.	.
.	.	.	8dd\J	.	.
=435	=435	=435	=435	=435	=435
.	.	.	16qqcc#/LL	.	.
.	.	.	16qqdd/JJ	.	.
4AA 4AAA/	4a 4e 4c# 4A/	.	8.cc#\L	.	.
.	.	.	16b\Jk	.	.
2AA 2AAA/	2a 2e 2c# 2A^/	.	(4a\	.	.
.	.	.	8aa 8a\)	.	sf
.	.	.	8r	.	.
=436	=436	=436	=436	=436	=436
4E 4EE/	4r	.	4e^/	.	.
4r	4g#X 4e 4d 4B/	.	4b 4e^/	.	.
4r	4g# 4e 4d 4B/	.	4dd 4e^/	.	.
=437	=437	=437	=437	=437	=437
.	.	.	16qqcc#/LL	.	.
.	.	.	16qqdd/JJ	.	.
4AA 4AAA/	4r	.	8cc#\L	.	.
.	.	.	16r	.	.
.	.	.	16b\Jk	.	.
4r	4a 4e 4c# 4A/	.	(4a\	.	.
4r	4a 4e 4c# 4A/	.	4ee\)	.	.
!!LO:PB:g=original
=438	=438	=438	=438	=438	=438
4E 4EE/	4g#X 4e 4d 4B/	.	(8e\L	.	.
.	.	.	8g#X\)	.	.
2E 2EE/	2g# 2e 2d 2B^/	.	8b\	.	.
.	.	.	8dd\	.	.
.	.	.	8ff#\	.	.
.	.	.	8ee\J	.	.
=439	=439	=439	=439	=439	=439
.	.	.	(<16qqdd/LL	.	.
.	.	.	16qqee/JJ	.	.
4AA 4AAA/	4a 4e 4c# 4A/	.	8dd\L)	.	.
.	.	.	8cc#\	.	.
2AA 2AAA/	2a 2e 2c# 2A^/	.	(8b'\	.	.
.	.	.	8a'\	.	.
.	.	.	8g#X'\	.	.
.	.	.	8f#'\J)	.	.
=440	=440	=440	=440	=440	=440
4E 4BB 4EE/	4e/	ff	4e/	.	.
4E 4BB 4EE/	4b 4e/	.	4r	.	.
4E 4BB 4EE/	4dd 4e^/	.	4r	.	.
=441	=441	=441	=441	=441	=441
.	16qqcc#/LL	.	.	.	.
.	16qqdd/JJ	.	.	.	.
4AA 4EE 4AAA/	8.cc#L 8.e/	.	2.r	.	.
.	16b/Jk	.	.	.	.
4AA 4EE 4AAA/	4a/	.	.	.	.
4AA 4EE 4AAA/	4ee 4e^<\	.	.	.	.
=442	=442	=442	=442	=442	=442
4E 4BB 4EE/	(4.e^/	.	2.r	.	.
2E 2BB 2EE^/	.	.	.	.	.
.	8g#X\L)	.	.	.	.
.	8b\	.	.	.	.
.	8dd\J	.	.	.	.
=443	=443	=443	=443	=443	=443
.	16qqcc#/LL	.	.	.	.
.	16qqdd/JJ	.	.	.	.
4AA 4EE 4AAA/	8.cc#\L	.	2.r	.	.
.	16b\Jk	.	.	.	.
2AA 2EE 2AAA^>/	(4a\	.	.	.	.
.	8aa 8a\)	sf	.	.	.
.	8r	.	.	.	.
=444	=444	=444	=444	=444	=444
4E 4EE/	4r	f	4e^/	.	ff
4E 4EE/	4g#X 4e 4d 4B/	.	4b 4e^/	.	.
4E 4EE/	4g# 4e 4d 4B^/	.	4dd 4e^/	.	.
!!LO:LB:g=original
=445	=445	=445	=445	=445	=445
.	.	.	16qqcc#/LL	.	.
.	.	.	16qqdd/JJ	.	.
4AA 4AAA/	4r	.	8.cc#\L	.	.
.	.	.	16b\Jk	.	.
4AA 4AAA/	4a 4e 4c# 4A/	.	(4a\	.	.
4AA 4AAA/	4a 4e 4c# 4A^/	.	4ee^<\)	.	.
=446	=446	=446	=446	=446	=446
4E 4EE/	4g#X 4e 4d 4B/	.	(8e\L	.	.
.	.	.	8g#X\)	.	.
2E 2EE/	2g# 2e 2d 2B^/	.	8b^\	.	.
.	.	.	8dd^\	.	.
.	.	.	8ff#^\	.	.
.	.	.	8ee^\J	.	.
=447	=447	=447	=447	=447	=447
4AA 4AAA/	4a 4e 4c# 4A/	.	4a/	.	.
!	!	!	!	!	!LO:DY:rj
8AA#XL 8AAA#X/	8a#XL 8A#X/	.	4aa 4cc# 4e 4A/	.	sf
8BB 8BBB/	8b 8B/	.	.	.	.
8Cn 8CCn/	8ccn 8cn/	.	4A/	.	.
8C#XJ 8CC#X/	8cc#XJ 8c#X/	.	.	.	.
=448	=448	=448	=448	=448	=448
*	*	*	*^	*	*
!	!	!	!	!	!	!LO:DY:rj
4D 4AA 4DD\	4A< 4F#</	ff	4a 4f#v/	4d\	.	ff
2D 2AA 2DD\	2d 2A< 2F#</	.	2dd 2f#u/	2d\	.	.
=449	=449	=449	=449	=449	=449	=449
4D 4AA 4DD\	4A< 4F#</	.	4a 4f#/	4d\	.	.
2D 2AA 2DD\	2f# 2A< 2F#</	.	2ff# 2a 2f#/	2d\	.	.
=450	=450	=450	=450	=450	=450	=450
*	*	*	*Xtuplet	*	*	*
4D 4AA 4DD/	4A/	.	(12av/L	2d\	.	.
.	.	.	12dd/	.	.	.
.	.	.	12ff#/J	.	.	.
4D 4AA 4DD/	4a 4f# 4d 4A/	.	4aa 4au/)	.	.	.
4D 4AA 4DD/	4b 4f# 4d 4B/	.	4bb 4a/	4d^\	.	.
=451	=451	=451	=451	=451	=451	=451
4D 4AA 4DD/	4a 4f# 4d 4A/	.	(8.aaL 8.av/	4d\	.	.
.	.	.	16ff#/Jk)	.	.	.
2D 2AA 2DD\	2d 2A<^>/	.	2ddu/	2d\	.	.
!!LO:LB:g=original
=452	=452	=452	=452	=452	=452	=452
4D 4AA 4DD\	4A< 4F#</	.	4a 4f#v/	4d\	.	.
2D 2AA 2DD\	2d 2A< 2F#<^>/	.	2dd 2f#u/	2d^\	.	.
=453	=453	=453	=453	=453	=453	=453
4D 4AA 4DD\	4A< 4F#</	.	4a 4f#v/	4d\	.	.
2D 2AA 2DD\	2f# 2A< 2F#<^>/	.	2ff# 2a 2f#u/	2d^\	.	.
=454	=454	=454	=454	=454	=454	=454
4D 4AA 4DD/	4A/	.	(12av/L	2d\	.	.
.	.	.	12dd/	.	.	.
.	.	.	12ff#J 12a/	.	.	.
4D 4AA 4DD/	4a 4f# 4d 4A/	.	4aa 4a/)	.	.	.
4D 4AA 4DD/	4b 4f# 4d 4B^/	.	4bb 4au/	4d^\	.	.
=455	=455	=455	=455	=455	=455	=455
4D 4AA 4DD/	4a 4f# 4d 4A/	.	8.aaL 8.av/	4d\	.	.
.	.	.	16ff#/Jk	.	.	.
2D 2AA 2DD/	2a 2f# 2d 2A^/	.	2ddd 2a/	2d^\	.	.
*	*	*	*v	*v	*	*
=456	=456	=456	=456	=456	=456
*	*^	*	*	*	*
.	.	.	.	16qqccc#/LL	.	p
.	.	.	.	16qqddd/JJ	.	.
4AA 4AAA/	2.a/	4r	p	8ccc#v\L	.	.
.	.	.	.	16r	.	.
.	.	.	.	16ee\Jk	.	.
4r	.	2g 2c# 2A^>\	.	((2bbv^<\	.	.
4r	.	.	.	.	.	.
=457	=457	=457	=457	=457	=457	=457
4D 4DD/	2.a/	4r	.	8aao\L)	.	.
.	.	.	.	16r	.	.
.	.	.	.	16ff#\Jk)	.	.
4r	.	2f# 2d 2A^>\	.	2ddu^<\	.	.
4r	.	.	.	.	.	.
=458	=458	=458	=458	=458	=458	=458
4AA 4AAA/	2.a/	4r	.	8eev\L	.	.
.	.	.	.	16r	.	.
.	.	.	.	16b\Jk	.	.
!	!	!	!	!LO:TX:a:t=P:problem=brak początku łuku	!	!
4r	.	4g 4c# 4A\	.	((2cc#v^<\	.	.
4r	.	4g 4c# 4A^>\	.	.	.	.
!!LO:LB:g=original
=459	=459	=459	=459	=459	=459	=459
4D 4DD/	2.a/	4r	.	8ddo\L)	.	.
.	.	.	.	16r	.	.
.	.	.	.	16ff#'\Jk)	.	.
4r	.	4f# 4d 4A\	.	2aau^<\	.	.
4r	.	4f# 4d 4A^>\	.	.	.	.
=460	=460	=460	=460	=460	=460	=460
.	.	.	.	16qqccc#/LL	.	.
.	.	.	.	16qqddd/JJ	.	.
4AA 4AAA/	2.a/	4r	.	8ccc#v\L	.	.
.	.	.	.	16r	.	.
.	.	.	.	16ee\Jk	.	.
4r	.	2g 2c# 2A^>\	.	((2bb^<\	.	.
4r	.	.	.	.	.	.
=461	=461	=461	=461	=461	=461	=461
4D 4DD/	2.a/	4r	.	8aao\L)	.	.
.	.	.	.	16r	.	.
.	.	.	.	16ff#'\Jk)	.	.
4r	.	2f# 2d 2A^>\	.	2ddu^<\	.	.
4r	.	.	.	.	.	.
=462	=462	=462	=462	=462	=462	=462
.	8qgg#X/	.	.	.	.	.
*tremolo	*	*	*	*	*	*
!	!	!	!LO:DY:rj	!	!	!LO:DY:rj
(>16AAA\LL	2.aa 2.a\	4r<	pp	8.eev\L	.	p
16AA\	.	.	.	.	.	.
16AAA\	.	.	.	.	.	.
16AA\	.	.	.	16bu\Jk	.	.
!	!	!LO:TX:b:Bi:t=poco string&colon; poco cres_cen_do:problem=dynamics with extention lines	!LO:HP:t=poco string&colon; poco cres_cen_do	!LO:TX:b:Bi:t=poco string&colon; poco cres_cen_do:problem=dynamics with extention lines	!	!LO:HP:t=poco string&colon; poco cres_cen_do
16AAA\	.	2c#< 2Gn< 2E<^/	<	(4.cc#v^<\	.	<
16AA\	.	.	.	.	.	.
16AAA\	.	.	.	.	.	.
16AA\	.	.	.	.	.	.
16AAA\	.	.	.	.	.	.
16AA\	.	.	.	.	.	.
16AAA\	.	.	.	8a\)	.	.
16AA\JJ)	.	.	.	.	.	.
=463	=463	=463	=463	=463	=463	=463
.	8qgg#X/	.	.	.	.	.
(>16AAA\LL	2.aa 2.a\	4r<	.	8.ff#u\L	.	.
16AA\	.	.	.	.	.	.
16AAA\	.	.	.	.	.	.
16AA\	.	.	.	16cc#v\Jk	.	.
16AAA\	.	2d 2A< 2F#<^>/	.	(4.ddy^<\	.	.
16AA\	.	.	.	.	.	.
16AAA\	.	.	.	.	.	.
16AA\	.	.	.	.	.	.
16AAA\	.	.	.	.	.	.
16AA\	.	.	.	.	.	.
16AAA\	.	.	.	8a\)	.	.
16AA\JJ)	.	.	.	.	.	.
=464	=464	=464	=464	=464	=464	=464
.	8qgg#X/	.	.	.	.	.
(>16AAA\LL	2.aa 2.a/	4r<	.	8.ggv\L	.	.
16AA\	.	.	.	.	.	.
16AAA\	.	.	.	.	.	.
16AA\	.	.	.	16dd#X\Jk	.	.
16AAA\	.	2e 2B< 2Gn<^>\	.	(4.ee^<\	.	.
16AA\	.	.	.	.	.	.
16AAA\	.	.	.	.	.	.
16AA\	.	.	.	.	.	.
16AAA\	.	.	.	.	.	.
16AA\	.	.	.	.	.	.
16AAA\	.	.	.	8a\)	.	.
16AA\JJ)	.	.	.	.	.	.
=465	=465	=465	=465	=465	=465	=465
.	8qgg#X/	.	.	.	.	.
(>16AAA\LL	2.aa 2.a/	4r<	.	8.aa\L	.	.
16AA\	.	.	.	.	.	.
16AAA\	.	.	.	.	.	.
16AA\	.	.	.	16ee#X\Jk	.	.
16AAA\	.	2f# 2c#< 2A<^>\	.	(4.ff#^<\	.	.
16AA\	.	.	.	.	.	.
16AAA\	.	.	.	.	.	.
16AA\	.	.	.	.	.	.
16AAA\	.	.	.	.	.	.
16AA\	.	.	.	.	.	.
16AAA\	.	.	.	8a\)	.	.
16AA\JJ)	.	.	.	.	.	.
!!LO:LB:g=original
=466	=466	=466	=466	=466	=466	=466
.	8qgg#X/	.	.	.	.	.
(16AAA/LL	2.aa 2.a/	4r	.	8.bb\L	.	.
16AA/	.	.	.	.	.	.
16AAA/	.	.	.	.	.	.
16AA/	.	.	.	16ff#\Jk	.	.
16AAA/	.	2gn 2d 2B^>\	.	(4.gg^<\	.	.
16AA/	.	.	.	.	.	.
16AAA/	.	.	.	.	.	.
16AA/	.	.	.	.	.	.
16AAA/	.	.	.	.	.	.
16AA/	.	.	.	.	.	.
16AAA/	.	.	.	8a\)	.	.
16AA/JJ)	.	.	.	.	.	.
=467	=467	=467	=467	=467	=467	=467
.	8qgg#X/	.	.	.	.	.
(16AAA/LL	2.aa 2.a/	4r	.	8.ccc#\L	.	.
16AA/	.	.	.	.	.	.
16AAA/	.	.	.	.	.	.
16AA/	.	.	.	16gg#X\Jk	.	.
16AAA/	.	2a 2e 2c#^>\	.	(4.aa^<\	.	.
16AA/	.	.	.	.	.	.
16AAA/	.	.	.	.	.	.
16AA/	.	.	.	.	.	.
16AAA/	.	.	.	.	.	.
16AA/	.	.	.	.	.	.
16AAA/	.	.	.	8a\)	.	.
16AA/JJ)	.	.	.	.	.	.
=468	=468	=468	=468	=468	=468	=468
.	8qgg#X/	.	.	.	.	.
(16AAA/LL	2.aa 2.a/	4r	.	8.ddd\L	.	.
16AA/	.	.	.	.	.	.
16AAA/	.	.	.	.	.	.
16AA/	.	.	.	16aa#X\Jk	.	.
16AAA/	.	2b 2f# 2d^>\	.	(4.bb^<\	.	.
16AA/	.	.	.	.	.	.
16AAA/	.	.	.	.	.	.
16AA/	.	.	.	.	.	.
16AAA/	.	.	.	.	.	.
16AA/	.	.	.	.	.	.
16AAA/	.	.	.	8a#y\)	.	[[
16AA/JJ)	.	.	[[	.	.	.
=469	=469	=469	=469	=469	=469	=469
.	8qgg#X/	.	.	.	.	.
(16AAA/LL	2.aa 2.a/	4r	.	8.eee\L	.	.
16AA/	.	.	.	.	.	.
16AAA/	.	.	.	.	.	.
16AA/	.	.	.	16bb#X\Jk	.	.
16AAA/	.	2cc# 2gn 2e^>\	.	(4.ccc#^<\	.	.
16AA/	.	.	.	.	.	.
16AAA/	.	.	.	.	.	.
16AA/	.	.	.	.	.	.
16AAA/	.	.	.	.	.	.
16AA/	.	.	.	.	.	.
16AAA/	.	.	.	8cc#\)	.	.
16AA/JJ)	.	.	.	.	.	.
*Xtremolo	*	*	*	*	*	*
*	*v	*v	*	*	*	*
=470	=470	=470	=470	=470	=470
*^	*	*	*^	*	*
8qGG#X/	.	.	.	.	8qe/	.	.
2AA/	2.DD\	2ccn 2a 2f# 2cn/	fff	(8ff#/L	4a\	.	fff
!	!	!	!	!LO:TX:b:i:t=con fuoco.	!	!	!
.	.	.	.	8gg#X/J)	.	.	.
.	.	.	.	8qbbn/	.	.	.
.	.	.	.	(8aa/L	4.a\	.	.
.	.	.	.	8gg#/	.	.	.
4AA/	.	4cc 4a 4f# 4c/	.	8aa/)	.	.	.
.	.	.	.	8ff#/J	8a\	.	.
=471	=471	=471	=471	=471	=471	=471	=471
8qGG#X/	.	.	.	.	.	.	.
2AA/	2.DD\	2cc#X 2a 2g 2c#X/	.	4eev/	4a\	.	f
.	.	.	.	4eeu/	4a\	.	f
4AA/	.	4cc# 4a 4g 4c#/	.	(4eeu/	4a\	.	f
=472	=472	=472	=472	=472	=472	=472	=472
8qGG#X/	.	.	.	.	.	.	.
2AA/	2.DD\	2ccn 2a 2f# 2cn/	.	8dd/L	8d\L	.	.
.	.	.	.	8ff#/J)	8a\J	.	.
.	.	.	.	8qbb/	.	.	.
.	.	.	.	(8aa/L	4.a\	.	.
.	.	.	.	8gg#X/	.	.	.
4AA/	.	4cc 4a 4f# 4c/	.	8aa/)	.	.	.
.	.	.	.	8ff#/J	8a\	.	.
!!LO:PB:g=original
=473	=473	=473	=473	=473	=473	=473	=473
8qGG#X/	.	.	.	.	.	.	.
2AA/	2.DD\	2cc#X 2a 2g 2c#X/	.	4eev/	4a\	.	f
.	.	.	.	4eeu/	4a\	.	f
4AA/	.	4cc# 4a 4g 4c#/	.	(4eeu/	4a\	.	f
=474	=474	=474	=474	=474	=474	=474	=474
8qGG#X/	.	.	.	.	8qd/	.	.
2AA/	2.DD\	2ccn 2a 2f# 2cn/	.	8ff#/L	4a\	.	.
.	.	.	.	8gg#X/J)	.	.	.
.	.	.	.	8qbb/	.	.	.
.	.	.	.	(8aa/L	4.a\	.	.
.	.	.	.	8gg#/	.	.	.
4AA/	.	4cc 4a 4f# 4c/	.	8aa/)	.	.	.
.	.	.	.	8ff#/J	8a\	.	.
=475	=475	=475	=475	=475	=475	=475	=475
8qGG#X/	.	.	.	.	.	.	.
2AA/	2.DD\	2cc#X 2a 2g 2c#X/	.	4eev/	4a\	.	f
.	.	.	.	4eeu/	4a\	.	f
4AA/	.	4cc# 4a 4g 4c#/	.	(4eeu/	4a\	.	f
=476	=476	=476	=476	=476	=476	=476	=476
8qGG#X/	.	.	.	.	.	.	.
2AA/	2.DD\	2ccn 2a 2f# 2cn/	.	8dd/L	8d\L	.	.
.	.	.	.	8ff#/J)	8a\J	.	.
.	.	.	.	8qbb/	.	.	.
.	.	.	.	(8aa/L	4.a\	.	.
.	.	.	.	8gg#X/	.	.	.
4AA/	.	4cc 4a 4f# 4c/	.	8aa/)	.	.	.
.	.	.	.	8ff#/J	8a\	.	.
=477	=477	=477	=477	=477	=477	=477	=477
8qGG#X/	.	.	.	.	.	.	.
2AA/	2.DD\	2cc#X 2a 2g 2c#X/	.	4eev/	4a\	.	f
.	.	.	.	4eeu/	4a\	.	f
4AA/	.	4cc# 4a 4g 4c#/	.	(4eeu/	4a\	.	f
*v	*v	*	*	*	*	*	*
=478	=478	=478	=478	=478	=478	=478
*	*	*	*	*	*	*^
2AA 2DD/	(>2.f# 2.d/	p	8ff#/L	2.a\	.	p	.
.	.	.	8gg#X/J	.	.	.	.
.	.	.	8qbb/	.	.	.	.
.	.	.	8aa/L	.	.	.	.
!	!	!	!LO:TX:b:Bi:t=de-cres-cen-do.:problem=dynamics with extention lines	!	!	!LO:HP:t=de-cres-cen-do.	!
.	.	.	8gg#/	.	.	>	.
!	!LO:TX:b:Bi:t=de-cres-cen-do.:problem=dynamics with extention lines	!LO:HP:t=de-cres-cen-do.	!	!	!	!	!
4AA 4DD^>/	.	>	8aa/	.	.	.	.
.	.	.	8ff#/J)	.	.	.	.
=479	=479	=479	=479	=479	=479	=479	=479
2A 2D\	2.e 2.c#/	.	(4ee/	4a^\	.	.	.
.	.	.	4ee/	4a^\	.	.	.
4A 4D\	.	.	4ee/)	4a^\	.	.	.
!!LO:LB:g=original
=480	=480	=480	=480	=480	=480	=480	=480
2AA 2DD/	2.d 2.B/	.	(8dd/L	2.a\	.	.	.
.	.	.	8ee/J	.	.	.	.
.	.	.	8qbb/	.	.	.	.
.	.	.	8aa/L	.	.	.	.
.	.	.	8gg#X/	.	.	.	.
4AA 4DD^>/	.	.	8aa/	.	.	.	.
.	.	.	8ff#/J)	.	.	.	.
=481	=481	=481	=481	=481	=481	=481	=481
2A 2D\	2.c# 2.A/)	.	(4ee/	4a\	.	.	.
.	.	.	4ee/	4a\	.	.	.
4A 4D^\	.	.	4ee/)	4a\	.	.	sf
*	*clefF4	*	*	*	*	*	*
=482	=482	=482	=482	=482	=482	=482	=482
2AA 2DD/	(2.B 2.G\	.	(8ff#/L	2.a\	.	.	.
.	.	.	8gg#X/J	.	.	.	.
.	.	.	8qbb/	.	.	.	.
.	.	.	8aa/L	.	.	.	.
.	.	.	8gg#/	.	.	.	.
4AA 4DD^>/	.	.	8aa/	.	.	.	.
.	.	.	8ff#/J)	.	.	.	.
=483	=483	=483	=483	=483	=483	=483	=483
2A 2D\	2.A 2.F#\	.	(4ee/	4a\	.	.	.
.	.	.	4ee/	4a\	.	.	.
4A 4D^\	.	.	4ee/)	4a\	.	.	sf
=484	=484	=484	=484	=484	=484	=484	=484
2AA 2DD/	2.G 2.E\)	]]	(8dd/L	2.a\	.	.	.
.	.	.	8ff#/J	.	.	]	.
.	.	.	8qbb/	.	.	.	.
.	.	.	8aa/L	.	.	.	.
.	.	.	8gg#X/	.	.	.	.
4AA 4DD^>/	.	.	8aa/	.	.	.	.
.	.	.	8ff#/J)	.	.	.	.
*	*	*	*	*	*	*v	*v
=485	=485	=485	=485	=485	=485	=485
!	!	!	!LO:TX:b:i:t=vibrato.	!	!	!
2AA 2DD/	2.F# 2.D\	pp	(4ee^/	4a\	.	.
.	.	.	4ee^/	4a\	.	.
4A 4D^\	.	.	4ee^/	4a\	.	sf
=486	=486	=486	=486	=486	=486	=486
2AA 2DD/	2.F# 2.D\	.	4ee^/	4a\	.	.
.	.	.	4ee^/	4a\	.	.
4A 4D^\	.	.	4ee^/)	4a\	.	sf
!!LO:LB:g=original
=487	=487	=487	=487	=487	=487	=487
2AA 2DD/	2.F# 2.D\	.	(4ee^/	4a\	.	.
.	.	.	4ee^/	4a\	.	.
4A 4D^\	.	.	4ee^/	4a\	.	sf
=488	=488	=488	=488	=488	=488	=488
2AA 2DD/	2.G 2.D^\	.	4ee^/	4a\	.	.
.	.	.	4ee^/	4a\	.	.
4A 4D^\	.	.	4ee^/	4a\	.	sf
=489	=489	=489	=489	=489	=489	=489
.	.	.	8qgg#X/	.	.	.
2AA 2DD/	2.F# 2.D\	.	2.aa/)	2.a\	.	sf
4A 4D^\	.	.	.	.	.	.
=490	=490	=490	=490	=490	=490	=490
!	!LO:TX:b:Bi:t=sempre piu p e rallen-tan-do:problem=dynamics with extention lines	!LO:DY:t=sempre piu p e rallen-tan-do	!	!	!	!
2AA 2DD/	2.F# 2.D\	p	(4ee^/	4a\	.	.
.	.	.	4ee^/	4a\	.	.
4A 4D^\	.	.	4ee^/	4a\	.	sf
=491	=491	=491	=491	=491	=491	=491
2AA 2DD/	2.F# 2.D\	.	4ee^/	4a\	.	.
.	.	.	4ee^/	4a\	.	.
4A 4D^\	.	.	4ee^/	4a\	.	sf
=492	=492	=492	=492	=492	=492	=492
2AA 2DD/	2.G 2.D^\	.	4ee^/	4a\	.	.
.	.	.	4ee^/	4a\	.	.
4A 4D^\	.	.	4ee^/	4a\	.	sf
=493	=493	=493	=493	=493	=493	=493
.	.	.	8qgg#X/	.	.	.
2AA 2DD/	2.F# 2.D\	.	2.aa/)	2.a\	.	sf
4A 4D^\	.	.	.	.	.	.
!!LO:LB:g=original
=494	=494	=494	=494	=494	=494	=494
2AA 2DD/	2.G 2.D^\	.	(4ee^/	4a\	.	.
.	.	.	4ee^/	4a\	.	.
4A 4D^\	.	.	4ee^/)	4a\	.	sf
=495	=495	=495	=495	=495	=495	=495
.	.	.	8qgg#X/	.	.	.
2AA 2DD/	2.F# 2.D\	.	2.aa/	2.a\	.	sf
4A 4D^\	.	.	.	.	.	.
=496	=496	=496	=496	=496	=496	=496
2AA 2DD/	2.G 2.D^\	.	(4ee^/	4a\	.	.
.	.	.	4ee^/	4a\	.	.
4A 4D^\	.	.	4ee^/)	4a\	.	sf
=497	=497	=497	=497	=497	=497	=497
.	.	.	8qgg#X/	.	.	.
!LO:TX:a:t=1	!LO:TX:b:Bi:t=mo_ren_do_:dur=36q:ext=ud:problem=text with extention lines	!	!	!	!	!
2AA 2DD/	2.F# 2.D\	.	(2.aa/	[2.a^\	.	.
4A 4D^\	.	.	.	.	.	.
=498	=498	=498	=498	=498	=498	=498
.	.	.	8qgg#X/)	.	.	.
!LO:TX:a:t=2	!	!	!	!	!	!
2AA 2DD/	2.F# 2.D\	.	(2.aa/	2.a^\_	.	.
4A 4D^\	.	.	.	.	.	.
=499	=499	=499	=499	=499	=499	=499
.	.	.	8qgg#X/)	.	.	.
!LO:TX:a:t=3	!	!	!	!	!	!
2AA 2DD/	2.F# 2.D\	.	(2.aa/	2.a^\_	.	.
4A 4D^\	.	.	.	.	.	.
=500	=500	=500	=500	=500	=500	=500
.	.	.	8qgg#X/)	.	.	.
!LO:TX:a:t=4	!	!	!	!	!	!
2AA 2DD/	2.F# 2.D\	.	2.aa/	2.a^\]	.	.
4A 4D^\	.	.	.	.	.	.
=501	=501	=501	=501	=501	=501	=501
.	.	.	8qgg#X/	.	.	.
!LO:TX:a:t=5	!	!	!	!	!	!
2AA 2DD/	2.F# 2.D\	.	(2.aa/	[2.a^\	.	.
4A 4D^\	.	.	.	.	.	.
!!LO:LB:g=original
=502	=502	=502	=502	=502	=502	=502
.	.	.	8qgg#X/	.	.	.
!LO:TX:a:t=6	!	!	!	!	!	!
2AA 2DD/	2.F# 2.D\	.	(2.aa/)	2.a^\_	.	.
4A 4D^\	.	.	.	.	.	.
=503	=503	=503	=503	=503	=503	=503
.	.	.	8qgg#X/)	.	.	.
!LO:TX:a:t=7	!	!	!	!	!	!
2AA 2DD/	2.F# 2.D\	.	(2.aa/	2.a^\_	.	.
4A 4D^\	.	.	.	.	.	.
=504	=504	=504	=504	=504	=504	=504
.	.	.	8qgg#X/)	.	.	.
!LO:TX:a:t=8	!	!	!	!	!	!
2AA 2DD/	2.F# 2.D\	.	2.aa/	2.a^\]	.	.
4A 4D^\	.	.	.	.	.	.
=505	=505	=505	=505	=505	=505	=505
.	.	.	8qgg#X/	.	.	.
!LO:TX:a:t=9	!	!	!	!	!	!
2AA 2DD/	2.F# 2.D\	.	[2.aa/	[2.a^\	.	.
4A 4D^\	.	.	.	.	.	.
=506	=506	=506	=506	=506	=506	=506
2.r	2.r	.	2.aa/]	2.a\]	.	.
=507	=507	=507	=507	=507	=507	=507
.	.	.	8qgg#X/	.	.	.
2AA 2DD/	2.r	.	[2.aa/	[2.a^\	.	.
4A 4D^\	.	.	.	.	.	.
=508	=508	=508	=508	=508	=508	=508
2.r;	2.r;	.	2.aa;/]	2.a\]	.	.
*	*	*	*v	*v	*	*
=509	=509	=509	=509	=509	=509
!	!	!	!LO:TX:b:i:t=Presto.	!	!LO:DY:rj
4D 4DD/	4F# 4C# 4AA\	ff	4ddd 4ff# 4a 4d\	.	ff
4DD 4DDD/	4f# 4A 4F#\	.	4d/	.	.
!LO:TX:b:i:t=Fine.	!	!	!	!	!
4r	4r	.	4r	.	.
==	==	==	==	==	==
*-	*-	*-	*-	*-	*-
!!!system-decoration: <s1>{(s2,s3)}
!!!RDF**kern: > = above
!!!RDF**kern: < = below
!!!ENC: Andrzej Gręziak
!!!END: 2022-02-27
!!!ENC: Andrzej Kubiczek
!!!END: 2022-03-12
